%
(Header)
(Generated by gcodetools from Inkscape.)
(Using default header. To add your own header create file "header" in the output dir.)
M3
(Header end.)
G21 (All units in mm)
(Tool diameter should be at least 10.0 mm)
(Depth, as a function of radius w, must be 10)
(Rapid feeds use safe Z=4.63518112781e-15 mm)
(Material surface at Z=0.0 mm)
(Change tool to Plasma cutter)
 

G00 X-20.383331 Y-110.000005



M8
G04 P0.2 (pause)

G01 Z0.000000 F100.0(Penetrate)
G01 X-524.999997 Y-110.000005 Z-4.999990 F400.000000
G01 X-25.000007 Y-110.000005 Z0.000000
G01 X-524.999997 Y-110.000005 Z-4.999990
G01 X-24.616664 Y-110.000005 Z0.000000
G01 X-21.794442 Y-110.000005 Z0.000000
G01 X480.000002 Y-110.000005 Z-4.999990
G01 X-19.999988 Y-110.000005 Z0.000000
G01 X480.000002 Y-110.000005 Z-4.999990
G01 X-20.383331 Y-110.000005 Z0.000000

M9

G00 X-19.999988 Y-105.383329



M8
G04 P0.2 (pause)

G01 Z0.000000 F100.0(Penetrate)
G01 X-19.999988 Y-609.999996 Z-4.999990 F400.000000
G01 X-19.999988 Y-110.000005 Z0.000000
G01 X-19.999988 Y-609.999996 Z-4.999990
G01 X-19.999988 Y-109.616663 Z0.000000
G01 X-19.999988 Y-106.794440 Z0.000000
G01 X-19.999988 Y395.000004 Z-4.999990
G01 X-19.999988 Y-104.999987 Z0.000000
G01 X-19.999988 Y395.000004 Z-4.999990
G01 X-19.999988 Y-105.383329 Z0.000000

M9

G00 X-24.616664 Y-104.999987



M8
G04 P0.2 (pause)

G01 Z0.000000 F100.0(Penetrate)
G01 X480.000002 Y-104.999987 Z-4.999990 F400.000000
G01 X-19.999988 Y-104.999987 Z0.000000
G01 X480.000002 Y-104.999987 Z-4.999990
G01 X-20.383331 Y-104.999987 Z0.000000
G01 X-23.205553 Y-104.999987 Z0.000000
G01 X-524.999997 Y-104.999987 Z-4.999990
G01 X-25.000007 Y-104.999987 Z0.000000
G01 X-524.999997 Y-104.999987 Z-4.999990
G01 X-24.616664 Y-104.999987 Z0.000000

M9

G00 X-25.000007 Y-109.616663



M8
G04 P0.2 (pause)

G01 Z0.000000 F100.0(Penetrate)
G01 X-25.000007 Y395.000004 Z-4.999990 F400.000000
G01 X-25.000007 Y-104.999987 Z0.000000
G01 X-25.000007 Y395.000004 Z-4.999990
G01 X-25.000007 Y-105.383329 Z0.000000
G01 X-25.000007 Y-108.205552 Z0.000000
G01 X-25.000007 Y-609.999996 Z-4.999990
G01 X-25.000007 Y-110.000005 Z0.000000
G01 X-25.000007 Y-609.999996 Z-4.999990
G01 X-25.000007 Y-109.616663 Z0.000000

M9

G00 X-18.203813 Y-95.723766



M8
G04 P0.2 (pause)

G01 Z0.000000 F100.0(Penetrate)
G01 X-14.738209 Y-91.853257 Z-4.999990 F400.000000
G01 X-287.621333 Y328.830238 Z-4.999990
G01 X-19.716891 Y-93.339411 Z0.000000
G01 X-287.621333 Y328.830238 Z-4.999990
G01 X-19.715988 Y-93.340851 Z0.000000
G01 X-23.181592 Y-97.211359 Z-4.999990
G01 X249.701531 Y-517.894854 Z-4.999990
G01 X-18.202910 Y-95.725205 Z0.000000
G01 X249.701531 Y-517.894854 Z-4.999990
G01 X-18.203813 Y-95.723766 Z0.000000

M9

G00 X-15.193518 Y-91.208944



M8
G04 P0.2 (pause)

G01 Z-4.999990 F100.0(Penetrate)
G01 X-15.794341 Y-89.932142 Z-4.999990 F400.000000
G01 X-233.816117 Y361.627706 Z-4.999990
G01 X-20.920005 Y-90.782788 Z0.000000
G01 X-233.816117 Y361.627706 Z-4.999990
G01 X-25.443406 Y-92.913256 Z-4.999990
G01 X-24.842555 Y-94.190057 Z-4.999990
G01 X193.179221 Y-545.749905 Z-4.999990
G01 X-19.716891 Y-93.339411 Z0.000000
G01 X193.179221 Y-545.749905 Z-4.999990
G01 X-15.193518 Y-91.208944 Z-4.999990

M9

G00 X-16.165209 Y-89.236211



M8
G04 P0.2 (pause)

G01 Z-4.999990 F100.0(Penetrate)
G01 X-16.601243 Y-87.894131 Z-4.999990 F400.000000
G01 X-176.292963 Y387.435573 Z-4.999990
G01 X-21.793087 Y-88.095497 Z0.000000
G01 X-176.292963 Y387.435573 Z-4.999990
G01 X-26.547883 Y-89.642074 Z-4.999990
G01 X-26.111849 Y-90.984154 Z-4.999990
G01 X133.579871 Y-566.313858 Z-4.999990
G01 X-20.920005 Y-90.782788 Z0.000000
G01 X133.579871 Y-566.313858 Z-4.999990
G01 X-16.165209 Y-89.236211 Z-4.999990

M9

G00 X-21.793398 Y-88.093860



M8
G04 P0.2 (pause)

G01 Z0.000000 F100.0(Penetrate)
G01 X-17.146439 Y-85.770776 Z-4.999990 F400.000000
G01 X-116.021387 Y405.822069 Z-4.999990
G01 X-22.322593 Y-85.320010 Z0.000000
G01 X-116.021387 Y405.822069 Z-4.999990
G01 X-22.322282 Y-85.321647 Z0.000000
G01 X-22.057840 Y-86.707753 Z0.000000
G01 X71.905707 Y-579.237576 Z-4.999990
G01 X-21.793087 Y-88.095497 Z0.000000
G01 X71.905707 Y-579.237576 Z-4.999990
G01 X-21.793398 Y-88.093860 Z0.000000

M9

G00 X-22.322705 Y-85.318317



M8
G04 P0.2 (pause)

G01 Z0.000000 F100.0(Penetrate)
G01 X-53.891575 Y416.513606 Z-4.999990 F400.000000
G01 X-22.499997 Y-82.499989 Z0.000000
G01 X-53.891575 Y416.513606 Z-4.999990
G01 X-22.499885 Y-82.501683 Z0.000000
G01 X-27.401435 Y-84.223916 Z-4.999990
G01 X9.068985 Y-584.333606 Z-4.999990
G01 X-22.322593 Y-85.320010 Z0.000000
G01 X9.068985 Y-584.333606 Z-4.999990
G01 X-22.322705 Y-85.318317 Z0.000000

M9

G00 X-22.499885 Y-82.498324



M8
G04 P0.2 (pause)

G01 Z0.000000 F100.0(Penetrate)
G01 X9.069296 Y419.333571 Z-4.999990 F400.000000
G01 X-22.322593 Y-79.679997 Z0.000000
G01 X9.069296 Y419.333571 Z-4.999990
G01 X-22.322705 Y-79.681662 Z0.000000
G01 X-22.411295 Y-81.090007 Z0.000000
G01 X-53.891886 Y-581.513557 Z-4.999990
G01 X-22.499997 Y-82.499989 Z0.000000
G01 X-53.891886 Y-581.513557 Z-4.999990
G01 X-22.499885 Y-82.498324 Z0.000000

M9

G00 X-17.410882 Y-80.615366



M8
G04 P0.2 (pause)

G01 Z-4.999990 F100.0(Penetrate)
G01 X-17.146439 Y-79.229231 Z-4.999990 F400.000000
G01 X71.905707 Y414.237569 Z-4.999990
G01 X-21.793087 Y-76.904510 Z0.000000
G01 X71.905707 Y414.237569 Z-4.999990
G01 X-26.704826 Y-75.969141 Z-4.999990
G01 X-22.057840 Y-78.292254 Z0.000000
G01 X-116.021387 Y-570.822076 Z-4.999990
G01 X-22.322593 Y-79.679997 Z0.000000
G01 X-116.021387 Y-570.822076 Z-4.999990
G01 X-17.410882 Y-80.615366 Z-4.999990

M9

G00 X-17.037276 Y-78.447899



M8
G04 P0.2 (pause)

G01 Z-4.999990 F100.0(Penetrate)
G01 X-16.601243 Y-77.105848 Z-4.999990 F400.000000
G01 X133.578403 Y401.314359 Z-4.999990
G01 X-20.920005 Y-74.217190 Z0.000000
G01 X133.578403 Y401.314359 Z-4.999990
G01 X-25.675844 Y-72.673802 Z-4.999990
G01 X-26.111877 Y-74.015853 Z-4.999990
G01 X-176.291495 Y-552.436060 Z-4.999990
G01 X-21.793087 Y-76.904510 Z0.000000
G01 X-176.291495 Y-552.436060 Z-4.999990
G01 X-17.037276 Y-78.447899 Z-4.999990

M9

G00 X-15.494282 Y-74.338207



M8
G04 P0.2 (pause)

G01 Z-4.999990 F100.0(Penetrate)
G01 X249.701531 Y352.894847 Z-4.999990 F400.000000
G01 X-18.202910 Y-69.274802 Z0.000000
G01 X249.701531 Y352.894847 Z-4.999990
G01 X-22.425519 Y-66.597190 Z-4.999990
G01 X-18.959887 Y-70.467699 Z0.000000
G01 X-287.621333 Y-493.830245 Z-4.999990
G01 X-19.716891 Y-71.660596 Z0.000000
G01 X-287.621333 Y-493.830245 Z-4.999990
G01 X-15.494282 Y-74.338207 Z-4.999990

M9

G00 X-12.977904 Y-70.741454



M8
G04 P0.2 (pause)

G01 Z-4.999990 F100.0(Penetrate)
G01 X-11.949233 Y-69.775521 Z-4.999990 F400.000000
G01 X-65660785637145488.000000 Y-61657319686907472.000000 Z-4.999990
G01 X-14.341997 Y-65.163501 Z0.000000
G01 X-65660785637145488.000000 Y-61657319686907472.000000 Z-4.999990
G01 X-17.765889 Y-61.519759 Z-4.999990
G01 X-15.371911 Y-66.130621 Z0.000000
G01 X65660785637145448.000000 Y61657319686907336.000000 Z-4.999990
G01 X-16.401796 Y-67.097712 Z0.000000
G01 X65660785637145448.000000 Y61657319686907336.000000 Z-4.999990
G01 X-12.977904 Y-70.741454 Z-4.999990

M9

G00 X-9.645932 Y-67.883362



M8
G04 P0.2 (pause)

G01 Z-4.999990 F100.0(Penetrate)
G01 X428.576686 Y178.729304 Z-4.999990 F400.000000
G01 X-9.580033 Y-62.141409 Z0.000000
G01 X428.576686 Y178.729304 Z-4.999990
G01 X-11.990183 Y-57.760643 Z-4.999990
G01 X-10.818058 Y-62.822017 Z0.000000
G01 X-450.212801 Y-304.373309 Z-4.999990
G01 X-12.056110 Y-63.502595 Z0.000000
G01 X-450.212801 Y-304.373309 Z-4.999990
G01 X-9.645932 Y-67.883362 Z-4.999990

M9

G00 X-7.737771 Y-66.789638



M8
G04 P0.2 (pause)

G01 Z-4.999990 F100.0(Penetrate)
G01 X457.932200 Y122.969107 Z-4.999990 F400.000000
G01 X-6.952883 Y-61.101195 Z0.000000
G01 X457.932200 Y122.969107 Z-4.999990
G01 X-8.795145 Y-56.452967 Z-4.999990
G01 X-10.107168 Y-56.972453 Z-4.999990
G01 X-474.465088 Y-246.211711 Z-4.999990
G01 X-9.580033 Y-62.141409 Z0.000000
G01 X-474.465088 Y-246.211711 Z-4.999990
G01 X-7.737771 Y-66.789638 Z-4.999990

M9

G00 X-5.707775 Y-65.943677



M8
G04 P0.2 (pause)

G01 Z-4.999990 F100.0(Penetrate)
G01 X-4.341001 Y-65.592761 Z-4.999990 F400.000000
G01 X480.075130 Y63.947973 Z-4.999990
G01 X-4.216061 Y-60.398490 Z0.000000
G01 X480.075130 Y63.947973 Z-4.999990
G01 X-5.461169 Y-55.556008 Z-4.999990
G01 X-6.827943 Y-55.906923 Z-4.999990
G01 X-491.244074 Y-185.447658 Z-4.999990
G01 X-6.952883 Y-61.101195 Z0.000000
G01 X-491.244074 Y-185.447658 Z-4.999990
G01 X-5.707775 Y-65.943677 Z-4.999990

M9

G00 X-1.221966 Y-65.044178



M8
G04 P0.2 (pause)

G01 Z-4.999990 F100.0(Penetrate)
G01 X14.300257 Y-65.023547 Z-4.999990 F400.000000
G01 X529.999564 Y-59.338773 Z-4.999990
G01 X29.999997 Y-60.002701 Z0.000000
G01 X529.999564 Y-59.338773 Z-4.999990
G01 X29.809186 Y-55.002937 Z-4.999990
G01 X15.698075 Y-55.021677 Z-4.999990
G01 X14.293596 Y-60.023557 Z0.000000
G01 X0.182513 Y-60.042297 Z0.000000
G01 X-501.412344 Y-60.708341 Z-4.999990
G01 X-1.412776 Y-60.044414 Z0.000000
G01 X-501.412344 Y-60.708341 Z-4.999990
G01 X-1.221966 Y-65.044178 Z-4.999990

M9

G00 X-4.214396 Y-60.398292



M8
G04 P0.2 (pause)

G01 Z0.000000 F100.0(Penetrate)
G01 X-2.187871 Y-65.182043 Z-4.999990 F400.000000
G01 X494.645896 Y2.611658 Z-4.999990
G01 X-1.412776 Y-60.044414 Z0.000000
G01 X494.645896 Y2.611658 Z-4.999990
G01 X-1.414441 Y-60.044611 Z0.000000
G01 X-2.814433 Y-60.221452 Z0.000000
G01 X-500.274734 Y-123.054561 Z-4.999990
G01 X-4.216061 Y-60.398490 Z0.000000
G01 X-500.274734 Y-123.054561 Z-4.999990
G01 X-4.214396 Y-60.398292 Z0.000000

M9

G00 X-4.217698 Y-49.601091



M8
G04 P0.2 (pause)

G01 Z0.000000 F100.0(Penetrate)
G01 X-4.341001 Y-44.407242 Z-4.999990 F400.000000
G01 X-491.244074 Y75.447654 Z-4.999990
G01 X-6.952883 Y-48.898809 Z0.000000
G01 X-491.244074 Y75.447654 Z-4.999990
G01 X-6.951246 Y-48.899232 Z0.000000
G01 X-5.584472 Y-49.250176 Z0.000000
G01 X480.075130 Y-173.947977 Z-4.999990
G01 X-4.216061 Y-49.601514 Z0.000000
G01 X480.075130 Y-173.947977 Z-4.999990
G01 X-4.217698 Y-49.601091 Z0.000000

M9

G00 X-6.954435 Y-48.898188



M8
G04 P0.2 (pause)

G01 Z0.000000 F100.0(Penetrate)
G01 X-6.425748 Y-43.729852 Z-4.999990 F400.000000
G01 X-474.465088 Y136.211707 Z-4.999990
G01 X-9.580033 Y-47.858594 Z0.000000
G01 X-474.465088 Y136.211707 Z-4.999990
G01 X-9.578453 Y-47.859215 Z0.000000
G01 X-8.266458 Y-48.378702 Z0.000000
G01 X457.932200 Y-232.969110 Z-4.999990
G01 X-6.952883 Y-48.898809 Z0.000000
G01 X457.932200 Y-232.969110 Z-4.999990
G01 X-6.954435 Y-48.898188 Z0.000000

M9

G00 X-9.581501 Y-47.857804



M8
G04 P0.2 (pause)

G01 Z0.000000 F100.0(Penetrate)
G01 X-450.212801 Y194.373305 Z-4.999990 F400.000000
G01 X-12.056110 Y-46.497408 Z0.000000
G01 X-450.212801 Y194.373305 Z-4.999990
G01 X-12.054643 Y-46.498198 Z0.000000
G01 X-10.818058 Y-47.178015 Z0.000000
G01 X428.576686 Y-288.729307 Z-4.999990
G01 X-9.580033 Y-47.858594 Z0.000000
G01 X428.576686 Y-288.729307 Z-4.999990
G01 X-9.581501 Y-47.857804 Z0.000000

M9

G00 X-9.118402 Y-42.451414



M8
G04 P0.2 (pause)

G01 Z-4.999990 F100.0(Penetrate)
G01 X-10.259991 Y-41.621963 Z-4.999990 F400.000000
G01 X-418.841854 Y249.068000 Z-4.999990
G01 X-14.341997 Y-44.836502 Z0.000000
G01 X-418.841854 Y249.068000 Z-4.999990
G01 X-17.279677 Y-48.882497 Z-4.999990
G01 X-13.199054 Y-45.666969 Z0.000000
G01 X392.443775 Y-340.401911 Z-4.999990
G01 X-12.056110 Y-46.497408 Z0.000000
G01 X392.443775 Y-340.401911 Z-4.999990
G01 X-9.118402 Y-42.451414 Z-4.999990

M9

G00 X-10.920561 Y-41.190445



M8
G04 P0.2 (pause)

G01 Z-4.999990 F100.0(Penetrate)
G01 X-11.949233 Y-40.224483 Z-4.999990 F400.000000
G01 X-65660785637145488.000000 Y61657319686907360.000000 Z-4.999990
G01 X-19.823233 Y-46.548349 Z-4.999990
G01 X-18.794561 Y-47.514311 Z-4.999990
G01 X65660785637145448.000000 Y-61657319686907448.000000 Z-4.999990
G01 X-10.920561 Y-41.190445 Z-4.999990

M9

G00 X-12.550338 Y-39.713830



M8
G04 P0.2 (pause)

G01 Z-4.999990 F100.0(Penetrate)
G01 X-13.449836 Y-38.626569 Z-4.999990 F400.000000
G01 X-336.920616 Y344.526704 Z-4.999990
G01 X-18.202910 Y-40.725202 Z0.000000
G01 X-336.920616 Y344.526704 Z-4.999990
G01 X-22.054369 Y-43.913664 Z-4.999990
G01 X-17.302339 Y-41.813761 Z0.000000
G01 X302.315910 Y-428.154198 Z-4.999990
G01 X-16.401796 Y-42.902292 Z0.000000
G01 X302.315910 Y-428.154198 Z-4.999990
G01 X-12.550338 Y-39.713830 Z-4.999990

M9

G00 X-15.193518 Y-36.208941



M8
G04 P0.2 (pause)

G01 Z-4.999990 F100.0(Penetrate)
G01 X-15.794341 Y-34.932139 Z-4.999990 F400.000000
G01 X-233.818036 Y416.626749 Z-4.999990
G01 X-20.920005 Y-35.782813 Z0.000000
G01 X-233.818036 Y416.626749 Z-4.999990
G01 X-25.443378 Y-37.913281 Z-4.999990
G01 X-20.318448 Y-37.061111 Z0.000000
G01 X193.181140 Y-490.748971 Z-4.999990
G01 X-19.716891 Y-38.339408 Z0.000000
G01 X193.181140 Y-490.748971 Z-4.999990
G01 X-15.193518 Y-36.208941 Z-4.999990

M9

G00 X-18.203813 Y-40.723762



M8
G04 P0.2 (pause)

G01 Z0.000000 F100.0(Penetrate)
G01 X-14.738209 Y-36.853254 Z-4.999990 F400.000000
G01 X-287.621333 Y383.830241 Z-4.999990
G01 X-19.716891 Y-38.339408 Z0.000000
G01 X-287.621333 Y383.830241 Z-4.999990
G01 X-19.715988 Y-38.340847 Z0.000000
G01 X-23.181592 Y-42.211356 Z-4.999990
G01 X249.701531 Y-462.894851 Z-4.999990
G01 X-18.202910 Y-40.725202 Z0.000000
G01 X249.701531 Y-462.894851 Z-4.999990
G01 X-18.203813 Y-40.723762 Z0.000000

M9

G00 X-20.920513 Y-35.781205



M8
G04 P0.2 (pause)

G01 Z0.000000 F100.0(Penetrate)
G01 X-176.291495 Y442.436056 Z-4.999990 F400.000000
G01 X-21.793087 Y-33.095493 Z0.000000
G01 X-176.291495 Y442.436056 Z-4.999990
G01 X-21.792579 Y-33.097102 Z0.000000
G01 X-21.356546 Y-34.439153 Z0.000000
G01 X133.578403 Y-511.314363 Z-4.999990
G01 X-20.920005 Y-35.782813 Z0.000000
G01 X133.578403 Y-511.314363 Z-4.999990
G01 X-20.920513 Y-35.781205 Z0.000000

M9

G00 X-21.793398 Y-33.093856



M8
G04 P0.2 (pause)

G01 Z0.000000 F100.0(Penetrate)
G01 X-116.021387 Y460.822072 Z-4.999990 F400.000000
G01 X-22.322593 Y-30.320007 Z0.000000
G01 X-116.021387 Y460.822072 Z-4.999990
G01 X-22.322282 Y-30.321644 Z0.000000
G01 X-26.969269 Y-32.644728 Z-4.999990
G01 X71.905707 Y-524.237573 Z-4.999990
G01 X-21.793087 Y-33.095493 Z0.000000
G01 X71.905707 Y-524.237573 Z-4.999990
G01 X-21.793398 Y-33.093856 Z0.000000

M9

G00 X-17.332565 Y-30.004426



M8
G04 P0.2 (pause)

G01 Z-4.999990 F100.0(Penetrate)
G01 X-17.421155 Y-28.596081 Z-4.999990 F400.000000
G01 X-53.891886 Y471.513553 Z-4.999990
G01 X-22.499997 Y-27.500014 Z0.000000
G01 X-53.891886 Y471.513553 Z-4.999990
G01 X-27.490025 Y-27.815595 Z-4.999990
G01 X-27.401435 Y-29.223941 Z-4.999990
G01 X9.069296 Y-529.333575 Z-4.999990
G01 X-22.322593 Y-30.320007 Z0.000000
G01 X9.069296 Y-529.333575 Z-4.999990
G01 X-17.332565 Y-30.004426 Z-4.999990

M9

G00 X-17.509744 Y-27.812237



M8
G04 P0.2 (pause)

G01 Z-4.999990 F100.0(Penetrate)
G01 X9.068985 Y474.333602 Z-4.999990 F400.000000
G01 X-22.322593 Y-24.679993 Z0.000000
G01 X9.068985 Y474.333602 Z-4.999990
G01 X-27.312846 Y-24.367771 Z-4.999990
G01 X-27.401435 Y-25.776088 Z-4.999990
G01 X-53.891575 Y-526.513610 Z-4.999990
G01 X-22.499997 Y-27.500014 Z0.000000
G01 X-53.891575 Y-526.513610 Z-4.999990
G01 X-17.509744 Y-27.812237 Z-4.999990

M9

G00 X-17.410882 Y-25.615363



M8
G04 P0.2 (pause)

G01 Z-4.999990 F100.0(Penetrate)
G01 X71.905707 Y469.237572 Z-4.999990 F400.000000
G01 X-21.793087 Y-21.904507 Z0.000000
G01 X71.905707 Y469.237572 Z-4.999990
G01 X-26.704826 Y-20.969138 Z-4.999990
G01 X-26.969269 Y-22.355273 Z-4.999990
G01 X-116.021387 Y-515.822073 Z-4.999990
G01 X-22.322593 Y-24.679993 Z0.000000
G01 X-116.021387 Y-515.822073 Z-4.999990
G01 X-17.410882 Y-25.615363 Z-4.999990

M9

G00 X-17.037276 Y-23.447896



M8
G04 P0.2 (pause)

G01 Z-4.999990 F100.0(Penetrate)
G01 X-16.601243 Y-22.105845 Z-4.999990 F400.000000
G01 X133.578403 Y456.314362 Z-4.999990
G01 X-20.920005 Y-19.217187 Z0.000000
G01 X133.578403 Y456.314362 Z-4.999990
G01 X-25.675844 Y-17.673799 Z-4.999990
G01 X-26.111877 Y-19.015850 Z-4.999990
G01 X-176.291495 Y-497.436057 Z-4.999990
G01 X-21.793087 Y-21.904507 Z0.000000
G01 X-176.291495 Y-497.436057 Z-4.999990
G01 X-17.037276 Y-23.447896 Z-4.999990

M9

G00 X-15.494282 Y-19.338204



M8
G04 P0.2 (pause)

G01 Z-4.999990 F100.0(Penetrate)
G01 X249.701531 Y407.894850 Z-4.999990 F400.000000
G01 X-18.202910 Y-14.274799 Z0.000000
G01 X249.701531 Y407.894850 Z-4.999990
G01 X-22.425519 Y-11.597187 Z-4.999990
G01 X-18.959887 Y-15.467696 Z0.000000
G01 X-287.621333 Y-438.830241 Z-4.999990
G01 X-19.716891 Y-16.660593 Z0.000000
G01 X-287.621333 Y-438.830241 Z-4.999990
G01 X-15.494282 Y-19.338204 Z-4.999990

M9

G00 X-12.977904 Y-15.741451



M8
G04 P0.2 (pause)

G01 Z-4.999990 F100.0(Penetrate)
G01 X-11.949233 Y-14.775517 Z-4.999990 F400.000000
G01 X-65660785637145488.000000 Y-61657319686907416.000000 Z-4.999990
G01 X-14.341997 Y-10.163498 Z0.000000
G01 X-65660785637145488.000000 Y-61657319686907416.000000 Z-4.999990
G01 X-17.765889 Y-6.519755 Z-4.999990
G01 X-15.371911 Y-11.130617 Z0.000000
G01 X65660785637145448.000000 Y61657319686907392.000000 Z-4.999990
G01 X-16.401796 Y-12.097708 Z0.000000
G01 X65660785637145448.000000 Y61657319686907392.000000 Z-4.999990
G01 X-12.977904 Y-15.741451 Z-4.999990

M9

G00 X-9.645876 Y-12.883359



M8
G04 P0.2 (pause)

G01 Z-4.999990 F100.0(Penetrate)
G01 X-8.409319 Y-12.203570 Z-4.999990 F400.000000
G01 X428.574569 Y233.733145 Z-4.999990
G01 X-9.580033 Y-7.141406 Z0.000000
G01 X428.574569 Y233.733145 Z-4.999990
G01 X-11.990239 Y-2.760668 Z-4.999990
G01 X-13.226824 Y-3.440457 Z-4.999990
G01 X-450.210713 Y-249.377172 Z-4.999990
G01 X-12.056110 Y-8.502620 Z0.000000
G01 X-450.210713 Y-249.377172 Z-4.999990
G01 X-9.645876 Y-12.883359 Z-4.999990

M9

G00 X-5.707775 Y-10.943730



M8
G04 P0.2 (pause)

G01 Z-4.999990 F100.0(Penetrate)
G01 X-4.341001 Y-10.592815 Z-4.999990 F400.000000
G01 X480.075130 Y118.947920 Z-4.999990
G01 X-4.216061 Y-5.398543 Z0.000000
G01 X480.075130 Y118.947920 Z-4.999990
G01 X-5.461169 Y-0.556061 Z-4.999990
G01 X-6.827943 Y-0.906976 Z-4.999990
G01 X-491.244074 Y-130.447711 Z-4.999990
G01 X-6.952883 Y-6.101248 Z0.000000
G01 X-491.244074 Y-130.447711 Z-4.999990
G01 X-5.707775 Y-10.943730 Z-4.999990

M9

G00 X-3.587750 Y-10.358909



M8
G04 P0.2 (pause)

G01 Z-4.999990 F100.0(Penetrate)
G01 X-357447058198509180.000000 Y-45155531760818768.000000 Z-4.999990 F400.000000
G01 X-1.412776 Y-5.044410 Z0.000000
G01 X-357447058198509180.000000 Y-45155531760818768.000000 Z-4.999990
G01 X-2.041088 Y-0.084044 Z-4.999990
G01 X-3.441079 Y-0.260913 Z-4.999990
G01 X357447058198509180.000000 Y45155531760818768.000000 Z-4.999990
G01 X-4.216061 Y-5.398543 Z0.000000
G01 X357447058198509180.000000 Y45155531760818768.000000 Z-4.999990
G01 X-3.587750 Y-10.358909 Z-4.999990

M9

G00 X-1.221966 Y-10.044175



M8
G04 P0.2 (pause)

G01 Z-4.999990 F100.0(Penetrate)
G01 X0.189145 Y-10.042284 Z-4.999990 F400.000000
G01 X529.999564 Y-4.338290 Z-4.999990
G01 X29.999997 Y-5.002670 Z0.000000
G01 X529.999564 Y-4.338290 Z-4.999990
G01 X29.809186 Y-0.002906 Z-4.999990
G01 X28.398075 Y-0.004796 Z-4.999990
G01 X26.993596 Y-5.006677 Z0.000000
G01 X25.575853 Y-0.008550 Z-4.999990
G01 X24.164742 Y-0.010413 Z-4.999990
G01 X22.760263 Y-5.012294 Z0.000000
G01 X21.349152 Y-5.014156 Z0.000000
G01 X19.931408 Y-0.016057 Z-4.999990
G01 X18.526929 Y-5.017910 Z0.000000
G01 X17.115818 Y-5.019801 Z0.000000
G01 X15.698075 Y-0.021673 Z-4.999990
G01 X14.293596 Y-5.023554 Z0.000000
G01 X12.882513 Y-5.025417 Z0.000000
G01 X11.464742 Y-0.027290 Z-4.999990
G01 X10.053631 Y-0.029180 Z-4.999990
G01 X8.649180 Y-5.031033 Z0.000000
G01 X7.231408 Y-0.032906 Z-4.999990
G01 X5.820297 Y-0.034797 Z-4.999990
G01 X4.415846 Y-5.036678 Z0.000000
G01 X3.004735 Y-5.038540 Z0.000000
G01 X1.586964 Y-0.040413 Z-4.999990
G01 X0.182513 Y-5.042294 Z0.000000
G01 X-501.412344 Y-5.708790 Z-4.999990
G01 X-1.412776 Y-5.044410 Z0.000000
G01 X-501.412344 Y-5.708790 Z-4.999990
G01 X-1.221966 Y-10.044175 Z-4.999990

M9

G00 X-9.578481 Y-7.140785



M8
G04 P0.2 (pause)

G01 Z0.000000 F100.0(Penetrate)
G01 X-6.425833 Y-11.270205 Z-4.999990 F400.000000
G01 X457.935615 Y177.960417 Z-4.999990
G01 X-6.952883 Y-6.101248 Z0.000000
G01 X457.935615 Y177.960417 Z-4.999990
G01 X-6.954435 Y-6.101869 Z0.000000
G01 X-8.266458 Y-6.621327 Z0.000000
G01 X-474.468503 Y-191.203072 Z-4.999990
G01 X-9.580033 Y-7.141406 Z0.000000
G01 X-474.468503 Y-191.203072 Z-4.999990
G01 X-9.578481 Y-7.140785 Z0.000000

M9

G00 X-14.340643 Y-10.162511



M8
G04 P0.2 (pause)

G01 Z0.000000 F100.0(Penetrate)
G01 X392.446145 Y285.398608 Z-4.999990 F400.000000
G01 X-12.056110 Y-8.502620 Z0.000000
G01 X392.446145 Y285.398608 Z-4.999990
G01 X-12.057465 Y-8.503608 Z0.000000
G01 X-16.138059 Y-5.288025 Z-4.999990
G01 X-418.844253 Y-304.064727 Z-4.999990
G01 X-14.341997 Y-10.163498 Z0.000000
G01 X-418.844253 Y-304.064727 Z-4.999990
G01 X-14.340643 Y-10.162511 Z0.000000

M9

G00 X-18.201838 Y-14.273529



M8
G04 P0.2 (pause)

G01 Z0.000000 F100.0(Penetrate)
G01 X302.315910 Y373.154198 Z-4.999990 F400.000000
G01 X-16.401796 Y-12.097708 Z0.000000
G01 X302.315910 Y373.154198 Z-4.999990
G01 X-16.402869 Y-12.098978 Z0.000000
G01 X-21.154870 Y-9.999076 Z-4.999990
G01 X-336.920616 Y-399.526705 Z-4.999990
G01 X-18.202910 Y-14.274799 Z0.000000
G01 X-336.920616 Y-399.526705 Z-4.999990
G01 X-18.201838 Y-14.273529 Z0.000000

M9

G00 X-20.919299 Y-19.215691



M8
G04 P0.2 (pause)

G01 Z0.000000 F100.0(Penetrate)
G01 X-15.794341 Y-20.067861 Z-4.999990 F400.000000
G01 X193.181140 Y435.748970 Z-4.999990
G01 X-19.716891 Y-16.660593 Z0.000000
G01 X193.181140 Y435.748970 Z-4.999990
G01 X-19.717597 Y-16.662088 Z0.000000
G01 X-20.318448 Y-17.938890 Z0.000000
G01 X-233.818036 Y-471.626750 Z-4.999990
G01 X-20.920005 Y-19.217187 Z0.000000
G01 X-233.818036 Y-471.626750 Z-4.999990
G01 X-20.919299 Y-19.215691 Z0.000000

M9

G00 X-20.383331 Y-4.999989



M8
G04 P0.2 (pause)

G01 Z0.000000 F100.0(Penetrate)
G01 X-524.999997 Y-4.999989 Z-4.999990 F400.000000
G01 X-25.000007 Y-4.999989 Z0.000000
G01 X-524.999997 Y-4.999989 Z-4.999990
G01 X-24.616664 Y-4.999989 Z0.000000
G01 X-21.794442 Y-4.999989 Z0.000000
G01 X480.000002 Y-4.999989 Z-4.999990
G01 X-19.999988 Y-4.999989 Z0.000000
G01 X480.000002 Y-4.999989 Z-4.999990
G01 X-20.383331 Y-4.999989 Z0.000000

M9

G00 X-25.000007 Y-4.938888



M8
G04 P0.2 (pause)

G01 Z0.000000 F100.0(Penetrate)
G01 X-25.000007 Y504.999982 Z-4.999990 F400.000000
G01 X-25.000007 Y4.999991 Z0.000000
G01 X-25.000007 Y504.999982 Z-4.999990
G01 X-25.000007 Y4.938890 Z0.000000
G01 X-25.000007 Y-3.527776 Z0.000000
G01 X-25.000007 Y-504.999979 Z-4.999990
G01 X-25.000007 Y-4.999989 Z0.000000
G01 X-25.000007 Y-504.999979 Z-4.999990
G01 X-25.000007 Y-4.938888 Z0.000000

M9

G00 X-24.616664 Y4.999991



M8
G04 P0.2 (pause)

G01 Z0.000000 F100.0(Penetrate)
G01 X480.000002 Y4.999991 Z-4.999990 F400.000000
G01 X-19.999988 Y4.999991 Z0.000000
G01 X480.000002 Y4.999991 Z-4.999990
G01 X-20.383331 Y4.999991 Z0.000000
G01 X-23.205553 Y4.999991 Z0.000000
G01 X-524.999997 Y4.999991 Z-4.999990
G01 X-25.000007 Y4.999991 Z0.000000
G01 X-524.999997 Y4.999991 Z-4.999990
G01 X-24.616664 Y4.999991 Z0.000000

M9

G00 X-19.999988 Y4.938890



M8
G04 P0.2 (pause)

G01 Z0.000000 F100.0(Penetrate)
G01 X-19.999988 Y-504.999979 Z-4.999990 F400.000000
G01 X-19.999988 Y-4.999989 Z0.000000
G01 X-19.999988 Y-504.999979 Z-4.999990
G01 X-19.999988 Y-4.938888 Z0.000000
G01 X-19.999988 Y3.527779 Z0.000000
G01 X-19.999988 Y504.999982 Z-4.999990
G01 X-19.999988 Y4.999991 Z0.000000
G01 X-19.999988 Y504.999982 Z-4.999990
G01 X-19.999988 Y4.938890 Z0.000000

M9

G00 X-14.343239 Y10.164658



M8
G04 P0.2 (pause)

G01 Z0.000000 F100.0(Penetrate)
G01 X-11.949233 Y14.775520 Z-4.999990 F400.000000
G01 X-380.892391 Y354.364604 Z-4.999990
G01 X-16.401796 Y12.097711 Z0.000000
G01 X-380.892391 Y354.364604 Z-4.999990
G01 X-16.400583 Y12.096554 Z0.000000
G01 X-15.371911 Y11.130620 Z0.000000
G01 X350.148569 Y-332.103392 Z-4.999990
G01 X-14.341997 Y10.163501 Z0.000000
G01 X350.148569 Y-332.103392 Z-4.999990
G01 X-14.343239 Y10.164658 Z0.000000

M9

G00 X-12.550338 Y15.286173



M8
G04 P0.2 (pause)

G01 Z-4.999990 F100.0(Penetrate)
G01 X-13.449836 Y16.373434 Z-4.999990 F400.000000
G01 X-57415076932040656.000000 Y69400812548186520.000000 Z-4.999990
G01 X-22.054369 Y11.086339 Z-4.999990
G01 X-21.154870 Y9.999078 Z-4.999990
G01 X57415076932040624.000000 Y-69400812548186496.000000 Z-4.999990
G01 X-12.550338 Y15.286173 Z-4.999990

M9

G00 X-15.193518 Y18.791091



M8
G04 P0.2 (pause)

G01 Z-4.999990 F100.0(Penetrate)
G01 X-15.794341 Y20.067864 Z-4.999990 F400.000000
G01 X-233.817641 Y471.626950 Z-4.999990
G01 X-20.920005 Y19.217190 Z0.000000
G01 X-233.817641 Y471.626950 Z-4.999990
G01 X-25.443406 Y17.086723 Z-4.999990
G01 X-20.318448 Y17.938893 Z0.000000
G01 X193.180745 Y-435.749165 Z-4.999990
G01 X-19.716891 Y16.660595 Z0.000000
G01 X193.180745 Y-435.749165 Z-4.999990
G01 X-15.193518 Y18.791091 Z-4.999990

M9

G00 X-16.165209 Y20.763796



M8
G04 P0.2 (pause)

G01 Z-4.999990 F100.0(Penetrate)
G01 X-176.292539 Y497.435693 Z-4.999990 F400.000000
G01 X-21.793087 Y21.904510 Z0.000000
G01 X-176.292539 Y497.435693 Z-4.999990
G01 X-26.547883 Y20.357904 Z-4.999990
G01 X-21.356546 Y20.560850 Z0.000000
G01 X133.579447 Y-456.313993 Z-4.999990
G01 X-20.920005 Y19.217190 Z0.000000
G01 X133.579447 Y-456.313993 Z-4.999990
G01 X-16.165209 Y20.763796 Z-4.999990

M9

G00 X-16.881997 Y22.843125



M8
G04 P0.2 (pause)

G01 Z-4.999990 F100.0(Penetrate)
G01 X-17.146439 Y24.229231 Z-4.999990 F400.000000
G01 X-116.021020 Y515.822132 Z-4.999990
G01 X-22.322593 Y24.679996 Z0.000000
G01 X-116.021020 Y515.822132 Z-4.999990
G01 X-27.233711 Y23.741381 Z-4.999990
G01 X-22.057840 Y23.292253 Z0.000000
G01 X71.905340 Y-469.237654 Z-4.999990
G01 X-21.793087 Y21.904510 Z0.000000
G01 X71.905340 Y-469.237654 Z-4.999990
G01 X-16.881997 Y22.843125 Z-4.999990

M9

G00 X-17.332565 Y24.995577



M8
G04 P0.2 (pause)

G01 Z-4.999990 F100.0(Penetrate)
G01 X-53.891801 Y526.513585 Z-4.999990 F400.000000
G01 X-22.499997 Y27.499989 Z0.000000
G01 X-53.891801 Y526.513585 Z-4.999990
G01 X-27.490025 Y27.184408 Z-4.999990
G01 X-27.401435 Y25.776091 Z-4.999990
G01 X9.069211 Y-474.333571 Z-4.999990
G01 X-22.322593 Y24.679996 Z0.000000
G01 X9.069211 Y-474.333571 Z-4.999990
G01 X-17.332565 Y24.995577 Z-4.999990

M9

G00 X-22.499885 Y27.501682



M8
G04 P0.2 (pause)

G01 Z0.000000 F100.0(Penetrate)
G01 X-17.421155 Y28.596083 Z-4.999990 F400.000000
G01 X9.069211 Y529.333577 Z-4.999990
G01 X-22.322593 Y30.320010 Z0.000000
G01 X9.069211 Y529.333577 Z-4.999990
G01 X-22.322705 Y30.318316 Z0.000000
G01 X-22.411295 Y28.909999 Z0.000000
G01 X-53.891801 Y-471.513579 Z-4.999990
G01 X-22.499997 Y27.499989 Z0.000000
G01 X-53.891801 Y-471.513579 Z-4.999990
G01 X-22.499885 Y27.501682 Z0.000000

M9

G00 X-22.322282 Y30.321647



M8
G04 P0.2 (pause)

G01 Z0.000000 F100.0(Penetrate)
G01 X71.905340 Y524.237632 Z-4.999990 F400.000000
G01 X-21.793087 Y33.095496 Z0.000000
G01 X71.905340 Y524.237632 Z-4.999990
G01 X-21.793426 Y33.093859 Z0.000000
G01 X-26.969269 Y32.644731 Z-4.999990
G01 X-116.021020 Y-460.822154 Z-4.999990
G01 X-22.322593 Y30.320010 Z0.000000
G01 X-116.021020 Y-460.822154 Z-4.999990
G01 X-22.322282 Y30.321647 Z0.000000

M9

G00 X-21.792579 Y33.097105



M8
G04 P0.2 (pause)

G01 Z0.000000 F100.0(Penetrate)
G01 X-16.601243 Y32.894159 Z-4.999990 F400.000000
G01 X133.579447 Y511.313999 Z-4.999990
G01 X-20.920005 Y35.782788 Z0.000000
G01 X133.579447 Y511.313999 Z-4.999990
G01 X-20.920513 Y35.781207 Z0.000000
G01 X-26.111849 Y35.984153 Z-4.999990
G01 X-176.292539 Y-442.435715 Z-4.999990
G01 X-21.793087 Y33.095496 Z0.000000
G01 X-176.292539 Y-442.435715 Z-4.999990
G01 X-21.792579 Y33.097105 Z0.000000

M9

G00 X-20.919299 Y35.784312



M8
G04 P0.2 (pause)

G01 Z0.000000 F100.0(Penetrate)
G01 X-15.794341 Y34.932114 Z-4.999990 F400.000000
G01 X193.180745 Y490.749171 Z-4.999990
G01 X-19.716891 Y38.339411 Z0.000000
G01 X193.180745 Y490.749171 Z-4.999990
G01 X-19.717597 Y38.337887 Z0.000000
G01 X-20.318448 Y37.061085 Z0.000000
G01 X-233.817641 Y-416.626972 Z-4.999990
G01 X-20.920005 Y35.782788 Z0.000000
G01 X-233.817641 Y-416.626972 Z-4.999990
G01 X-20.919299 Y35.784312 Z0.000000

M9

G00 X-15.494282 Y35.661799



M8
G04 P0.2 (pause)

G01 Z-4.999990 F100.0(Penetrate)
G01 X-14.738209 Y36.853257 Z-4.999990 F400.000000
G01 X48261250765107744.000000 Y76051400487091984.000000 Z-4.999990
G01 X-22.425519 Y43.402788 Z-4.999990
G01 X-23.181592 Y42.211330 Z-4.999990
G01 X-48261250765107784.000000 Y-76051400487091904.000000 Z-4.999990
G01 X-15.494282 Y35.661799 Z-4.999990

M9

G00 X-18.201838 Y40.726474



M8
G04 P0.2 (pause)

G01 Z0.000000 F100.0(Penetrate)
G01 X302.315176 Y428.154822 Z-4.999990 F400.000000
G01 X-16.401796 Y42.902295 Z0.000000
G01 X302.315176 Y428.154822 Z-4.999990
G01 X-16.402869 Y42.901025 Z0.000000
G01 X-17.302339 Y41.813764 Z0.000000
G01 X-336.919854 Y-344.527294 Z-4.999990
G01 X-18.202910 Y40.725204 Z0.000000
G01 X-336.919854 Y-344.527294 Z-4.999990
G01 X-18.201838 Y40.726474 Z0.000000

M9

G00 X-16.400583 Y42.903452



M8
G04 P0.2 (pause)

G01 Z0.000000 F100.0(Penetrate)
G01 X-11.949233 Y40.224486 Z-4.999990 F400.000000
G01 X350.149585 Y387.102325 Z-4.999990
G01 X-14.341997 Y44.836505 Z0.000000
G01 X350.149585 Y387.102325 Z-4.999990
G01 X-14.343211 Y44.835348 Z0.000000
G01 X-15.371911 Y43.869386 Z0.000000
G01 X-380.893379 Y-299.363526 Z-4.999990
G01 X-16.401796 Y42.902295 Z0.000000
G01 X-380.893379 Y-299.363526 Z-4.999990
G01 X-16.400583 Y42.903452 Z0.000000

M9

G00 X-11.401609 Y40.792486



M8
G04 P0.2 (pause)

G01 Z-4.999990 F100.0(Penetrate)
G01 X392.444255 Y340.401264 Z-4.999990 F400.000000
G01 X-12.056110 Y46.497411 Z0.000000
G01 X392.444255 Y340.401264 Z-4.999990
G01 X-14.996499 Y50.541401 Z-4.999990
G01 X-16.138088 Y49.711950 Z-4.999990
G01 X-418.842334 Y-249.067348 Z-4.999990
G01 X-14.341997 Y44.836505 Z0.000000
G01 X-418.842334 Y-249.067348 Z-4.999990
G01 X-11.401609 Y40.792486 Z-4.999990

M9

G00 X-7.737771 Y43.210369



M8
G04 P0.2 (pause)

G01 Z-4.999990 F100.0(Penetrate)
G01 X457.933047 Y232.966940 Z-4.999990 F400.000000
G01 X-6.952883 Y48.898812 Z0.000000
G01 X457.933047 Y232.966940 Z-4.999990
G01 X-8.795117 Y53.547040 Z-4.999990
G01 X-10.107140 Y53.027553 Z-4.999990
G01 X-474.465963 Y-136.209531 Z-4.999990
G01 X-9.580033 Y47.858597 Z0.000000
G01 X-474.465963 Y-136.209531 Z-4.999990
G01 X-7.737771 Y43.210369 Z-4.999990

M9

G00 X-3.587806 Y44.641122



M8
G04 P0.2 (pause)

G01 Z-4.999990 F100.0(Penetrate)
G01 X494.645332 Y112.616095 Z-4.999990 F400.000000
G01 X-1.412776 Y49.955593 Z0.000000
G01 X494.645332 Y112.616095 Z-4.999990
G01 X-2.041031 Y54.915987 Z-4.999990
G01 X-2.814433 Y49.778555 Z0.000000
G01 X-500.274198 Y-13.058985 Z-4.999990
G01 X-4.216061 Y49.601489 Z0.000000
G01 X-500.274198 Y-13.058985 Z-4.999990
G01 X-3.587806 Y44.641122 Z-4.999990

M9

G00 X-1.221966 Y44.955857



M8
G04 P0.2 (pause)

G01 Z-4.999990 F100.0(Penetrate)
G01 X0.189145 Y44.957719 Z-4.999990 F400.000000
G01 X529.999564 Y50.661007 Z-4.999990
G01 X29.999997 Y49.997305 Z0.000000
G01 X529.999564 Y50.661007 Z-4.999990
G01 X29.809186 Y54.997041 Z-4.999990
G01 X28.398075 Y54.995179 Z-4.999990
G01 X26.993596 Y49.993298 Z0.000000
G01 X25.575853 Y54.991425 Z-4.999990
G01 X24.164742 Y54.989562 Z-4.999990
G01 X22.760263 Y49.987681 Z0.000000
G01 X21.349152 Y49.985819 Z0.000000
G01 X19.931408 Y54.983946 Z-4.999990
G01 X18.526929 Y49.982065 Z0.000000
G01 X17.115818 Y49.980203 Z0.000000
G01 X15.698075 Y54.978330 Z-4.999990
G01 X14.293596 Y49.976449 Z0.000000
G01 X12.882513 Y49.974586 Z0.000000
G01 X11.464742 Y54.972714 Z-4.999990
G01 X10.053631 Y54.970823 Z-4.999990
G01 X8.649180 Y49.968970 Z0.000000
G01 X7.231436 Y54.967069 Z-4.999990
G01 X5.820325 Y54.965207 Z-4.999990
G01 X4.415846 Y49.963326 Z0.000000
G01 X3.004735 Y49.961463 Z0.000000
G01 X1.586992 Y54.959590 Z-4.999990
G01 X0.182513 Y49.957709 Z0.000000
G01 X-501.412344 Y49.291891 Z-4.999990
G01 X-1.412776 Y49.955593 Z0.000000
G01 X-501.412344 Y49.291891 Z-4.999990
G01 X-1.221966 Y44.955857 Z-4.999990

M9

G00 X-6.951246 Y48.899207



M8
G04 P0.2 (pause)

G01 Z0.000000 F100.0(Penetrate)
G01 X480.075384 Y173.947020 Z-4.999990 F400.000000
G01 X-4.216061 Y49.601489 Z0.000000
G01 X480.075384 Y173.947020 Z-4.999990
G01 X-4.217698 Y49.601093 Z0.000000
G01 X-5.584472 Y49.250150 Z0.000000
G01 X-491.244300 Y-75.446720 Z-4.999990
G01 X-6.952883 Y48.898812 Z0.000000
G01 X-491.244300 Y-75.446720 Z-4.999990
G01 X-6.951246 Y48.899207 Z0.000000

M9

G00 X-12.054643 Y46.498201



M8
G04 P0.2 (pause)

G01 Z0.000000 F100.0(Penetrate)
G01 X428.575614 Y288.731229 Z-4.999990 F400.000000
G01 X-9.580033 Y47.858597 Z0.000000
G01 X428.575614 Y288.731229 Z-4.999990
G01 X-9.581501 Y47.857807 Z0.000000
G01 X-10.818058 Y47.177990 Z0.000000
G01 X-450.211757 Y-194.375221 Z-4.999990
G01 X-12.056110 Y46.497411 Z0.000000
G01 X-450.211757 Y-194.375221 Z-4.999990
G01 X-12.054643 Y46.498201 Z0.000000

M9

G00 X-20.383331 Y49.999986



M8
G04 P0.2 (pause)

G01 Z0.000000 F100.0(Penetrate)
G01 X-524.999997 Y49.999986 Z-4.999990 F400.000000
G01 X-25.000007 Y49.999986 Z0.000000
G01 X-524.999997 Y49.999986 Z-4.999990
G01 X-24.616664 Y49.999986 Z0.000000
G01 X-21.794442 Y49.999986 Z0.000000
G01 X480.000002 Y49.999986 Z-4.999990
G01 X-19.999988 Y49.999986 Z0.000000
G01 X480.000002 Y49.999986 Z-4.999990
G01 X-20.383331 Y49.999986 Z0.000000

M9

G00 X-25.000007 Y50.061116



M8
G04 P0.2 (pause)

G01 Z0.000000 F100.0(Penetrate)
G01 X-25.000007 Y560.000013 Z-4.999990 F400.000000
G01 X-25.000007 Y59.999995 Z0.000000
G01 X-25.000007 Y560.000013 Z-4.999990
G01 X-25.000007 Y59.938893 Z0.000000
G01 X-25.000007 Y51.472227 Z0.000000
G01 X-25.000007 Y-450.000004 Z-4.999990
G01 X-25.000007 Y49.999986 Z0.000000
G01 X-25.000007 Y-450.000004 Z-4.999990
G01 X-25.000007 Y50.061116 Z0.000000

M9

G00 X-24.616664 Y59.999995



M8
G04 P0.2 (pause)

G01 Z0.000000 F100.0(Penetrate)
G01 X480.000002 Y59.999995 Z-4.999990 F400.000000
G01 X-19.999988 Y59.999995 Z0.000000
G01 X480.000002 Y59.999995 Z-4.999990
G01 X-20.383331 Y59.999995 Z0.000000
G01 X-23.205553 Y59.999995 Z0.000000
G01 X-524.999997 Y59.999995 Z-4.999990
G01 X-25.000007 Y59.999995 Z0.000000
G01 X-524.999997 Y59.999995 Z-4.999990
G01 X-24.616664 Y59.999995 Z0.000000

M9

G00 X-19.999988 Y59.938893



M8
G04 P0.2 (pause)

G01 Z0.000000 F100.0(Penetrate)
G01 X-19.999988 Y-450.000004 Z-4.999990 F400.000000
G01 X-19.999988 Y49.999986 Z0.000000
G01 X-19.999988 Y-450.000004 Z-4.999990
G01 X-19.999988 Y50.061116 Z0.000000
G01 X-19.999988 Y58.527782 Z0.000000
G01 X-19.999988 Y560.000013 Z-4.999990
G01 X-19.999988 Y59.999995 Z0.000000
G01 X-19.999988 Y560.000013 Z-4.999990
G01 X-19.999988 Y59.938893 Z0.000000

M9

G00 X-16.402869 Y67.098984



M8
G04 P0.2 (pause)

G01 Z0.000000 F100.0(Penetrate)
G01 X-336.919628 Y454.527501 Z-4.999990 F400.000000
G01 X-18.202910 Y69.274805 Z0.000000
G01 X-336.919628 Y454.527501 Z-4.999990
G01 X-18.201838 Y69.273506 Z0.000000
G01 X-17.302339 Y68.186245 Z0.000000
G01 X302.314922 Y-318.155010 Z-4.999990
G01 X-16.401796 Y67.097686 Z0.000000
G01 X302.314922 Y-318.155010 Z-4.999990
G01 X-16.402869 Y67.098984 Z0.000000

M9

G00 X-18.203813 Y69.276244



M8
G04 P0.2 (pause)

G01 Z0.000000 F100.0(Penetrate)
G01 X-287.620881 Y493.830530 Z-4.999990 F400.000000
G01 X-19.716891 Y71.660598 Z0.000000
G01 X-287.620881 Y493.830530 Z-4.999990
G01 X-19.715988 Y71.659159 Z0.000000
G01 X-18.959887 Y70.467702 Z0.000000
G01 X249.701080 Y-352.895126 Z-4.999990
G01 X-18.202910 Y69.274805 Z0.000000
G01 X249.701080 Y-352.895126 Z-4.999990
G01 X-18.203813 Y69.276244 Z0.000000

M9

G00 X-15.193518 Y73.791066



M8
G04 P0.2 (pause)

G01 Z-4.999990 F100.0(Penetrate)
G01 X-15.794341 Y75.067867 Z-4.999990 F400.000000
G01 X-233.817641 Y526.626953 Z-4.999990
G01 X-20.920005 Y74.217193 Z0.000000
G01 X-233.817641 Y526.626953 Z-4.999990
G01 X-25.443406 Y72.086726 Z-4.999990
G01 X-20.318448 Y72.938896 Z0.000000
G01 X193.180745 Y-380.749162 Z-4.999990
G01 X-19.716891 Y71.660598 Z0.000000
G01 X193.180745 Y-380.749162 Z-4.999990
G01 X-15.193518 Y73.791066 Z-4.999990

M9

G00 X-16.165209 Y75.763799



M8
G04 P0.2 (pause)

G01 Z-4.999990 F100.0(Penetrate)
G01 X-176.292539 Y552.435696 Z-4.999990 F400.000000
G01 X-21.793087 Y76.904513 Z0.000000
G01 X-176.292539 Y552.435696 Z-4.999990
G01 X-26.547883 Y75.357907 Z-4.999990
G01 X-21.356546 Y75.560853 Z0.000000
G01 X133.579447 Y-401.313990 Z-4.999990
G01 X-20.920005 Y74.217193 Z0.000000
G01 X133.579447 Y-401.313990 Z-4.999990
G01 X-16.165209 Y75.763799 Z-4.999990

M9

G00 X-16.881997 Y77.843128



M8
G04 P0.2 (pause)

G01 Z-4.999990 F100.0(Penetrate)
G01 X-116.021020 Y570.822135 Z-4.999990 F400.000000
G01 X-22.322593 Y79.679999 Z0.000000
G01 X-116.021020 Y570.822135 Z-4.999990
G01 X-27.233711 Y78.741385 Z-4.999990
G01 X-26.969269 Y77.355278 Z-4.999990
G01 X71.905340 Y-414.237651 Z-4.999990
G01 X-21.793087 Y76.904513 Z0.000000
G01 X71.905340 Y-414.237651 Z-4.999990
G01 X-16.881997 Y77.843128 Z-4.999990

M9

G00 X-17.332565 Y79.995580



M8
G04 P0.2 (pause)

G01 Z-4.999990 F100.0(Penetrate)
G01 X-17.421155 Y81.403926 Z-4.999990 F400.000000
G01 X-53.891801 Y581.513588 Z-4.999990
G01 X-22.499997 Y82.499992 Z0.000000
G01 X-53.891801 Y581.513588 Z-4.999990
G01 X-27.490025 Y82.184411 Z-4.999990
G01 X-22.411295 Y81.090010 Z0.000000
G01 X9.069211 Y-419.333596 Z-4.999990
G01 X-22.322593 Y79.679999 Z0.000000
G01 X9.069211 Y-419.333596 Z-4.999990
G01 X-17.332565 Y79.995580 Z-4.999990

M9

G00 X-22.499885 Y82.501685



M8
G04 P0.2 (pause)

G01 Z0.000000 F100.0(Penetrate)
G01 X9.069211 Y584.333581 Z-4.999990 F400.000000
G01 X-22.322593 Y85.320013 Z0.000000
G01 X9.069211 Y584.333581 Z-4.999990
G01 X-22.322705 Y85.318320 Z0.000000
G01 X-27.401435 Y84.223918 Z-4.999990
G01 X-53.891801 Y-416.513576 Z-4.999990
G01 X-22.499997 Y82.499992 Z0.000000
G01 X-53.891801 Y-416.513576 Z-4.999990
G01 X-22.499885 Y82.501685 Z0.000000

M9

G00 X-22.322282 Y85.321650



M8
G04 P0.2 (pause)

G01 Z0.000000 F100.0(Penetrate)
G01 X-17.146439 Y85.770778 Z-4.999990 F400.000000
G01 X71.905340 Y579.237635 Z-4.999990
G01 X-21.793087 Y88.095499 Z0.000000
G01 X71.905340 Y579.237635 Z-4.999990
G01 X-21.793426 Y88.093862 Z0.000000
G01 X-22.057840 Y86.707756 Z0.000000
G01 X-116.021020 Y-405.822151 Z-4.999990
G01 X-22.322593 Y85.320013 Z0.000000
G01 X-116.021020 Y-405.822151 Z-4.999990
G01 X-22.322282 Y85.321650 Z0.000000

M9

G00 X-21.792579 Y88.097108



M8
G04 P0.2 (pause)

G01 Z0.000000 F100.0(Penetrate)
G01 X-16.601243 Y87.894162 Z-4.999990 F400.000000
G01 X133.579447 Y566.314002 Z-4.999990
G01 X-20.920005 Y90.782791 Z0.000000
G01 X133.579447 Y566.314002 Z-4.999990
G01 X-20.920513 Y90.781211 Z0.000000
G01 X-26.111849 Y90.984157 Z-4.999990
G01 X-176.292539 Y-387.435712 Z-4.999990
G01 X-21.793087 Y88.095499 Z0.000000
G01 X-176.292539 Y-387.435712 Z-4.999990
G01 X-21.792579 Y88.097108 Z0.000000

M9

G00 X-20.919299 Y90.784287



M8
G04 P0.2 (pause)

G01 Z0.000000 F100.0(Penetrate)
G01 X-15.794341 Y89.932117 Z-4.999990 F400.000000
G01 X193.180745 Y545.749146 Z-4.999990
G01 X-19.716891 Y93.339386 Z0.000000
G01 X193.180745 Y545.749146 Z-4.999990
G01 X-19.717597 Y93.337890 Z0.000000
G01 X-20.318448 Y92.061088 Z0.000000
G01 X-233.817641 Y-361.626969 Z-4.999990
G01 X-20.920005 Y90.782791 Z0.000000
G01 X-233.817641 Y-361.626969 Z-4.999990
G01 X-20.919299 Y90.784287 Z0.000000

M9

G00 X-15.494282 Y90.661802



M8
G04 P0.2 (pause)

G01 Z-4.999990 F100.0(Penetrate)
G01 X-14.738209 Y91.853260 Z-4.999990 F400.000000
G01 X48261250765107744.000000 Y76051400487092048.000000 Z-4.999990
G01 X-22.425519 Y98.402791 Z-4.999990
G01 X-23.181592 Y97.211333 Z-4.999990
G01 X-48261250765107784.000000 Y-76051400487091856.000000 Z-4.999990
G01 X-15.494282 Y90.661802 Z-4.999990

M9

G00 X-18.201838 Y95.726478



M8
G04 P0.2 (pause)

G01 Z0.000000 F100.0(Penetrate)
G01 X302.315176 Y483.154797 Z-4.999990 F400.000000
G01 X-16.401796 Y97.902298 Z0.000000
G01 X302.315176 Y483.154797 Z-4.999990
G01 X-16.402869 Y97.901028 Z0.000000
G01 X-17.302339 Y96.813739 Z0.000000
G01 X-336.919854 Y-289.527319 Z-4.999990
G01 X-18.202910 Y95.725208 Z0.000000
G01 X-336.919854 Y-289.527319 Z-4.999990
G01 X-18.201838 Y95.726478 Z0.000000

M9

G00 X-16.400583 Y97.903455



M8
G04 P0.2 (pause)

G01 Z0.000000 F100.0(Penetrate)
G01 X-11.949233 Y95.224489 Z-4.999990 F400.000000
G01 X350.149585 Y442.102329 Z-4.999990
G01 X-14.341997 Y99.836508 Z0.000000
G01 X350.149585 Y442.102329 Z-4.999990
G01 X-14.343211 Y99.835351 Z0.000000
G01 X-15.371911 Y98.869389 Z0.000000
G01 X-380.893379 Y-244.363522 Z-4.999990
G01 X-16.401796 Y97.902298 Z0.000000
G01 X-380.893379 Y-244.363522 Z-4.999990
G01 X-16.400583 Y97.903455 Z0.000000

M9

G00 X-11.402173 Y95.792066



M8
G04 P0.2 (pause)

G01 Z-4.999990 F100.0(Penetrate)
G01 X-72874378382532192.000000 Y-52936649089455840.000000 Z-4.999990 F400.000000
G01 X-12.056110 Y101.496991 Z0.000000
G01 X-72874378382532192.000000 Y-52936649089455840.000000 Z-4.999990
G01 X-14.995934 Y105.541433 Z-4.999990
G01 X-16.137636 Y104.712095 Z-4.999990
G01 X72874378382532160.000000 Y52936649089456032.000000 Z-4.999990
G01 X-14.341997 Y99.836508 Z0.000000
G01 X72874378382532160.000000 Y52936649089456032.000000 Z-4.999990
G01 X-11.402173 Y95.792066 Z-4.999990

M9

G00 X-12.054473 Y101.497894



M8
G04 P0.2 (pause)

G01 Z0.000000 F100.0(Penetrate)
G01 X428.515754 Y343.840509 Z-4.999990 F400.000000
G01 X-9.580033 Y102.858995 Z0.000000
G01 X428.515754 Y343.840509 Z-4.999990
G01 X-9.581670 Y102.858092 Z0.000000
G01 X-10.818058 Y102.177993 Z0.000000
G01 X-450.151870 Y-139.484523 Z-4.999990
G01 X-12.056110 Y101.496991 Z0.000000
G01 X-450.151870 Y-139.484523 Z-4.999990
G01 X-12.054473 Y101.497894 Z0.000000

M9

G00 X-9.578509 Y102.859616



M8
G04 P0.2 (pause)

G01 Z0.000000 F100.0(Penetrate)
G01 X-6.426087 Y98.730028 Z-4.999990 F400.000000
G01 X457.945182 Y287.936491 Z-4.999990
G01 X-6.952883 Y103.899012 Z0.000000
G01 X457.945182 Y287.936491 Z-4.999990
G01 X-6.954407 Y103.898391 Z0.000000
G01 X-10.106829 Y108.027980 Z-4.999990
G01 X-474.478099 Y-81.178484 Z-4.999990
G01 X-9.580033 Y102.858995 Z0.000000
G01 X-474.478099 Y-81.178484 Z-4.999990
G01 X-9.578509 Y102.859616 Z0.000000

M9

G00 X-6.951331 Y103.899407



M8
G04 P0.2 (pause)

G01 Z0.000000 F100.0(Penetrate)
G01 X-4.342186 Y99.406797 Z-4.999990 F400.000000
G01 X480.105187 Y228.830324 Z-4.999990
G01 X-4.216061 Y104.601012 Z0.000000
G01 X480.105187 Y228.830324 Z-4.999990
G01 X-4.217614 Y104.600617 Z0.000000
G01 X-5.584472 Y104.250012 Z0.000000
G01 X-491.274131 Y-20.330328 Z-4.999990
G01 X-6.952883 Y103.899012 Z0.000000
G01 X-491.274131 Y-20.330328 Z-4.999990
G01 X-6.951331 Y103.899407 Z0.000000

M9

G00 X-3.586170 Y99.640843



M8
G04 P0.2 (pause)

G01 Z-4.999990 F100.0(Penetrate)
G01 X-2.186263 Y99.818107 Z-4.999990 F400.000000
G01 X494.625576 Y167.772788 Z-4.999990
G01 X-1.412776 Y104.955991 Z0.000000
G01 X494.625576 Y167.772788 Z-4.999990
G01 X-2.042668 Y109.916160 Z-4.999990
G01 X-2.814433 Y104.778501 Z0.000000
G01 X-500.254414 Y41.784215 Z-4.999990
G01 X-4.216061 Y104.601012 Z0.000000
G01 X-500.254414 Y41.784215 Z-4.999990
G01 X-3.586170 Y99.640843 Z-4.999990

M9

G00 X-1.222079 Y99.956255



M8
G04 P0.2 (pause)

G01 Z-4.999990 F100.0(Penetrate)
G01 X1.600144 Y99.959924 Z-4.999990 F400.000000
G01 X529.999564 Y105.649609 Z-4.999990
G01 X29.999997 Y104.996998 Z0.000000
G01 X529.999564 Y105.649609 Z-4.999990
G01 X29.809299 Y109.996762 Z-4.999990
G01 X26.987077 Y109.993065 Z-4.999990
G01 X25.582485 Y104.991241 Z0.000000
G01 X21.349152 Y104.985709 Z0.000000
G01 X19.931521 Y109.983865 Z-4.999990
G01 X14.287077 Y109.976499 Z-4.999990
G01 X12.882513 Y104.974646 Z0.000000
G01 X8.649180 Y104.969143 Z0.000000
G01 X7.231521 Y109.967298 Z-4.999990
G01 X2.998216 Y109.961767 Z-4.999990
G01 X1.593624 Y104.959914 Z0.000000
G01 X0.182513 Y104.958079 Z0.000000
G01 X-501.412344 Y104.303380 Z-4.999990
G01 X-1.412776 Y104.955991 Z0.000000
G01 X-501.412344 Y104.303380 Z-4.999990
G01 X-1.222079 Y99.956255 Z-4.999990

M9

G00 X-19.999988 Y109.616665



M8
G04 P0.2 (pause)

G01 Z0.000000 F100.0(Penetrate)
G01 X-19.999988 Y-395.000001 Z-4.999990 F400.000000
G01 X-19.999988 Y104.999989 Z0.000000
G01 X-19.999988 Y-395.000001 Z-4.999990
G01 X-19.999988 Y105.383332 Z0.000000
G01 X-19.999988 Y108.205554 Z0.000000
G01 X-19.999988 Y609.999998 Z-4.999990
G01 X-19.999988 Y110.000008 Z0.000000
G01 X-19.999988 Y609.999998 Z-4.999990
G01 X-19.999988 Y109.616665 Z0.000000

M9

G00 X-20.383331 Y110.000008



M8
G04 P0.2 (pause)

G01 Z-4.999990 F100.0(Penetrate)
G01 X-23.205553 Y110.000008 Z-4.999990 F400.000000
G01 X-524.999997 Y104.999989 Z-4.999990
G01 X-25.000007 Y104.999989 Z0.000000
G01 X-524.999997 Y104.999989 Z-4.999990
G01 X-24.616664 Y99.999999 Z-4.999990
G01 X-21.794442 Y99.999999 Z-4.999990
G01 X480.000002 Y104.999989 Z-4.999990
G01 X-19.999988 Y104.999989 Z0.000000
G01 X480.000002 Y104.999989 Z-4.999990
G01 X-20.383331 Y110.000008 Z-4.999990

M9

G00 X-24.616664 Y110.000008



M8
G04 P0.2 (pause)

G01 Z0.000000 F100.0(Penetrate)
G01 X480.000002 Y110.000008 Z-4.999990 F400.000000
G01 X-19.999988 Y110.000008 Z0.000000
G01 X480.000002 Y110.000008 Z-4.999990
G01 X-20.383331 Y110.000008 Z0.000000
G01 X-23.205553 Y110.000008 Z0.000000
G01 X-524.999997 Y110.000008 Z-4.999990
G01 X-25.000007 Y110.000008 Z0.000000
G01 X-524.999997 Y110.000008 Z-4.999990
G01 X-24.616664 Y110.000008 Z0.000000

M9

G00 X-25.000007 Y105.383332



M8
G04 P0.2 (pause)

G01 Z0.000000 F100.0(Penetrate)
G01 X-25.000007 Y609.999998 Z-4.999990 F400.000000
G01 X-25.000007 Y110.000008 Z0.000000
G01 X-25.000007 Y609.999998 Z-4.999990
G01 X-25.000007 Y109.616665 Z0.000000
G01 X-25.000007 Y106.794443 Z0.000000
G01 X-25.000007 Y-395.000001 Z-4.999990
G01 X-25.000007 Y104.999989 Z0.000000
G01 X-25.000007 Y-395.000001 Z-4.999990
G01 X-25.000007 Y105.383332 Z0.000000

M9

G00 X-29.999997 Y124.883335



M8
G04 P0.2 (pause)

G01 Z0.000000 F100.0(Penetrate)
G01 X-29.999997 Y-624.999994 Z-4.999990 F400.000000
G01 X-29.999997 Y-125.000003 Z0.000000
G01 X-29.999997 Y-624.999994 Z-4.999990
G01 X-29.999997 Y-124.883333 Z0.000000
G01 X-29.999997 Y123.472224 Z0.000000
G01 X-29.999997 Y624.999997 Z-4.999990
G01 X-29.999997 Y125.000006 Z0.000000
G01 X-29.999997 Y624.999997 Z-4.999990
G01 X-29.999997 Y124.883335 Z0.000000

M9

G00 X-10.920561 Y68.809561



M8
G04 P0.2 (pause)

G01 Z-4.999990 F100.0(Penetrate)
G01 X-11.949233 Y69.775523 Z-4.999990 F400.000000
G01 X-380.893379 Y409.363506 Z-4.999990
G01 X-16.401796 Y67.097714 Z0.000000
G01 X-380.893379 Y409.363506 Z-4.999990
G01 X-19.823233 Y63.451629 Z-4.999990
G01 X-15.371911 Y66.130595 Z0.000000
G01 X350.149585 Y-277.102316 Z-4.999990
G01 X-14.341997 Y65.163504 Z0.000000
G01 X350.149585 Y-277.102316 Z-4.999990
G01 X-10.920561 Y68.809561 Z-4.999990

M9

G00 X-7.172762 Y66.523759



M8
G04 P0.2 (pause)

G01 Z-4.999990 F100.0(Penetrate)
G01 X-8.409347 Y67.203548 Z-4.999990 F400.000000
G01 X-450.211757 Y304.375230 Z-4.999990
G01 X-12.056110 Y63.502598 Z0.000000
G01 X-450.211757 Y304.375230 Z-4.999990
G01 X-14.463353 Y59.120251 Z-4.999990
G01 X-13.226796 Y58.440435 Z-4.999990
G01 X428.575614 Y-178.731220 Z-4.999990
G01 X-9.580033 Y62.141412 Z0.000000
G01 X428.575614 Y-178.731220 Z-4.999990
G01 X-7.172762 Y66.523759 Z-4.999990

M9

G00 X-2.974227 Y65.241821



M8
G04 P0.2 (pause)

G01 Z-4.999990 F100.0(Penetrate)
G01 X-4.341001 Y65.592764 Z-4.999990 F400.000000
G01 X-491.244300 Y185.446729 Z-4.999990
G01 X-6.952883 Y61.101197 Z0.000000
G01 X-491.244300 Y185.446729 Z-4.999990
G01 X-8.194717 Y56.257869 Z-4.999990
G01 X-6.827915 Y55.906926 Z-4.999990
G01 X480.075384 Y-63.947011 Z-4.999990
G01 X-4.216061 Y60.398492 Z0.000000
G01 X480.075384 Y-63.947011 Z-4.999990
G01 X-2.974227 Y65.241821 Z-4.999990

M9

G00 X-1.414441 Y60.044614



M8
G04 P0.2 (pause)

G01 Z0.000000 F100.0(Penetrate)
G01 X-500.274198 Y123.058994 Z-4.999990 F400.000000
G01 X-4.216061 Y60.398492 Z0.000000
G01 X-500.274198 Y123.058994 Z-4.999990
G01 X-4.214396 Y60.398295 Z0.000000
G01 X-2.814433 Y60.221454 Z0.000000
G01 X494.645332 Y-2.616086 Z-4.999990
G01 X-1.412776 Y60.044388 Z0.000000
G01 X494.645332 Y-2.616086 Z-4.999990
G01 X-1.414441 Y60.044614 Z0.000000

M9

G00 X-6.954435 Y61.101818



M8
G04 P0.2 (pause)

G01 Z0.000000 F100.0(Penetrate)
G01 X-474.465963 Y246.209541 Z-4.999990 F400.000000
G01 X-9.580033 Y62.141412 Z0.000000
G01 X-474.465963 Y246.209541 Z-4.999990
G01 X-9.578453 Y62.140791 Z0.000000
G01 X-10.107140 Y56.972427 Z-4.999990
G01 X457.933047 Y-122.966931 Z-4.999990
G01 X-6.952883 Y61.101197 Z0.000000
G01 X457.933047 Y-122.966931 Z-4.999990
G01 X-6.954435 Y61.101818 Z0.000000

M9

G00 X-12.057465 Y63.503586



M8
G04 P0.2 (pause)

G01 Z0.000000 F100.0(Penetrate)
G01 X-10.260020 Y68.378044 Z-4.999990 F400.000000
G01 X-418.842334 Y359.067357 Z-4.999990
G01 X-14.341997 Y65.163504 Z0.000000
G01 X-418.842334 Y359.067357 Z-4.999990
G01 X-14.340643 Y65.162516 Z0.000000
G01 X-13.199054 Y64.333037 Z0.000000
G01 X392.444255 Y-230.401255 Z-4.999990
G01 X-12.056110 Y63.502598 Z0.000000
G01 X392.444255 Y-230.401255 Z-4.999990
G01 X-12.057465 Y63.503586 Z0.000000

M9

G00 X29.815818 Y60.002958



M8
G04 P0.2 (pause)

G01 Z0.000000 F100.0(Penetrate)
G01 X-501.412344 Y60.708118 Z-4.999990 F400.000000
G01 X-1.412776 Y60.044388 Z0.000000
G01 X-501.412344 Y60.708118 Z-4.999990
G01 X-1.228598 Y60.044162 Z0.000000
G01 X0.182513 Y60.042271 Z0.000000
G01 X1.586992 Y55.040419 Z-4.999990
G01 X3.004735 Y60.038546 Z0.000000
G01 X4.415846 Y60.036655 Z0.000000
G01 X5.820325 Y55.034803 Z-4.999990
G01 X7.231436 Y55.032912 Z-4.999990
G01 X8.649180 Y60.031039 Z0.000000
G01 X10.053631 Y55.029186 Z-4.999990
G01 X11.464742 Y55.027295 Z-4.999990
G01 X12.882513 Y60.025423 Z0.000000
G01 X14.286964 Y55.023542 Z-4.999990
G01 X15.698075 Y55.021679 Z-4.999990
G01 X17.115818 Y60.019807 Z0.000000
G01 X18.526929 Y60.017944 Z0.000000
G01 X19.931408 Y55.016063 Z-4.999990
G01 X21.349152 Y60.014190 Z0.000000
G01 X22.760263 Y60.012299 Z0.000000
G01 X24.164742 Y55.010447 Z-4.999990
G01 X25.575853 Y55.008556 Z-4.999990
G01 X26.993596 Y60.006683 Z0.000000
G01 X28.398075 Y55.004831 Z-4.999990
G01 X529.999564 Y59.338974 Z-4.999990
G01 X29.999997 Y60.002704 Z0.000000
G01 X529.999564 Y59.338974 Z-4.999990
G01 X29.815818 Y60.002958 Z0.000000

M9

G00 X29.999997 Y50.061116



M8
G04 P0.2 (pause)

G01 Z0.000000 F100.0(Penetrate)
G01 X29.999997 Y560.002695 Z-4.999990 F400.000000
G01 X29.999997 Y60.002704 Z0.000000
G01 X29.999997 Y560.002695 Z-4.999990
G01 X29.999997 Y59.938893 Z0.000000
G01 X29.999997 Y51.472227 Z0.000000
G01 X29.999997 Y-450.002714 Z-4.999990
G01 X29.999997 Y49.997305 Z0.000000
G01 X29.999997 Y-450.002714 Z-4.999990
G01 X29.999997 Y50.061116 Z0.000000

M9

G00 X29.815818 Y5.002926



M8
G04 P0.2 (pause)

G01 Z0.000000 F100.0(Penetrate)
G01 X-501.412344 Y5.708792 Z-4.999990 F400.000000
G01 X-1.412776 Y5.044413 Z0.000000
G01 X-501.412344 Y5.708792 Z-4.999990
G01 X-1.228598 Y5.044159 Z0.000000
G01 X0.182513 Y5.042296 Z0.000000
G01 X1.586964 Y0.040416 Z-4.999990
G01 X3.004735 Y5.038543 Z0.000000
G01 X4.415846 Y5.036680 Z0.000000
G01 X5.820297 Y0.034799 Z-4.999990
G01 X7.231408 Y0.032908 Z-4.999990
G01 X8.649180 Y5.031036 Z0.000000
G01 X10.053631 Y0.029183 Z-4.999990
G01 X11.464742 Y0.027292 Z-4.999990
G01 X12.882513 Y5.025420 Z0.000000
G01 X14.293596 Y5.023529 Z0.000000
G01 X15.698075 Y0.021676 Z-4.999990
G01 X17.115818 Y5.019803 Z0.000000
G01 X18.526929 Y5.017912 Z0.000000
G01 X19.931408 Y0.016060 Z-4.999990
G01 X21.349152 Y5.014159 Z0.000000
G01 X22.760263 Y5.012296 Z0.000000
G01 X24.164742 Y0.010415 Z-4.999990
G01 X25.575853 Y0.008553 Z-4.999990
G01 X26.993596 Y5.006680 Z0.000000
G01 X28.398075 Y0.004799 Z-4.999990
G01 X529.999564 Y4.338293 Z-4.999990
G01 X29.999997 Y5.002672 Z0.000000
G01 X529.999564 Y4.338293 Z-4.999990
G01 X29.815818 Y5.002926 Z0.000000

M9

G00 X29.999997 Y-4.938888



M8
G04 P0.2 (pause)

G01 Z0.000000 F100.0(Penetrate)
G01 X29.999997 Y505.002663 Z-4.999990 F400.000000
G01 X29.999997 Y5.002672 Z0.000000
G01 X29.999997 Y505.002663 Z-4.999990
G01 X29.999997 Y4.938890 Z0.000000
G01 X29.999997 Y-3.527776 Z0.000000
G01 X29.999997 Y-505.002660 Z-4.999990
G01 X29.999997 Y-5.002670 Z0.000000
G01 X29.999997 Y-505.002660 Z-4.999990
G01 X29.999997 Y-4.938888 Z0.000000

M9

G00 X-0.787767 Y10.005203



M8
G04 P0.2 (pause)

G01 Z-4.999990 F100.0(Penetrate)
G01 X-2.187758 Y10.182043 Z-4.999990 F400.000000
G01 X-357447058198509180.000000 Y45155531760818776.000000 Z-4.999990
G01 X-4.841071 Y0.437756 Z-4.999990
G01 X-3.441079 Y0.260916 Z-4.999990
G01 X357447058198509180.000000 Y-45155531760818760.000000 Z-4.999990
G01 X-0.787767 Y10.005203 Z-4.999990

M9

G00 X-5.113810 Y10.750749



M8
G04 P0.2 (pause)

G01 Z-4.999990 F100.0(Penetrate)
G01 X-6.425833 Y11.270207 Z-4.999990 F400.000000
G01 X-474.468503 Y191.203074 Z-4.999990
G01 X-9.580033 Y7.141409 Z0.000000
G01 X-474.468503 Y191.203074 Z-4.999990
G01 X-11.419078 Y2.491911 Z-4.999990
G01 X-8.266458 Y6.621330 Z0.000000
G01 X457.935615 Y-177.960415 Z-4.999990
G01 X-6.952883 Y6.101251 Z0.000000
G01 X457.935615 Y-177.960415 Z-4.999990
G01 X-5.113810 Y10.750749 Z-4.999990

M9

G00 X-9.118431 Y12.548617



M8
G04 P0.2 (pause)

G01 Z-4.999990 F100.0(Penetrate)
G01 X-10.260048 Y13.378097 Z-4.999990 F400.000000
G01 X-418.844253 Y304.064730 Z-4.999990
G01 X-14.341997 Y10.163501 Z0.000000
G01 X-418.844253 Y304.064730 Z-4.999990
G01 X-17.279648 Y6.117507 Z-4.999990
G01 X-13.199054 Y9.333062 Z0.000000
G01 X392.446145 Y-285.398605 Z-4.999990
G01 X-12.056110 Y8.502623 Z0.000000
G01 X392.446145 Y-285.398605 Z-4.999990
G01 X-9.118431 Y12.548617 Z-4.999990

M9

G00 X-9.581501 Y7.142227



M8
G04 P0.2 (pause)

G01 Z0.000000 F100.0(Penetrate)
G01 X-450.210713 Y249.377175 Z-4.999990 F400.000000
G01 X-12.056110 Y8.502623 Z0.000000
G01 X-450.210713 Y249.377175 Z-4.999990
G01 X-12.054643 Y8.501805 Z0.000000
G01 X-10.818058 Y7.822016 Z0.000000
G01 X428.574569 Y-233.733142 Z-4.999990
G01 X-9.580033 Y7.141409 Z0.000000
G01 X428.574569 Y-233.733142 Z-4.999990
G01 X-9.581501 Y7.142227 Z0.000000

M9

G00 X-4.217698 Y5.398969



M8
G04 P0.2 (pause)

G01 Z0.000000 F100.0(Penetrate)
G01 X-4.341001 Y10.592817 Z-4.999990 F400.000000
G01 X-491.244074 Y130.447713 Z-4.999990
G01 X-6.952883 Y6.101251 Z0.000000
G01 X-491.244074 Y130.447713 Z-4.999990
G01 X-6.951246 Y6.100827 Z0.000000
G01 X-5.584472 Y5.749884 Z0.000000
G01 X480.075130 Y-118.947917 Z-4.999990
G01 X-4.216061 Y5.398546 Z0.000000
G01 X480.075130 Y-118.947917 Z-4.999990
G01 X-4.217698 Y5.398969 Z0.000000

M9

G00 X-18.203813 Y14.276241



M8
G04 P0.2 (pause)

G01 Z0.000000 F100.0(Penetrate)
G01 X-287.620881 Y438.830526 Z-4.999990 F400.000000
G01 X-19.716891 Y16.660595 Z0.000000
G01 X-287.620881 Y438.830526 Z-4.999990
G01 X-19.715988 Y16.659156 Z0.000000
G01 X-18.959887 Y15.467698 Z0.000000
G01 X249.701080 Y-407.895130 Z-4.999990
G01 X-18.202910 Y14.274801 Z0.000000
G01 X249.701080 Y-407.895130 Z-4.999990
G01 X-18.203813 Y14.276241 Z0.000000

M9

G00 X-0.787880 Y-44.994801



M8
G04 P0.2 (pause)

G01 Z-4.999990 F100.0(Penetrate)
G01 X-500.274734 Y13.054557 Z-4.999990 F400.000000
G01 X-4.216061 Y-49.601514 Z0.000000
G01 X-500.274734 Y13.054557 Z-4.999990
G01 X-4.840958 Y-54.562303 Z-4.999990
G01 X-3.440994 Y-54.739144 Z-4.999990
G01 X494.645896 Y-112.611661 Z-4.999990
G01 X-1.412776 Y-49.955590 Z0.000000
G01 X494.645896 Y-112.611661 Z-4.999990
G01 X-0.787880 Y-44.994801 Z-4.999990

M9

G00 X-19.999988 Y-50.061113



M8
G04 P0.2 (pause)

G01 Z0.000000 F100.0(Penetrate)
G01 X-19.999988 Y-559.999983 Z-4.999990 F400.000000
G01 X-19.999988 Y-59.999992 Z0.000000
G01 X-19.999988 Y-559.999983 Z-4.999990
G01 X-19.999988 Y-59.938891 Z0.000000
G01 X-19.999988 Y-51.472224 Z0.000000
G01 X-19.999988 Y449.999979 Z-4.999990
G01 X-19.999988 Y-50.000012 Z0.000000
G01 X-19.999988 Y449.999979 Z-4.999990
G01 X-19.999988 Y-50.061113 Z0.000000

M9

G00 X-24.616664 Y-50.000012



M8
G04 P0.2 (pause)

G01 Z0.000000 F100.0(Penetrate)
G01 X480.000002 Y-50.000012 Z-4.999990 F400.000000
G01 X-19.999988 Y-50.000012 Z0.000000
G01 X480.000002 Y-50.000012 Z-4.999990
G01 X-20.383331 Y-50.000012 Z0.000000
G01 X-23.205553 Y-50.000012 Z0.000000
G01 X-524.999997 Y-50.000012 Z-4.999990
G01 X-25.000007 Y-50.000012 Z0.000000
G01 X-524.999997 Y-50.000012 Z-4.999990
G01 X-24.616664 Y-50.000012 Z0.000000

M9

G00 X-25.000007 Y-59.938891



M8
G04 P0.2 (pause)

G01 Z0.000000 F100.0(Penetrate)
G01 X-25.000007 Y449.999979 Z-4.999990 F400.000000
G01 X-25.000007 Y-50.000012 Z0.000000
G01 X-25.000007 Y449.999979 Z-4.999990
G01 X-25.000007 Y-50.061113 Z0.000000
G01 X-25.000007 Y-58.527780 Z0.000000
G01 X-25.000007 Y-559.999983 Z-4.999990
G01 X-25.000007 Y-59.999992 Z0.000000
G01 X-25.000007 Y-559.999983 Z-4.999990
G01 X-25.000007 Y-59.938891 Z0.000000

M9

G00 X-20.383331 Y-59.999992



M8
G04 P0.2 (pause)

G01 Z0.000000 F100.0(Penetrate)
G01 X-524.999997 Y-59.999992 Z-4.999990 F400.000000
G01 X-25.000007 Y-59.999992 Z0.000000
G01 X-524.999997 Y-59.999992 Z-4.999990
G01 X-24.616664 Y-59.999992 Z0.000000
G01 X-21.794442 Y-59.999992 Z0.000000
G01 X480.000002 Y-59.999992 Z-4.999990
G01 X-19.999988 Y-59.999992 Z0.000000
G01 X480.000002 Y-59.999992 Z-4.999990
G01 X-20.383331 Y-59.999992 Z0.000000

M9

G00 X-14.340643 Y-65.162514



M8
G04 P0.2 (pause)

G01 Z0.000000 F100.0(Penetrate)
G01 X392.443775 Y230.401907 Z-4.999990 F400.000000
G01 X-12.056110 Y-63.502595 Z0.000000
G01 X392.443775 Y230.401907 Z-4.999990
G01 X-12.057465 Y-63.503583 Z0.000000
G01 X-16.138088 Y-60.288056 Z-4.999990
G01 X-418.841854 Y-359.068004 Z-4.999990
G01 X-14.341997 Y-65.163501 Z0.000000
G01 X-418.841854 Y-359.068004 Z-4.999990
G01 X-14.340643 Y-65.162514 Z0.000000

M9

G00 X-18.201838 Y-69.273532



M8
G04 P0.2 (pause)

G01 Z0.000000 F100.0(Penetrate)
G01 X-13.449836 Y-71.373435 Z-4.999990 F400.000000
G01 X302.315910 Y318.154194 Z-4.999990
G01 X-16.401796 Y-67.097712 Z0.000000
G01 X302.315910 Y318.154194 Z-4.999990
G01 X-16.402869 Y-67.098982 Z0.000000
G01 X-17.302339 Y-68.186271 Z0.000000
G01 X-336.920616 Y-454.526708 Z-4.999990
G01 X-18.202910 Y-69.274802 Z0.000000
G01 X-336.920616 Y-454.526708 Z-4.999990
G01 X-18.201838 Y-69.273532 Z0.000000

M9

G00 X-20.919299 Y-74.215695



M8
G04 P0.2 (pause)

G01 Z0.000000 F100.0(Penetrate)
G01 X-15.794341 Y-75.067865 Z-4.999990 F400.000000
G01 X193.181140 Y380.748967 Z-4.999990
G01 X-19.716891 Y-71.660596 Z0.000000
G01 X193.181140 Y380.748967 Z-4.999990
G01 X-19.717597 Y-71.662092 Z0.000000
G01 X-20.318448 Y-72.938893 Z0.000000
G01 X-233.818036 Y-526.626753 Z-4.999990
G01 X-20.920005 Y-74.217190 Z0.000000
G01 X-233.818036 Y-526.626753 Z-4.999990
G01 X-20.919299 Y-74.215695 Z0.000000

M9

G00 X-12.550338 Y-94.713833



M8
G04 P0.2 (pause)

G01 Z-4.999990 F100.0(Penetrate)
G01 X-13.449836 Y-93.626572 Z-4.999990 F400.000000
G01 X-336.920616 Y289.526701 Z-4.999990
G01 X-18.202910 Y-95.725205 Z0.000000
G01 X-336.920616 Y289.526701 Z-4.999990
G01 X-22.054369 Y-98.913667 Z-4.999990
G01 X-17.302339 Y-96.813736 Z0.000000
G01 X302.315910 Y-483.154201 Z-4.999990
G01 X-16.401796 Y-97.902295 Z0.000000
G01 X302.315910 Y-483.154201 Z-4.999990
G01 X-12.550338 Y-94.713833 Z-4.999990

M9

G00 X-10.920561 Y-96.190448



M8
G04 P0.2 (pause)

G01 Z-4.999990 F100.0(Penetrate)
G01 X-11.949233 Y-95.224486 Z-4.999990 F400.000000
G01 X-65660785637145488.000000 Y61657319686907304.000000 Z-4.999990
G01 X-19.823233 Y-101.548353 Z-4.999990
G01 X-18.794561 Y-102.514315 Z-4.999990
G01 X65660785637145448.000000 Y-61657319686907504.000000 Z-4.999990
G01 X-10.920561 Y-96.190448 Z-4.999990

M9

G00 X-9.118798 Y-97.450712



M8
G04 P0.2 (pause)

G01 Z-4.999990 F100.0(Penetrate)
G01 X72874635074322768.000000 Y-52936295717068832.000000 Z-4.999990 F400.000000
G01 X-14.341997 Y-99.836505 Z0.000000
G01 X72874635074322768.000000 Y-52936295717068832.000000 Z-4.999990
G01 X-17.279281 Y-103.882782 Z-4.999990
G01 X-16.137608 Y-104.712092 Z-4.999990
G01 X-72874635074322800.000000 Y52936295717068632.000000 Z-4.999990
G01 X-12.056110 Y-101.496988 Z0.000000
G01 X-72874635074322800.000000 Y52936295717068632.000000 Z-4.999990
G01 X-9.118798 Y-97.450712 Z-4.999990

M9

G00 X-5.114008 Y-99.249427



M8
G04 P0.2 (pause)

G01 Z-4.999990 F100.0(Penetrate)
G01 X-6.426059 Y-98.730025 Z-4.999990 F400.000000
G01 X-474.477055 Y81.181083 Z-4.999990
G01 X-9.580033 Y-102.858993 Z0.000000
G01 X-474.477055 Y81.181083 Z-4.999990
G01 X-11.418909 Y-107.508576 Z-4.999990
G01 X-10.106858 Y-108.027977 Z-4.999990
G01 X457.944166 Y-287.939085 Z-4.999990
G01 X-6.952883 Y-103.899010 Z0.000000
G01 X457.944166 Y-287.939085 Z-4.999990
G01 X-5.114008 Y-99.249427 Z-4.999990

M9

G00 X-4.217614 Y-104.600614



M8
G04 P0.2 (pause)

G01 Z0.000000 F100.0(Penetrate)
G01 X-4.342186 Y-99.406794 Z-4.999990 F400.000000
G01 X-491.274131 Y20.330303 Z-4.999990
G01 X-6.952883 Y-103.899010 Z0.000000
G01 X-491.274131 Y20.330303 Z-4.999990
G01 X-6.951331 Y-103.899405 Z0.000000
G01 X-5.584472 Y-104.250009 Z0.000000
G01 X480.105187 Y-228.830322 Z-4.999990
G01 X-4.216061 Y-104.601009 Z0.000000
G01 X480.105187 Y-228.830322 Z-4.999990
G01 X-4.217614 Y-104.600614 Z0.000000

M9

G00 X-1.414498 Y-104.955763



M8
G04 P0.2 (pause)

G01 Z0.000000 F100.0(Penetrate)
G01 X-500.254866 Y-41.787656 Z-4.999990 F400.000000
G01 X-4.216061 Y-104.601009 Z0.000000
G01 X-500.254866 Y-41.787656 Z-4.999990
G01 X-4.214340 Y-104.601235 Z0.000000
G01 X-3.442547 Y-109.738893 Z-4.999990
G01 X494.626000 Y-167.769342 Z-4.999990
G01 X-1.412776 Y-104.955988 Z0.000000
G01 X494.626000 Y-167.769342 Z-4.999990
G01 X-1.414498 Y-104.955763 Z0.000000

M9

G00 X-9.581670 Y-102.858089



M8
G04 P0.2 (pause)

G01 Z0.000000 F100.0(Penetrate)
G01 X-450.151672 Y139.484921 Z-4.999990 F400.000000
G01 X-12.056110 Y-101.496988 Z0.000000
G01 X-450.151672 Y139.484921 Z-4.999990
G01 X-12.054473 Y-101.497891 Z0.000000
G01 X-10.818058 Y-102.177990 Z0.000000
G01 X428.515528 Y-343.840901 Z-4.999990
G01 X-9.580033 Y-102.858993 Z0.000000
G01 X428.515528 Y-343.840901 Z-4.999990
G01 X-9.581670 Y-102.858089 Z0.000000

M9

G00 X-29.633334 Y-125.000003



M8
G04 P0.2 (pause)

G01 Z0.000000 F100.0(Penetrate)
G01 X529.999987 Y-125.000003 Z-4.999990 F400.000000
G01 X29.999997 Y-125.000003 Z0.000000
G01 X529.999987 Y-125.000003 Z-4.999990
G01 X29.633334 Y-125.000003 Z0.000000
G01 X-28.222222 Y-125.000003 Z0.000000
G01 X-529.999987 Y-125.000003 Z-4.999990
G01 X-29.999997 Y-125.000003 Z0.000000
G01 X-529.999987 Y-125.000003 Z-4.999990
G01 X-29.633334 Y-125.000003 Z0.000000

M9

G00 X29.999997 Y-124.876277



M8
G04 P0.2 (pause)

G01 Z0.000000 F100.0(Penetrate)
G01 X29.999997 Y395.002995 Z-4.999990 F400.000000
G01 X29.999997 Y-104.996995 Z0.000000
G01 X29.999997 Y395.002995 Z-4.999990
G01 X29.999997 Y-105.120722 Z0.000000
G01 X29.999997 Y-123.465166 Z0.000000
G01 X29.999997 Y-624.999994 Z-4.999990
G01 X29.999997 Y-125.000003 Z0.000000
G01 X29.999997 Y-624.999994 Z-4.999990
G01 X29.999997 Y-124.876277 Z0.000000

M9

G00 X29.815818 Y-104.996741



M8
G04 P0.2 (pause)

G01 Z0.000000 F100.0(Penetrate)
G01 X-501.412344 Y-104.303265 Z-4.999990 F400.000000
G01 X-1.412776 Y-104.955988 Z0.000000
G01 X-501.412344 Y-104.303265 Z-4.999990
G01 X-1.228598 Y-104.956242 Z0.000000
G01 X0.182513 Y-104.958077 Z0.000000
G01 X1.587105 Y-109.959901 Z-4.999990
G01 X4.409327 Y-109.963598 Z-4.999990
G01 X5.826958 Y-104.965443 Z0.000000
G01 X7.238069 Y-104.967277 Z0.000000
G01 X8.642632 Y-109.969130 Z-4.999990
G01 X10.053743 Y-109.970964 Z-4.999990
G01 X11.471402 Y-104.972809 Z0.000000
G01 X12.882513 Y-104.974643 Z0.000000
G01 X14.287077 Y-109.976496 Z-4.999990
G01 X17.109299 Y-109.980165 Z-4.999990
G01 X18.526929 Y-104.982009 Z0.000000
G01 X19.938041 Y-104.983872 Z0.000000
G01 X21.342632 Y-109.985696 Z-4.999990
G01 X22.753743 Y-109.987531 Z-4.999990
G01 X24.171374 Y-104.989375 Z0.000000
G01 X26.993596 Y-104.993072 Z0.000000
G01 X28.398188 Y-109.994897 Z-4.999990
G01 X529.999564 Y-105.649719 Z-4.999990
G01 X29.999997 Y-104.996995 Z0.000000
G01 X529.999564 Y-105.649719 Z-4.999990
G01 X29.815818 Y-104.996741 Z0.000000

M9

G00 X29.999997 Y-59.938891



M8
G04 P0.2 (pause)

G01 Z0.000000 F100.0(Penetrate)
G01 X29.999997 Y450.002688 Z-4.999990 F400.000000
G01 X29.999997 Y-49.997303 Z0.000000
G01 X29.999997 Y450.002688 Z-4.999990
G01 X29.999997 Y-50.061113 Z0.000000
G01 X29.999997 Y-58.527780 Z0.000000
G01 X29.999997 Y-560.002692 Z-4.999990
G01 X29.999997 Y-60.002701 Z0.000000
G01 X29.999997 Y-560.002692 Z-4.999990
G01 X29.999997 Y-59.938891 Z0.000000

M9

G00 X29.815818 Y-49.997049



M8
G04 P0.2 (pause)

G01 Z0.000000 F100.0(Penetrate)
G01 X-501.412344 Y-49.291662 Z-4.999990 F400.000000
G01 X-1.412776 Y-49.955590 Z0.000000
G01 X-501.412344 Y-49.291662 Z-4.999990
G01 X-1.228598 Y-49.955844 Z0.000000
G01 X12.882513 Y-49.974584 Z0.000000
G01 X14.286964 Y-54.976436 Z-4.999990
G01 X28.398075 Y-54.995176 Z-4.999990
G01 X529.999564 Y-50.661230 Z-4.999990
G01 X29.999997 Y-49.997303 Z0.000000
G01 X529.999564 Y-50.661230 Z-4.999990
G01 X29.815818 Y-49.997049 Z0.000000

M9

G00 X29.999997 Y105.120724



M8
G04 P0.2 (pause)

G01 Z0.000000 F100.0(Penetrate)
G01 X29.999997 Y624.999997 Z-4.999990 F400.000000
G01 X29.999997 Y125.000006 Z0.000000
G01 X29.999997 Y624.999997 Z-4.999990
G01 X29.999997 Y124.876280 Z0.000000
G01 X29.999997 Y106.531835 Z0.000000
G01 X29.999997 Y-395.002993 Z-4.999990
G01 X29.999997 Y104.996998 Z0.000000
G01 X29.999997 Y-395.002993 Z-4.999990
G01 X29.999997 Y105.120724 Z0.000000

M9

G00 X29.633334 Y129.999996



M8
G04 P0.2 (pause)

G01 Z-4.999990 F100.0(Penetrate)
G01 X-28.222222 Y129.999996 Z-4.999990 F400.000000
G01 X-529.999987 Y125.000006 Z-4.999990
G01 X-29.999997 Y125.000006 Z0.000000
G01 X-529.999987 Y125.000006 Z-4.999990
G01 X-29.633334 Y119.999988 Z-4.999990
G01 X28.222222 Y119.999988 Z-4.999990
G01 X529.999987 Y125.000006 Z-4.999990
G01 X29.999997 Y125.000006 Z0.000000
G01 X529.999987 Y125.000006 Z-4.999990
G01 X29.633334 Y129.999996 Z-4.999990

M9

(Footer)
M5
G00 X0.0000 Y0.0000
M2
(Using default footer. To add your own footer create file "footer" in the output dir.)
(end)
%