%
(Header)
(Generated by gcodetools from Inkscape.)
(Using default header. To add your own header create file "header" in the output dir.)
M3
(Header end.)
G21 (All units in mm)

(Start cutting path id: path28881)
(Change tool to Plasma cutter)
 
G00 Z5.000000
G00 X162.000509 Y51.728160
G31 Z-100 F500 (find metal)
G92 Z0 (zero z)
G00 Z10 F500 (going up)
M03 (turn on plasma)
G04 P0.2 (pause)
G01 Z1 (going to cutting z)
G01 Z-1.000000 F100.0(Penetrate)
G01 X160.072209 Y51.728160 Z-1.000000 F400.000000
G00 Z5.000000
M05 (turn off plasma)
(End cutting path id: path28881)


(Start cutting path id: path28879)
(Change tool to Plasma cutter)
 
G00 Z5.000000
G00 X163.873508 Y52.189706
G31 Z-100 F500 (find metal)
G92 Z0 (zero z)
G00 Z10 F500 (going up)
M03 (turn on plasma)
G04 P0.2 (pause)
G01 Z1 (going to cutting z)
G01 Z-1.000000 F100.0(Penetrate)
G01 X162.000509 Y51.728160 Z-1.000000 F400.000000
G00 Z5.000000
M05 (turn off plasma)
(End cutting path id: path28879)


(Start cutting path id: path28877)
(Change tool to Plasma cutter)
 
G00 Z5.000000
G00 X165.581509 Y53.085988
G31 Z-100 F500 (find metal)
G92 Z0 (zero z)
G00 Z10 F500 (going up)
M03 (turn on plasma)
G04 P0.2 (pause)
G01 Z1 (going to cutting z)
G01 Z-1.000000 F100.0(Penetrate)
G01 X163.873508 Y52.189706 Z-1.000000 F400.000000
G00 Z5.000000
M05 (turn off plasma)
(End cutting path id: path28877)


(Start cutting path id: path28875)
(Change tool to Plasma cutter)
 
G00 Z5.000000
G00 X167.024508 Y54.364849
G31 Z-100 F500 (find metal)
G92 Z0 (zero z)
G00 Z10 F500 (going up)
M03 (turn on plasma)
G04 P0.2 (pause)
G01 Z1 (going to cutting z)
G01 Z-1.000000 F100.0(Penetrate)
G01 X165.581509 Y53.085988 Z-1.000000 F400.000000
G00 Z5.000000
M05 (turn off plasma)
(End cutting path id: path28875)


(Start cutting path id: path28873)
(Change tool to Plasma cutter)
 
G00 Z5.000000
G00 X168.120510 Y55.952067
G31 Z-100 F500 (find metal)
G92 Z0 (zero z)
G00 Z10 F500 (going up)
M03 (turn on plasma)
G04 P0.2 (pause)
G01 Z1 (going to cutting z)
G01 Z-1.000000 F100.0(Penetrate)
G01 X167.024508 Y54.364849 Z-1.000000 F400.000000
G00 Z5.000000
M05 (turn off plasma)
(End cutting path id: path28873)


(Start cutting path id: path28871)
(Change tool to Plasma cutter)
 
G00 Z5.000000
G00 X168.804509 Y57.755326
G31 Z-100 F500 (find metal)
G92 Z0 (zero z)
G00 Z10 F500 (going up)
M03 (turn on plasma)
G04 P0.2 (pause)
G01 Z1 (going to cutting z)
G01 Z-1.000000 F100.0(Penetrate)
G01 X168.120510 Y55.952067 Z-1.000000 F400.000000
G00 Z5.000000
M05 (turn off plasma)
(End cutting path id: path28871)


(Start cutting path id: path28869)
(Change tool to Plasma cutter)
 
G00 Z5.000000
G00 X169.036507 Y59.669837
G31 Z-100 F500 (find metal)
G92 Z0 (zero z)
G00 Z10 F500 (going up)
M03 (turn on plasma)
G04 P0.2 (pause)
G01 Z1 (going to cutting z)
G01 Z-1.000000 F100.0(Penetrate)
G01 X168.804509 Y57.755326 Z-1.000000 F400.000000
G00 Z5.000000
M05 (turn off plasma)
(End cutting path id: path28869)


(Start cutting path id: path28867)
(Change tool to Plasma cutter)
 
G00 Z5.000000
G00 X168.804509 Y61.584348
G31 Z-100 F500 (find metal)
G92 Z0 (zero z)
G00 Z10 F500 (going up)
M03 (turn on plasma)
G04 P0.2 (pause)
G01 Z1 (going to cutting z)
G01 Z-1.000000 F100.0(Penetrate)
G01 X169.036507 Y59.669837 Z-1.000000 F400.000000
G00 Z5.000000
M05 (turn off plasma)
(End cutting path id: path28867)


(Start cutting path id: path28865)
(Change tool to Plasma cutter)
 
G00 Z5.000000
G00 X168.120510 Y63.387607
G31 Z-100 F500 (find metal)
G92 Z0 (zero z)
G00 Z10 F500 (going up)
M03 (turn on plasma)
G04 P0.2 (pause)
G01 Z1 (going to cutting z)
G01 Z-1.000000 F100.0(Penetrate)
G01 X168.804509 Y61.584348 Z-1.000000 F400.000000
G00 Z5.000000
M05 (turn off plasma)
(End cutting path id: path28865)


(Start cutting path id: path28863)
(Change tool to Plasma cutter)
 
G00 Z5.000000
G00 X167.024508 Y64.974824
G31 Z-100 F500 (find metal)
G92 Z0 (zero z)
G00 Z10 F500 (going up)
M03 (turn on plasma)
G04 P0.2 (pause)
G01 Z1 (going to cutting z)
G01 Z-1.000000 F100.0(Penetrate)
G01 X168.120510 Y63.387607 Z-1.000000 F400.000000
G00 Z5.000000
M05 (turn off plasma)
(End cutting path id: path28863)


(Start cutting path id: path28861)
(Change tool to Plasma cutter)
 
G00 Z5.000000
G00 X165.581509 Y66.253686
G31 Z-100 F500 (find metal)
G92 Z0 (zero z)
G00 Z10 F500 (going up)
M03 (turn on plasma)
G04 P0.2 (pause)
G01 Z1 (going to cutting z)
G01 Z-1.000000 F100.0(Penetrate)
G01 X167.024508 Y64.974824 Z-1.000000 F400.000000
G00 Z5.000000
M05 (turn off plasma)
(End cutting path id: path28861)


(Start cutting path id: path28859)
(Change tool to Plasma cutter)
 
G00 Z5.000000
G00 X163.873508 Y67.149968
G31 Z-100 F500 (find metal)
G92 Z0 (zero z)
G00 Z10 F500 (going up)
M03 (turn on plasma)
G04 P0.2 (pause)
G01 Z1 (going to cutting z)
G01 Z-1.000000 F100.0(Penetrate)
G01 X165.581509 Y66.253686 Z-1.000000 F400.000000
G00 Z5.000000
M05 (turn off plasma)
(End cutting path id: path28859)


(Start cutting path id: path28857)
(Change tool to Plasma cutter)
 
G00 Z5.000000
G00 X162.000509 Y67.611514
G31 Z-100 F500 (find metal)
G92 Z0 (zero z)
G00 Z10 F500 (going up)
M03 (turn on plasma)
G04 P0.2 (pause)
G01 Z1 (going to cutting z)
G01 Z-1.000000 F100.0(Penetrate)
G01 X163.873508 Y67.149968 Z-1.000000 F400.000000
G00 Z5.000000
M05 (turn off plasma)
(End cutting path id: path28857)


(Start cutting path id: path28855)
(Change tool to Plasma cutter)
 
G00 Z5.000000
G00 X160.072209 Y67.611514
G31 Z-100 F500 (find metal)
G92 Z0 (zero z)
G00 Z10 F500 (going up)
M03 (turn on plasma)
G04 P0.2 (pause)
G01 Z1 (going to cutting z)
G01 Z-1.000000 F100.0(Penetrate)
G01 X162.000509 Y67.611514 Z-1.000000 F400.000000
G00 Z5.000000
M05 (turn off plasma)
(End cutting path id: path28855)


(Start cutting path id: path28853)
(Change tool to Plasma cutter)
 
G00 Z5.000000
G00 X158.199608 Y67.149968
G31 Z-100 F500 (find metal)
G92 Z0 (zero z)
G00 Z10 F500 (going up)
M03 (turn on plasma)
G04 P0.2 (pause)
G01 Z1 (going to cutting z)
G01 Z-1.000000 F100.0(Penetrate)
G01 X160.072209 Y67.611514 Z-1.000000 F400.000000
G00 Z5.000000
M05 (turn off plasma)
(End cutting path id: path28853)


(Start cutting path id: path28851)
(Change tool to Plasma cutter)
 
G00 Z5.000000
G00 X156.492009 Y66.253686
G31 Z-100 F500 (find metal)
G92 Z0 (zero z)
G00 Z10 F500 (going up)
M03 (turn on plasma)
G04 P0.2 (pause)
G01 Z1 (going to cutting z)
G01 Z-1.000000 F100.0(Penetrate)
G01 X158.199608 Y67.149968 Z-1.000000 F400.000000
G00 Z5.000000
M05 (turn off plasma)
(End cutting path id: path28851)


(Start cutting path id: path28849)
(Change tool to Plasma cutter)
 
G00 Z5.000000
G00 X155.048408 Y64.974824
G31 Z-100 F500 (find metal)
G92 Z0 (zero z)
G00 Z10 F500 (going up)
M03 (turn on plasma)
G04 P0.2 (pause)
G01 Z1 (going to cutting z)
G01 Z-1.000000 F100.0(Penetrate)
G01 X156.492009 Y66.253686 Z-1.000000 F400.000000
G00 Z5.000000
M05 (turn off plasma)
(End cutting path id: path28849)


(Start cutting path id: path28847)
(Change tool to Plasma cutter)
 
G00 Z5.000000
G00 X153.952909 Y63.387607
G31 Z-100 F500 (find metal)
G92 Z0 (zero z)
G00 Z10 F500 (going up)
M03 (turn on plasma)
G04 P0.2 (pause)
G01 Z1 (going to cutting z)
G01 Z-1.000000 F100.0(Penetrate)
G01 X155.048408 Y64.974824 Z-1.000000 F400.000000
G00 Z5.000000
M05 (turn off plasma)
(End cutting path id: path28847)


(Start cutting path id: path28845)
(Change tool to Plasma cutter)
 
G00 Z5.000000
G00 X153.269008 Y61.584348
G31 Z-100 F500 (find metal)
G92 Z0 (zero z)
G00 Z10 F500 (going up)
M03 (turn on plasma)
G04 P0.2 (pause)
G01 Z1 (going to cutting z)
G01 Z-1.000000 F100.0(Penetrate)
G01 X153.952909 Y63.387607 Z-1.000000 F400.000000
G00 Z5.000000
M05 (turn off plasma)
(End cutting path id: path28845)


(Start cutting path id: path28843)
(Change tool to Plasma cutter)
 
G00 Z5.000000
G00 X153.036508 Y59.669837
G31 Z-100 F500 (find metal)
G92 Z0 (zero z)
G00 Z10 F500 (going up)
M03 (turn on plasma)
G04 P0.2 (pause)
G01 Z1 (going to cutting z)
G01 Z-1.000000 F100.0(Penetrate)
G01 X153.269008 Y61.584348 Z-1.000000 F400.000000
G00 Z5.000000
M05 (turn off plasma)
(End cutting path id: path28843)


(Start cutting path id: path28841)
(Change tool to Plasma cutter)
 
G00 Z5.000000
G00 X153.269008 Y57.755326
G31 Z-100 F500 (find metal)
G92 Z0 (zero z)
G00 Z10 F500 (going up)
M03 (turn on plasma)
G04 P0.2 (pause)
G01 Z1 (going to cutting z)
G01 Z-1.000000 F100.0(Penetrate)
G01 X153.036508 Y59.669837 Z-1.000000 F400.000000
G00 Z5.000000
M05 (turn off plasma)
(End cutting path id: path28841)


(Start cutting path id: path28839)
(Change tool to Plasma cutter)
 
G00 Z5.000000
G00 X153.952909 Y55.952067
G31 Z-100 F500 (find metal)
G92 Z0 (zero z)
G00 Z10 F500 (going up)
M03 (turn on plasma)
G04 P0.2 (pause)
G01 Z1 (going to cutting z)
G01 Z-1.000000 F100.0(Penetrate)
G01 X153.269008 Y57.755326 Z-1.000000 F400.000000
G00 Z5.000000
M05 (turn off plasma)
(End cutting path id: path28839)


(Start cutting path id: path28837)
(Change tool to Plasma cutter)
 
G00 Z5.000000
G00 X155.048408 Y54.364849
G31 Z-100 F500 (find metal)
G92 Z0 (zero z)
G00 Z10 F500 (going up)
M03 (turn on plasma)
G04 P0.2 (pause)
G01 Z1 (going to cutting z)
G01 Z-1.000000 F100.0(Penetrate)
G01 X153.952909 Y55.952067 Z-1.000000 F400.000000
G00 Z5.000000
M05 (turn off plasma)
(End cutting path id: path28837)


(Start cutting path id: path28835)
(Change tool to Plasma cutter)
 
G00 Z5.000000
G00 X156.492009 Y53.085988
G31 Z-100 F500 (find metal)
G92 Z0 (zero z)
G00 Z10 F500 (going up)
M03 (turn on plasma)
G04 P0.2 (pause)
G01 Z1 (going to cutting z)
G01 Z-1.000000 F100.0(Penetrate)
G01 X155.048408 Y54.364849 Z-1.000000 F400.000000
G00 Z5.000000
M05 (turn off plasma)
(End cutting path id: path28835)


(Start cutting path id: path28833)
(Change tool to Plasma cutter)
 
G00 Z5.000000
G00 X158.199608 Y52.189706
G31 Z-100 F500 (find metal)
G92 Z0 (zero z)
G00 Z10 F500 (going up)
M03 (turn on plasma)
G04 P0.2 (pause)
G01 Z1 (going to cutting z)
G01 Z-1.000000 F100.0(Penetrate)
G01 X156.492009 Y53.085988 Z-1.000000 F400.000000
G00 Z5.000000
M05 (turn off plasma)
(End cutting path id: path28833)


(Start cutting path id: path28831)
(Change tool to Plasma cutter)
 
G00 Z5.000000
G00 X160.072209 Y51.728160
G31 Z-100 F500 (find metal)
G92 Z0 (zero z)
G00 Z10 F500 (going up)
M03 (turn on plasma)
G04 P0.2 (pause)
G01 Z1 (going to cutting z)
G01 Z-1.000000 F100.0(Penetrate)
G01 X158.199608 Y52.189706 Z-1.000000 F400.000000
G00 Z5.000000
M05 (turn off plasma)
(End cutting path id: path28831)


(Start cutting path id: path28829)
(Change tool to Plasma cutter)
 
G00 Z5.000000
G00 X46.155008 Y30.425942
G31 Z-100 F500 (find metal)
G92 Z0 (zero z)
G00 Z10 F500 (going up)
M03 (turn on plasma)
G04 P0.2 (pause)
G01 Z1 (going to cutting z)
G01 Z-1.000000 F100.0(Penetrate)
G01 X47.396708 Y31.854043 Z-1.000000 F400.000000
G00 Z5.000000
M05 (turn off plasma)
(End cutting path id: path28829)


(Start cutting path id: path28827)
(Change tool to Plasma cutter)
 
G00 Z5.000000
G00 X47.707208 Y30.922738
G31 Z-100 F500 (find metal)
G92 Z0 (zero z)
G00 Z10 F500 (going up)
M03 (turn on plasma)
G04 P0.2 (pause)
G01 Z1 (going to cutting z)
G01 Z-1.000000 F100.0(Penetrate)
G01 X46.155008 Y30.425942 Z-1.000000 F400.000000
G00 Z5.000000
M05 (turn off plasma)
(End cutting path id: path28827)


(Start cutting path id: path28825)
(Change tool to Plasma cutter)
 
G00 Z5.000000
G00 X62.655058 Y36.114836
G31 Z-100 F500 (find metal)
G92 Z0 (zero z)
G00 Z10 F500 (going up)
M03 (turn on plasma)
G04 P0.2 (pause)
G01 Z1 (going to cutting z)
G01 Z-1.000000 F100.0(Penetrate)
G01 X47.707208 Y30.922738 Z-1.000000 F400.000000
G00 Z5.000000
M05 (turn off plasma)
(End cutting path id: path28825)


(Start cutting path id: path28823)
(Change tool to Plasma cutter)
 
G00 Z5.000000
G00 X70.670328 Y39.103937
G31 Z-100 F500 (find metal)
G92 Z0 (zero z)
G00 Z10 F500 (going up)
M03 (turn on plasma)
G04 P0.2 (pause)
G01 Z1 (going to cutting z)
G01 Z-1.000000 F100.0(Penetrate)
G01 X62.655058 Y36.114836 Z-1.000000 F400.000000
G00 Z5.000000
M05 (turn off plasma)
(End cutting path id: path28823)


(Start cutting path id: path28821)
(Change tool to Plasma cutter)
 
G00 Z5.000000
G00 X75.274608 Y40.981138
G31 Z-100 F500 (find metal)
G92 Z0 (zero z)
G00 Z10 F500 (going up)
M03 (turn on plasma)
G04 P0.2 (pause)
G01 Z1 (going to cutting z)
G01 Z-1.000000 F100.0(Penetrate)
G01 X70.670328 Y39.103937 Z-1.000000 F400.000000
G00 Z5.000000
M05 (turn off plasma)
(End cutting path id: path28821)


(Start cutting path id: path28819)
(Change tool to Plasma cutter)
 
G00 Z5.000000
G00 X78.978608 Y43.011642
G31 Z-100 F500 (find metal)
G92 Z0 (zero z)
G00 Z10 F500 (going up)
M03 (turn on plasma)
G04 P0.2 (pause)
G01 Z1 (going to cutting z)
G01 Z-1.000000 F100.0(Penetrate)
G01 X75.274608 Y40.981138 Z-1.000000 F400.000000
G00 Z5.000000
M05 (turn off plasma)
(End cutting path id: path28819)


(Start cutting path id: path28817)
(Change tool to Plasma cutter)
 
G00 Z5.000000
G00 X82.508008 Y45.257425
G31 Z-100 F500 (find metal)
G92 Z0 (zero z)
G00 Z10 F500 (going up)
M03 (turn on plasma)
G04 P0.2 (pause)
G01 Z1 (going to cutting z)
G01 Z-1.000000 F100.0(Penetrate)
G01 X78.978608 Y43.011642 Z-1.000000 F400.000000
G00 Z5.000000
M05 (turn off plasma)
(End cutting path id: path28817)


(Start cutting path id: path28815)
(Change tool to Plasma cutter)
 
G00 Z5.000000
G00 X85.385408 Y47.398532
G31 Z-100 F500 (find metal)
G92 Z0 (zero z)
G00 Z10 F500 (going up)
M03 (turn on plasma)
G04 P0.2 (pause)
G01 Z1 (going to cutting z)
G01 Z-1.000000 F100.0(Penetrate)
G01 X82.508008 Y45.257425 Z-1.000000 F400.000000
G00 Z5.000000
M05 (turn off plasma)
(End cutting path id: path28815)


(Start cutting path id: path28813)
(Change tool to Plasma cutter)
 
G00 Z5.000000
G00 X87.133608 Y49.114726
G31 Z-100 F500 (find metal)
G92 Z0 (zero z)
G00 Z10 F500 (going up)
M03 (turn on plasma)
G04 P0.2 (pause)
G01 Z1 (going to cutting z)
G01 Z-1.000000 F100.0(Penetrate)
G01 X85.385408 Y47.398532 Z-1.000000 F400.000000
G00 Z5.000000
M05 (turn off plasma)
(End cutting path id: path28813)


(Start cutting path id: path28811)
(Change tool to Plasma cutter)
 
G00 Z5.000000
G00 X87.701208 Y50.221686
G31 Z-100 F500 (find metal)
G92 Z0 (zero z)
G00 Z10 F500 (going up)
M03 (turn on plasma)
G04 P0.2 (pause)
G01 Z1 (going to cutting z)
G01 Z-1.000000 F100.0(Penetrate)
G01 X87.133608 Y49.114726 Z-1.000000 F400.000000
G00 Z5.000000
M05 (turn off plasma)
(End cutting path id: path28811)


(Start cutting path id: path28809)
(Change tool to Plasma cutter)
 
G00 Z5.000000
G00 X88.100808 Y51.706965
G31 Z-100 F500 (find metal)
G92 Z0 (zero z)
G00 Z10 F500 (going up)
M03 (turn on plasma)
G04 P0.2 (pause)
G01 Z1 (going to cutting z)
G01 Z-1.000000 F100.0(Penetrate)
G01 X87.701208 Y50.221686 Z-1.000000 F400.000000
G00 Z5.000000
M05 (turn off plasma)
(End cutting path id: path28809)


(Start cutting path id: path28807)
(Change tool to Plasma cutter)
 
G00 Z5.000000
G00 X88.398608 Y55.416776
G31 Z-100 F500 (find metal)
G92 Z0 (zero z)
G00 Z10 F500 (going up)
M03 (turn on plasma)
G04 P0.2 (pause)
G01 Z1 (going to cutting z)
G01 Z-1.000000 F100.0(Penetrate)
G01 X88.100808 Y51.706965 Z-1.000000 F400.000000
G00 Z5.000000
M05 (turn off plasma)
(End cutting path id: path28807)


(Start cutting path id: path28805)
(Change tool to Plasma cutter)
 
G00 Z5.000000
G00 X88.032908 Y59.452554
G31 Z-100 F500 (find metal)
G92 Z0 (zero z)
G00 Z10 F500 (going up)
M03 (turn on plasma)
G04 P0.2 (pause)
G01 Z1 (going to cutting z)
G01 Z-1.000000 F100.0(Penetrate)
G01 X88.398608 Y55.416776 Z-1.000000 F400.000000
G00 Z5.000000
M05 (turn off plasma)
(End cutting path id: path28805)


(Start cutting path id: path28803)
(Change tool to Plasma cutter)
 
G00 Z5.000000
G00 X87.603008 Y61.345249
G31 Z-100 F500 (find metal)
G92 Z0 (zero z)
G00 Z10 F500 (going up)
M03 (turn on plasma)
G04 P0.2 (pause)
G01 Z1 (going to cutting z)
G01 Z-1.000000 F100.0(Penetrate)
G01 X88.032908 Y59.452554 Z-1.000000 F400.000000
G00 Z5.000000
M05 (turn off plasma)
(End cutting path id: path28803)


(Start cutting path id: path28801)
(Change tool to Plasma cutter)
 
G00 Z5.000000
G00 X87.009408 Y63.022609
G31 Z-100 F500 (find metal)
G92 Z0 (zero z)
G00 Z10 F500 (going up)
M03 (turn on plasma)
G04 P0.2 (pause)
G01 Z1 (going to cutting z)
G01 Z-1.000000 F100.0(Penetrate)
G01 X87.603008 Y61.345249 Z-1.000000 F400.000000
G00 Z5.000000
M05 (turn off plasma)
(End cutting path id: path28801)


(Start cutting path id: path28799)
(Change tool to Plasma cutter)
 
G00 Z5.000000
G00 X85.651708 Y65.530435
G31 Z-100 F500 (find metal)
G92 Z0 (zero z)
G00 Z10 F500 (going up)
M03 (turn on plasma)
G04 P0.2 (pause)
G01 Z1 (going to cutting z)
G01 Z-1.000000 F100.0(Penetrate)
G01 X87.009408 Y63.022609 Z-1.000000 F400.000000
G00 Z5.000000
M05 (turn off plasma)
(End cutting path id: path28799)


(Start cutting path id: path28797)
(Change tool to Plasma cutter)
 
G00 Z5.000000
G00 X84.005808 Y67.741364
G31 Z-100 F500 (find metal)
G92 Z0 (zero z)
G00 Z10 F500 (going up)
M03 (turn on plasma)
G04 P0.2 (pause)
G01 Z1 (going to cutting z)
G01 Z-1.000000 F100.0(Penetrate)
G01 X85.651708 Y65.530435 Z-1.000000 F400.000000
G00 Z5.000000
M05 (turn off plasma)
(End cutting path id: path28797)


(Start cutting path id: path28795)
(Change tool to Plasma cutter)
 
G00 Z5.000000
G00 X82.080608 Y69.649610
G31 Z-100 F500 (find metal)
G92 Z0 (zero z)
G00 Z10 F500 (going up)
M03 (turn on plasma)
G04 P0.2 (pause)
G01 Z1 (going to cutting z)
G01 Z-1.000000 F100.0(Penetrate)
G01 X84.005808 Y67.741364 Z-1.000000 F400.000000
G00 Z5.000000
M05 (turn off plasma)
(End cutting path id: path28795)


(Start cutting path id: path28793)
(Change tool to Plasma cutter)
 
G00 Z5.000000
G00 X79.884708 Y71.249330
G31 Z-100 F500 (find metal)
G92 Z0 (zero z)
G00 Z10 F500 (going up)
M03 (turn on plasma)
G04 P0.2 (pause)
G01 Z1 (going to cutting z)
G01 Z-1.000000 F100.0(Penetrate)
G01 X82.080608 Y69.649610 Z-1.000000 F400.000000
G00 Z5.000000
M05 (turn off plasma)
(End cutting path id: path28793)


(Start cutting path id: path28791)
(Change tool to Plasma cutter)
 
G00 Z5.000000
G00 X77.426908 Y72.534824
G31 Z-100 F500 (find metal)
G92 Z0 (zero z)
G00 Z10 F500 (going up)
M03 (turn on plasma)
G04 P0.2 (pause)
G01 Z1 (going to cutting z)
G01 Z-1.000000 F100.0(Penetrate)
G01 X79.884708 Y71.249330 Z-1.000000 F400.000000
G00 Z5.000000
M05 (turn off plasma)
(End cutting path id: path28791)


(Start cutting path id: path28789)
(Change tool to Plasma cutter)
 
G00 Z5.000000
G00 X74.715808 Y73.500137
G31 Z-100 F500 (find metal)
G92 Z0 (zero z)
G00 Z10 F500 (going up)
M03 (turn on plasma)
G04 P0.2 (pause)
G01 Z1 (going to cutting z)
G01 Z-1.000000 F100.0(Penetrate)
G01 X77.426908 Y72.534824 Z-1.000000 F400.000000
G00 Z5.000000
M05 (turn off plasma)
(End cutting path id: path28789)


(Start cutting path id: path28787)
(Change tool to Plasma cutter)
 
G00 Z5.000000
G00 X71.760308 Y74.139427
G31 Z-100 F500 (find metal)
G92 Z0 (zero z)
G00 Z10 F500 (going up)
M03 (turn on plasma)
G04 P0.2 (pause)
G01 Z1 (going to cutting z)
G01 Z-1.000000 F100.0(Penetrate)
G01 X74.715808 Y73.500137 Z-1.000000 F400.000000
G00 Z5.000000
M05 (turn off plasma)
(End cutting path id: path28787)


(Start cutting path id: path28785)
(Change tool to Plasma cutter)
 
G00 Z5.000000
G00 X68.568998 Y74.446936
G31 Z-100 F500 (find metal)
G92 Z0 (zero z)
G00 Z10 F500 (going up)
M03 (turn on plasma)
G04 P0.2 (pause)
G01 Z1 (going to cutting z)
G01 Z-1.000000 F100.0(Penetrate)
G01 X71.760308 Y74.139427 Z-1.000000 F400.000000
G00 Z5.000000
M05 (turn off plasma)
(End cutting path id: path28785)


(Start cutting path id: path28783)
(Change tool to Plasma cutter)
 
G00 Z5.000000
G00 X64.362478 Y74.415948
G31 Z-100 F500 (find metal)
G92 Z0 (zero z)
G00 Z10 F500 (going up)
M03 (turn on plasma)
G04 P0.2 (pause)
G01 Z1 (going to cutting z)
G01 Z-1.000000 F100.0(Penetrate)
G01 X68.568998 Y74.446936 Z-1.000000 F400.000000
G00 Z5.000000
M05 (turn off plasma)
(End cutting path id: path28783)


(Start cutting path id: path28781)
(Change tool to Plasma cutter)
 
G00 Z5.000000
G00 X61.366693 Y74.012342
G31 Z-100 F500 (find metal)
G92 Z0 (zero z)
G00 Z10 F500 (going up)
M03 (turn on plasma)
G04 P0.2 (pause)
G01 Z1 (going to cutting z)
G01 Z-1.000000 F100.0(Penetrate)
G01 X64.362478 Y74.415948 Z-1.000000 F400.000000
G00 Z5.000000
M05 (turn off plasma)
(End cutting path id: path28781)


(Start cutting path id: path28779)
(Change tool to Plasma cutter)
 
G00 Z5.000000
G00 X59.605948 Y73.360437
G31 Z-100 F500 (find metal)
G92 Z0 (zero z)
G00 Z10 F500 (going up)
M03 (turn on plasma)
G04 P0.2 (pause)
G01 Z1 (going to cutting z)
G01 Z-1.000000 F100.0(Penetrate)
G01 X61.366693 Y74.012342 Z-1.000000 F400.000000
G00 Z5.000000
M05 (turn off plasma)
(End cutting path id: path28779)


(Start cutting path id: path28777)
(Change tool to Plasma cutter)
 
G00 Z5.000000
G00 X58.456338 Y72.661937
G31 Z-100 F500 (find metal)
G92 Z0 (zero z)
G00 Z10 F500 (going up)
M03 (turn on plasma)
G04 P0.2 (pause)
G01 Z1 (going to cutting z)
G01 Z-1.000000 F100.0(Penetrate)
G01 X59.605948 Y73.360437 Z-1.000000 F400.000000
G00 Z5.000000
M05 (turn off plasma)
(End cutting path id: path28777)


(Start cutting path id: path28775)
(Change tool to Plasma cutter)
 
G00 Z5.000000
G00 X57.830578 Y71.846936
G31 Z-100 F500 (find metal)
G92 Z0 (zero z)
G00 Z10 F500 (going up)
M03 (turn on plasma)
G04 P0.2 (pause)
G01 Z1 (going to cutting z)
G01 Z-1.000000 F100.0(Penetrate)
G01 X58.456338 Y72.661937 Z-1.000000 F400.000000
G00 Z5.000000
M05 (turn off plasma)
(End cutting path id: path28775)


(Start cutting path id: path28773)
(Change tool to Plasma cutter)
 
G00 Z5.000000
G00 X57.641408 Y70.845837
G31 Z-100 F500 (find metal)
G92 Z0 (zero z)
G00 Z10 F500 (going up)
M03 (turn on plasma)
G04 P0.2 (pause)
G01 Z1 (going to cutting z)
G01 Z-1.000000 F100.0(Penetrate)
G01 X57.830578 Y71.846936 Z-1.000000 F400.000000
G00 Z5.000000
M05 (turn off plasma)
(End cutting path id: path28773)


(Start cutting path id: path28771)
(Change tool to Plasma cutter)
 
G00 Z5.000000
G00 X57.786568 Y70.258025
G31 Z-100 F500 (find metal)
G92 Z0 (zero z)
G00 Z10 F500 (going up)
M03 (turn on plasma)
G04 P0.2 (pause)
G01 Z1 (going to cutting z)
G01 Z-1.000000 F100.0(Penetrate)
G01 X57.641408 Y70.845837 Z-1.000000 F400.000000
G00 Z5.000000
M05 (turn off plasma)
(End cutting path id: path28771)


(Start cutting path id: path28769)
(Change tool to Plasma cutter)
 
G00 Z5.000000
G00 X58.220588 Y69.705941
G31 Z-100 F500 (find metal)
G92 Z0 (zero z)
G00 Z10 F500 (going up)
M03 (turn on plasma)
G04 P0.2 (pause)
G01 Z1 (going to cutting z)
G01 Z-1.000000 F100.0(Penetrate)
G01 X57.786568 Y70.258025 Z-1.000000 F400.000000
G00 Z5.000000
M05 (turn off plasma)
(End cutting path id: path28769)


(Start cutting path id: path28767)
(Change tool to Plasma cutter)
 
G00 Z5.000000
G00 X59.946448 Y68.711503
G31 Z-100 F500 (find metal)
G92 Z0 (zero z)
G00 Z10 F500 (going up)
M03 (turn on plasma)
G04 P0.2 (pause)
G01 Z1 (going to cutting z)
G01 Z-1.000000 F100.0(Penetrate)
G01 X58.220588 Y69.705941 Z-1.000000 F400.000000
G00 Z5.000000
M05 (turn off plasma)
(End cutting path id: path28767)


(Start cutting path id: path28765)
(Change tool to Plasma cutter)
 
G00 Z5.000000
G00 X62.801508 Y67.868477
G31 Z-100 F500 (find metal)
G92 Z0 (zero z)
G00 Z10 F500 (going up)
M03 (turn on plasma)
G04 P0.2 (pause)
G01 Z1 (going to cutting z)
G01 Z-1.000000 F100.0(Penetrate)
G01 X59.946448 Y68.711503 Z-1.000000 F400.000000
G00 Z5.000000
M05 (turn off plasma)
(End cutting path id: path28765)


(Start cutting path id: path28763)
(Change tool to Plasma cutter)
 
G00 Z5.000000
G00 X66.768428 Y67.182536
G31 Z-100 F500 (find metal)
G92 Z0 (zero z)
G00 Z10 F500 (going up)
M03 (turn on plasma)
G04 P0.2 (pause)
G01 Z1 (going to cutting z)
G01 Z-1.000000 F100.0(Penetrate)
G01 X62.801508 Y67.868477 Z-1.000000 F400.000000
G00 Z5.000000
M05 (turn off plasma)
(End cutting path id: path28763)


(Start cutting path id: path28761)
(Change tool to Plasma cutter)
 
G00 Z5.000000
G00 X72.609608 Y66.100835
G31 Z-100 F500 (find metal)
G92 Z0 (zero z)
G00 Z10 F500 (going up)
M03 (turn on plasma)
G04 P0.2 (pause)
G01 Z1 (going to cutting z)
G01 Z-1.000000 F100.0(Penetrate)
G01 X66.768428 Y67.182536 Z-1.000000 F400.000000
G00 Z5.000000
M05 (turn off plasma)
(End cutting path id: path28761)


(Start cutting path id: path28759)
(Change tool to Plasma cutter)
 
G00 Z5.000000
G00 X77.408908 Y64.582592
G31 Z-100 F500 (find metal)
G92 Z0 (zero z)
G00 Z10 F500 (going up)
M03 (turn on plasma)
G04 P0.2 (pause)
G01 Z1 (going to cutting z)
G01 Z-1.000000 F100.0(Penetrate)
G01 X72.609608 Y66.100835 Z-1.000000 F400.000000
G00 Z5.000000
M05 (turn off plasma)
(End cutting path id: path28759)


(Start cutting path id: path28757)
(Change tool to Plasma cutter)
 
G00 Z5.000000
G00 X79.259608 Y63.727064
G31 Z-100 F500 (find metal)
G92 Z0 (zero z)
G00 Z10 F500 (going up)
M03 (turn on plasma)
G04 P0.2 (pause)
G01 Z1 (going to cutting z)
G01 Z-1.000000 F100.0(Penetrate)
G01 X77.408908 Y64.582592 Z-1.000000 F400.000000
G00 Z5.000000
M05 (turn off plasma)
(End cutting path id: path28757)


(Start cutting path id: path28755)
(Change tool to Plasma cutter)
 
G00 Z5.000000
G00 X80.659908 Y62.843144
G31 Z-100 F500 (find metal)
G92 Z0 (zero z)
G00 Z10 F500 (going up)
M03 (turn on plasma)
G04 P0.2 (pause)
G01 Z1 (going to cutting z)
G01 Z-1.000000 F100.0(Penetrate)
G01 X79.259608 Y63.727064 Z-1.000000 F400.000000
G00 Z5.000000
M05 (turn off plasma)
(End cutting path id: path28755)


(Start cutting path id: path28753)
(Change tool to Plasma cutter)
 
G00 Z5.000000
G00 X81.546408 Y61.957756
G31 Z-100 F500 (find metal)
G92 Z0 (zero z)
G00 Z10 F500 (going up)
M03 (turn on plasma)
G04 P0.2 (pause)
G01 Z1 (going to cutting z)
G01 Z-1.000000 F100.0(Penetrate)
G01 X80.659908 Y62.843144 Z-1.000000 F400.000000
G00 Z5.000000
M05 (turn off plasma)
(End cutting path id: path28753)


(Start cutting path id: path28751)
(Change tool to Plasma cutter)
 
G00 Z5.000000
G00 X81.856008 Y61.097825
G31 Z-100 F500 (find metal)
G92 Z0 (zero z)
G00 Z10 F500 (going up)
M03 (turn on plasma)
G04 P0.2 (pause)
G01 Z1 (going to cutting z)
G01 Z-1.000000 F100.0(Penetrate)
G01 X81.546408 Y61.957756 Z-1.000000 F400.000000
G00 Z5.000000
M05 (turn off plasma)
(End cutting path id: path28751)


(Start cutting path id: path28749)
(Change tool to Plasma cutter)
 
G00 Z5.000000
G00 X81.384608 Y60.005371
G31 Z-100 F500 (find metal)
G92 Z0 (zero z)
G00 Z10 F500 (going up)
M03 (turn on plasma)
G04 P0.2 (pause)
G01 Z1 (going to cutting z)
G01 Z-1.000000 F100.0(Penetrate)
G01 X81.856008 Y61.097825 Z-1.000000 F400.000000
G00 Z5.000000
M05 (turn off plasma)
(End cutting path id: path28749)


(Start cutting path id: path28747)
(Change tool to Plasma cutter)
 
G00 Z5.000000
G00 X80.029308 Y58.318444
G31 Z-100 F500 (find metal)
G92 Z0 (zero z)
G00 Z10 F500 (going up)
M03 (turn on plasma)
G04 P0.2 (pause)
G01 Z1 (going to cutting z)
G01 Z-1.000000 F100.0(Penetrate)
G01 X81.384608 Y60.005371 Z-1.000000 F400.000000
G00 Z5.000000
M05 (turn off plasma)
(End cutting path id: path28747)


(Start cutting path id: path28745)
(Change tool to Plasma cutter)
 
G00 Z5.000000
G00 X75.018508 Y53.484260
G31 Z-100 F500 (find metal)
G92 Z0 (zero z)
G00 Z10 F500 (going up)
M03 (turn on plasma)
G04 P0.2 (pause)
G01 Z1 (going to cutting z)
G01 Z-1.000000 F100.0(Penetrate)
G01 X80.029308 Y58.318444 Z-1.000000 F400.000000
G00 Z5.000000
M05 (turn off plasma)
(End cutting path id: path28745)


(Start cutting path id: path28743)
(Change tool to Plasma cutter)
 
G00 Z5.000000
G00 X67.528038 Y47.241447
G31 Z-100 F500 (find metal)
G92 Z0 (zero z)
G00 Z10 F500 (going up)
M03 (turn on plasma)
G04 P0.2 (pause)
G01 Z1 (going to cutting z)
G01 Z-1.000000 F100.0(Penetrate)
G01 X75.018508 Y53.484260 Z-1.000000 F400.000000
G00 Z5.000000
M05 (turn off plasma)
(End cutting path id: path28743)


(Start cutting path id: path28741)
(Change tool to Plasma cutter)
 
G00 Z5.000000
G00 X58.262308 Y40.236043
G31 Z-100 F500 (find metal)
G92 Z0 (zero z)
G00 Z10 F500 (going up)
M03 (turn on plasma)
G04 P0.2 (pause)
G01 Z1 (going to cutting z)
G01 Z-1.000000 F100.0(Penetrate)
G01 X67.528038 Y47.241447 Z-1.000000 F400.000000
G00 Z5.000000
M05 (turn off plasma)
(End cutting path id: path28741)


(Start cutting path id: path28739)
(Change tool to Plasma cutter)
 
G00 Z5.000000
G00 X51.106578 Y34.880848
G31 Z-100 F500 (find metal)
G92 Z0 (zero z)
G00 Z10 F500 (going up)
M03 (turn on plasma)
G04 P0.2 (pause)
G01 Z1 (going to cutting z)
G01 Z-1.000000 F100.0(Penetrate)
G01 X58.262308 Y40.236043 Z-1.000000 F400.000000
G00 Z5.000000
M05 (turn off plasma)
(End cutting path id: path28739)


(Start cutting path id: path28737)
(Change tool to Plasma cutter)
 
G00 Z5.000000
G00 X47.396708 Y31.854043
G31 Z-100 F500 (find metal)
G92 Z0 (zero z)
G00 Z10 F500 (going up)
M03 (turn on plasma)
G04 P0.2 (pause)
G01 Z1 (going to cutting z)
G01 Z-1.000000 F100.0(Penetrate)
G01 X51.106578 Y34.880848 Z-1.000000 F400.000000
G00 Z5.000000
M05 (turn off plasma)
(End cutting path id: path28737)


(Start cutting path id: path28735)
(Change tool to Plasma cutter)
 
G00 Z5.000000
G00 X46.154008 Y47.399548
G31 Z-100 F500 (find metal)
G92 Z0 (zero z)
G00 Z10 F500 (going up)
M03 (turn on plasma)
G04 P0.2 (pause)
G01 Z1 (going to cutting z)
G01 Z-1.000000 F100.0(Penetrate)
G01 X43.617108 Y47.764349 Z-1.000000 F400.000000
G00 Z5.000000
M05 (turn off plasma)
(End cutting path id: path28735)


(Start cutting path id: path28733)
(Change tool to Plasma cutter)
 
G00 Z5.000000
G00 X49.756108 Y47.500443
G31 Z-100 F500 (find metal)
G92 Z0 (zero z)
G00 Z10 F500 (going up)
M03 (turn on plasma)
G04 P0.2 (pause)
G01 Z1 (going to cutting z)
G01 Z-1.000000 F100.0(Penetrate)
G01 X46.154008 Y47.399548 Z-1.000000 F400.000000
G00 Z5.000000
M05 (turn off plasma)
(End cutting path id: path28733)


(Start cutting path id: path28731)
(Change tool to Plasma cutter)
 
G00 Z5.000000
G00 X53.162288 Y47.940822
G31 Z-100 F500 (find metal)
G92 Z0 (zero z)
G00 Z10 F500 (going up)
M03 (turn on plasma)
G04 P0.2 (pause)
G01 Z1 (going to cutting z)
G01 Z-1.000000 F100.0(Penetrate)
G01 X49.756108 Y47.500443 Z-1.000000 F400.000000
G00 Z5.000000
M05 (turn off plasma)
(End cutting path id: path28731)


(Start cutting path id: path28729)
(Change tool to Plasma cutter)
 
G00 Z5.000000
G00 X56.236668 Y48.881949
G31 Z-100 F500 (find metal)
G92 Z0 (zero z)
G00 Z10 F500 (going up)
M03 (turn on plasma)
G04 P0.2 (pause)
G01 Z1 (going to cutting z)
G01 Z-1.000000 F100.0(Penetrate)
G01 X53.162288 Y47.940822 Z-1.000000 F400.000000
G00 Z5.000000
M05 (turn off plasma)
(End cutting path id: path28729)


(Start cutting path id: path28727)
(Change tool to Plasma cutter)
 
G00 Z5.000000
G00 X59.299368 Y50.451612
G31 Z-100 F500 (find metal)
G92 Z0 (zero z)
G00 Z10 F500 (going up)
M03 (turn on plasma)
G04 P0.2 (pause)
G01 Z1 (going to cutting z)
G01 Z-1.000000 F100.0(Penetrate)
G01 X56.236668 Y48.881949 Z-1.000000 F400.000000
G00 Z5.000000
M05 (turn off plasma)
(End cutting path id: path28727)


(Start cutting path id: path28725)
(Change tool to Plasma cutter)
 
G00 Z5.000000
G00 X62.670558 Y52.777998
G31 Z-100 F500 (find metal)
G92 Z0 (zero z)
G00 Z10 F500 (going up)
M03 (turn on plasma)
G04 P0.2 (pause)
G01 Z1 (going to cutting z)
G01 Z-1.000000 F100.0(Penetrate)
G01 X59.299368 Y50.451612 Z-1.000000 F400.000000
G00 Z5.000000
M05 (turn off plasma)
(End cutting path id: path28725)


(Start cutting path id: path28723)
(Change tool to Plasma cutter)
 
G00 Z5.000000
G00 X65.388898 Y55.192664
G31 Z-100 F500 (find metal)
G92 Z0 (zero z)
G00 Z10 F500 (going up)
M03 (turn on plasma)
G04 P0.2 (pause)
G01 Z1 (going to cutting z)
G01 Z-1.000000 F100.0(Penetrate)
G01 X62.670558 Y52.777998 Z-1.000000 F400.000000
G00 Z5.000000
M05 (turn off plasma)
(End cutting path id: path28723)


(Start cutting path id: path28721)
(Change tool to Plasma cutter)
 
G00 Z5.000000
G00 X68.491418 Y58.358266
G31 Z-100 F500 (find metal)
G92 Z0 (zero z)
G00 Z10 F500 (going up)
M03 (turn on plasma)
G04 P0.2 (pause)
G01 Z1 (going to cutting z)
G01 Z-1.000000 F100.0(Penetrate)
G01 X65.388898 Y55.192664 Z-1.000000 F400.000000
G00 Z5.000000
M05 (turn off plasma)
(End cutting path id: path28721)


(Start cutting path id: path28719)
(Change tool to Plasma cutter)
 
G00 Z5.000000
G00 X70.965238 Y61.186104
G31 Z-100 F500 (find metal)
G92 Z0 (zero z)
G00 Z10 F500 (going up)
M03 (turn on plasma)
G04 P0.2 (pause)
G01 Z1 (going to cutting z)
G01 Z-1.000000 F100.0(Penetrate)
G01 X68.491418 Y58.358266 Z-1.000000 F400.000000
G00 Z5.000000
M05 (turn off plasma)
(End cutting path id: path28719)


(Start cutting path id: path28717)
(Change tool to Plasma cutter)
 
G00 Z5.000000
G00 X71.649908 Y62.133355
G31 Z-100 F500 (find metal)
G92 Z0 (zero z)
G00 Z10 F500 (going up)
M03 (turn on plasma)
G04 P0.2 (pause)
G01 Z1 (going to cutting z)
G01 Z-1.000000 F100.0(Penetrate)
G01 X70.965238 Y61.186104 Z-1.000000 F400.000000
G00 Z5.000000
M05 (turn off plasma)
(End cutting path id: path28717)


(Start cutting path id: path28715)
(Change tool to Plasma cutter)
 
G00 Z5.000000
G00 X71.797608 Y62.587986
G31 Z-100 F500 (find metal)
G92 Z0 (zero z)
G00 Z10 F500 (going up)
M03 (turn on plasma)
G04 P0.2 (pause)
G01 Z1 (going to cutting z)
G01 Z-1.000000 F100.0(Penetrate)
G01 X71.649908 Y62.133355 Z-1.000000 F400.000000
G00 Z5.000000
M05 (turn off plasma)
(End cutting path id: path28715)


(Start cutting path id: path28713)
(Change tool to Plasma cutter)
 
G00 Z5.000000
G00 X69.554648 Y62.060231
G31 Z-100 F500 (find metal)
G92 Z0 (zero z)
G00 Z10 F500 (going up)
M03 (turn on plasma)
G04 P0.2 (pause)
G01 Z1 (going to cutting z)
G01 Z-1.000000 F100.0(Penetrate)
G01 X71.797608 Y62.587986 Z-1.000000 F400.000000
G00 Z5.000000
M05 (turn off plasma)
(End cutting path id: path28713)


(Start cutting path id: path28711)
(Change tool to Plasma cutter)
 
G00 Z5.000000
G00 X64.471158 Y60.414875
G31 Z-100 F500 (find metal)
G92 Z0 (zero z)
G00 Z10 F500 (going up)
M03 (turn on plasma)
G04 P0.2 (pause)
G01 Z1 (going to cutting z)
G01 Z-1.000000 F100.0(Penetrate)
G01 X69.554648 Y62.060231 Z-1.000000 F400.000000
G00 Z5.000000
M05 (turn off plasma)
(End cutting path id: path28711)


(Start cutting path id: path28709)
(Change tool to Plasma cutter)
 
G00 Z5.000000
G00 X57.654278 Y58.418605
G31 Z-100 F500 (find metal)
G92 Z0 (zero z)
G00 Z10 F500 (going up)
M03 (turn on plasma)
G04 P0.2 (pause)
G01 Z1 (going to cutting z)
G01 Z-1.000000 F100.0(Penetrate)
G01 X64.471158 Y60.414875 Z-1.000000 F400.000000
G00 Z5.000000
M05 (turn off plasma)
(End cutting path id: path28709)


(Start cutting path id: path28707)
(Change tool to Plasma cutter)
 
G00 Z5.000000
G00 X51.857448 Y57.308540
G31 Z-100 F500 (find metal)
G92 Z0 (zero z)
G00 Z10 F500 (going up)
M03 (turn on plasma)
G04 P0.2 (pause)
G01 Z1 (going to cutting z)
G01 Z-1.000000 F100.0(Penetrate)
G01 X57.654278 Y58.418605 Z-1.000000 F400.000000
G00 Z5.000000
M05 (turn off plasma)
(End cutting path id: path28707)


(Start cutting path id: path28705)
(Change tool to Plasma cutter)
 
G00 Z5.000000
G00 X49.356608 Y57.080843
G31 Z-100 F500 (find metal)
G92 Z0 (zero z)
G00 Z10 F500 (going up)
M03 (turn on plasma)
G04 P0.2 (pause)
G01 Z1 (going to cutting z)
G01 Z-1.000000 F100.0(Penetrate)
G01 X51.857448 Y57.308540 Z-1.000000 F400.000000
G00 Z5.000000
M05 (turn off plasma)
(End cutting path id: path28705)


(Start cutting path id: path28703)
(Change tool to Plasma cutter)
 
G00 Z5.000000
G00 X47.128708 Y57.068679
G31 Z-100 F500 (find metal)
G92 Z0 (zero z)
G00 Z10 F500 (going up)
M03 (turn on plasma)
G04 P0.2 (pause)
G01 Z1 (going to cutting z)
G01 Z-1.000000 F100.0(Penetrate)
G01 X49.356608 Y57.080815 Z-1.000000 F400.000000
G00 Z5.000000
M05 (turn off plasma)
(End cutting path id: path28703)


(Start cutting path id: path28701)
(Change tool to Plasma cutter)
 
G00 Z5.000000
G00 X45.179908 Y57.270073
G31 Z-100 F500 (find metal)
G92 Z0 (zero z)
G00 Z10 F500 (going up)
M03 (turn on plasma)
G04 P0.2 (pause)
G01 Z1 (going to cutting z)
G01 Z-1.000000 F100.0(Penetrate)
G01 X47.128708 Y57.068679 Z-1.000000 F400.000000
G00 Z5.000000
M05 (turn off plasma)
(End cutting path id: path28701)


(Start cutting path id: path28699)
(Change tool to Plasma cutter)
 
G00 Z5.000000
G00 X43.516208 Y57.682992
G31 Z-100 F500 (find metal)
G92 Z0 (zero z)
G00 Z10 F500 (going up)
M03 (turn on plasma)
G04 P0.2 (pause)
G01 Z1 (going to cutting z)
G01 Z-1.000000 F100.0(Penetrate)
G01 X45.179908 Y57.270073 Z-1.000000 F400.000000
G00 Z5.000000
M05 (turn off plasma)
(End cutting path id: path28699)


(Start cutting path id: path28697)
(Change tool to Plasma cutter)
 
G00 Z5.000000
G00 X42.143508 Y58.305518
G31 Z-100 F500 (find metal)
G92 Z0 (zero z)
G00 Z10 F500 (going up)
M03 (turn on plasma)
G04 P0.2 (pause)
G01 Z1 (going to cutting z)
G01 Z-1.000000 F100.0(Penetrate)
G01 X43.516208 Y57.682992 Z-1.000000 F400.000000
G00 Z5.000000
M05 (turn off plasma)
(End cutting path id: path28697)


(Start cutting path id: path28695)
(Change tool to Plasma cutter)
 
G00 Z5.000000
G00 X41.067808 Y59.135562
G31 Z-100 F500 (find metal)
G92 Z0 (zero z)
G00 Z10 F500 (going up)
M03 (turn on plasma)
G04 P0.2 (pause)
G01 Z1 (going to cutting z)
G01 Z-1.000000 F100.0(Penetrate)
G01 X42.143508 Y58.305518 Z-1.000000 F400.000000
G00 Z5.000000
M05 (turn off plasma)
(End cutting path id: path28695)


(Start cutting path id: path28693)
(Change tool to Plasma cutter)
 
G00 Z5.000000
G00 X40.295208 Y60.171092
G31 Z-100 F500 (find metal)
G92 Z0 (zero z)
G00 Z10 F500 (going up)
M03 (turn on plasma)
G04 P0.2 (pause)
G01 Z1 (going to cutting z)
G01 Z-1.000000 F100.0(Penetrate)
G01 X41.067808 Y59.135562 Z-1.000000 F400.000000
G00 Z5.000000
M05 (turn off plasma)
(End cutting path id: path28693)


(Start cutting path id: path28691)
(Change tool to Plasma cutter)
 
G00 Z5.000000
G00 X39.831608 Y61.410245
G31 Z-100 F500 (find metal)
G92 Z0 (zero z)
G00 Z10 F500 (going up)
M03 (turn on plasma)
G04 P0.2 (pause)
G01 Z1 (going to cutting z)
G01 Z-1.000000 F100.0(Penetrate)
G01 X40.295208 Y60.171092 Z-1.000000 F400.000000
G00 Z5.000000
M05 (turn off plasma)
(End cutting path id: path28691)


(Start cutting path id: path28689)
(Change tool to Plasma cutter)
 
G00 Z5.000000
G00 X39.683108 Y62.850933
G31 Z-100 F500 (find metal)
G92 Z0 (zero z)
G00 Z10 F500 (going up)
M03 (turn on plasma)
G04 P0.2 (pause)
G01 Z1 (going to cutting z)
G01 Z-1.000000 F100.0(Penetrate)
G01 X39.831608 Y61.410245 Z-1.000000 F400.000000
G00 Z5.000000
M05 (turn off plasma)
(End cutting path id: path28689)


(Start cutting path id: path28687)
(Change tool to Plasma cutter)
 
G00 Z5.000000
G00 X39.855608 Y64.491152
G31 Z-100 F500 (find metal)
G92 Z0 (zero z)
G00 Z10 F500 (going up)
M03 (turn on plasma)
G04 P0.2 (pause)
G01 Z1 (going to cutting z)
G01 Z-1.000000 F100.0(Penetrate)
G01 X39.683108 Y62.850933 Z-1.000000 F400.000000
G00 Z5.000000
M05 (turn off plasma)
(End cutting path id: path28687)


(Start cutting path id: path28685)
(Change tool to Plasma cutter)
 
G00 Z5.000000
G00 X40.355208 Y66.328927
G31 Z-100 F500 (find metal)
G92 Z0 (zero z)
G00 Z10 F500 (going up)
M03 (turn on plasma)
G04 P0.2 (pause)
G01 Z1 (going to cutting z)
G01 Z-1.000000 F100.0(Penetrate)
G01 X39.855608 Y64.491152 Z-1.000000 F400.000000
G00 Z5.000000
M05 (turn off plasma)
(End cutting path id: path28685)


(Start cutting path id: path28683)
(Change tool to Plasma cutter)
 
G00 Z5.000000
G00 X41.187908 Y68.362281
G31 Z-100 F500 (find metal)
G92 Z0 (zero z)
G00 Z10 F500 (going up)
M03 (turn on plasma)
G04 P0.2 (pause)
G01 Z1 (going to cutting z)
G01 Z-1.000000 F100.0(Penetrate)
G01 X40.355208 Y66.328927 Z-1.000000 F400.000000
G00 Z5.000000
M05 (turn off plasma)
(End cutting path id: path28683)


(Start cutting path id: path28681)
(Change tool to Plasma cutter)
 
G00 Z5.000000
G00 X43.037908 Y71.891640
G31 Z-100 F500 (find metal)
G92 Z0 (zero z)
G00 Z10 F500 (going up)
M03 (turn on plasma)
G04 P0.2 (pause)
G01 Z1 (going to cutting z)
G01 Z-1.000000 F100.0(Penetrate)
G01 X41.187908 Y68.362281 Z-1.000000 F400.000000
G00 Z5.000000
M05 (turn off plasma)
(End cutting path id: path28681)


(Start cutting path id: path28679)
(Change tool to Plasma cutter)
 
G00 Z5.000000
G00 X45.045108 Y74.478037
G31 Z-100 F500 (find metal)
G92 Z0 (zero z)
G00 Z10 F500 (going up)
M03 (turn on plasma)
G04 P0.2 (pause)
G01 Z1 (going to cutting z)
G01 Z-1.000000 F100.0(Penetrate)
G01 X43.037908 Y71.891640 Z-1.000000 F400.000000
G00 Z5.000000
M05 (turn off plasma)
(End cutting path id: path28679)


(Start cutting path id: path28677)
(Change tool to Plasma cutter)
 
G00 Z5.000000
G00 X47.622808 Y76.552136
G31 Z-100 F500 (find metal)
G92 Z0 (zero z)
G00 Z10 F500 (going up)
M03 (turn on plasma)
G04 P0.2 (pause)
G01 Z1 (going to cutting z)
G01 Z-1.000000 F100.0(Penetrate)
G01 X45.045108 Y74.478037 Z-1.000000 F400.000000
G00 Z5.000000
M05 (turn off plasma)
(End cutting path id: path28677)


(Start cutting path id: path28675)
(Change tool to Plasma cutter)
 
G00 Z5.000000
G00 X51.184178 Y78.544837
G31 Z-100 F500 (find metal)
G92 Z0 (zero z)
G00 Z10 F500 (going up)
M03 (turn on plasma)
G04 P0.2 (pause)
G01 Z1 (going to cutting z)
G01 Z-1.000000 F100.0(Penetrate)
G01 X47.622808 Y76.552136 Z-1.000000 F400.000000
G00 Z5.000000
M05 (turn off plasma)
(End cutting path id: path28675)


(Start cutting path id: path28673)
(Change tool to Plasma cutter)
 
G00 Z5.000000
G00 X53.507408 Y79.580437
G31 Z-100 F500 (find metal)
G92 Z0 (zero z)
G00 Z10 F500 (going up)
M03 (turn on plasma)
G04 P0.2 (pause)
G01 Z1 (going to cutting z)
G01 Z-1.000000 F100.0(Penetrate)
G01 X51.184178 Y78.544837 Z-1.000000 F400.000000
G00 Z5.000000
M05 (turn off plasma)
(End cutting path id: path28673)


(Start cutting path id: path28671)
(Change tool to Plasma cutter)
 
G00 Z5.000000
G00 X55.811748 Y80.403637
G31 Z-100 F500 (find metal)
G92 Z0 (zero z)
G00 Z10 F500 (going up)
M03 (turn on plasma)
G04 P0.2 (pause)
G01 Z1 (going to cutting z)
G01 Z-1.000000 F100.0(Penetrate)
G01 X53.507408 Y79.580437 Z-1.000000 F400.000000
G00 Z5.000000
M05 (turn off plasma)
(End cutting path id: path28671)


(Start cutting path id: path28669)
(Change tool to Plasma cutter)
 
G00 Z5.000000
G00 X58.084028 Y81.011436
G31 Z-100 F500 (find metal)
G92 Z0 (zero z)
G00 Z10 F500 (going up)
M03 (turn on plasma)
G04 P0.2 (pause)
G01 Z1 (going to cutting z)
G01 Z-1.000000 F100.0(Penetrate)
G01 X55.811748 Y80.403637 Z-1.000000 F400.000000
G00 Z5.000000
M05 (turn off plasma)
(End cutting path id: path28669)


(Start cutting path id: path28667)
(Change tool to Plasma cutter)
 
G00 Z5.000000
G00 X60.311242 Y81.400937
G31 Z-100 F500 (find metal)
G92 Z0 (zero z)
G00 Z10 F500 (going up)
M03 (turn on plasma)
G04 P0.2 (pause)
G01 Z1 (going to cutting z)
G01 Z-1.000000 F100.0(Penetrate)
G01 X58.084028 Y81.011436 Z-1.000000 F400.000000
G00 Z5.000000
M05 (turn off plasma)
(End cutting path id: path28667)


(Start cutting path id: path28665)
(Change tool to Plasma cutter)
 
G00 Z5.000000
G00 X62.480158 Y81.569234
G31 Z-100 F500 (find metal)
G92 Z0 (zero z)
G00 Z10 F500 (going up)
M03 (turn on plasma)
G04 P0.2 (pause)
G01 Z1 (going to cutting z)
G01 Z-1.000000 F100.0(Penetrate)
G01 X60.311242 Y81.400937 Z-1.000000 F400.000000
G00 Z5.000000
M05 (turn off plasma)
(End cutting path id: path28665)


(Start cutting path id: path28663)
(Change tool to Plasma cutter)
 
G00 Z5.000000
G00 X64.577858 Y81.513436
G31 Z-100 F500 (find metal)
G92 Z0 (zero z)
G00 Z10 F500 (going up)
M03 (turn on plasma)
G04 P0.2 (pause)
G01 Z1 (going to cutting z)
G01 Z-1.000000 F100.0(Penetrate)
G01 X62.480158 Y81.569234 Z-1.000000 F400.000000
G00 Z5.000000
M05 (turn off plasma)
(End cutting path id: path28663)


(Start cutting path id: path28661)
(Change tool to Plasma cutter)
 
G00 Z5.000000
G00 X66.591118 Y81.230635
G31 Z-100 F500 (find metal)
G92 Z0 (zero z)
G00 Z10 F500 (going up)
M03 (turn on plasma)
G04 P0.2 (pause)
G01 Z1 (going to cutting z)
G01 Z-1.000000 F100.0(Penetrate)
G01 X64.577858 Y81.513436 Z-1.000000 F400.000000
G00 Z5.000000
M05 (turn off plasma)
(End cutting path id: path28661)


(Start cutting path id: path28659)
(Change tool to Plasma cutter)
 
G00 Z5.000000
G00 X68.506918 Y80.717936
G31 Z-100 F500 (find metal)
G92 Z0 (zero z)
G00 Z10 F500 (going up)
M03 (turn on plasma)
G04 P0.2 (pause)
G01 Z1 (going to cutting z)
G01 Z-1.000000 F100.0(Penetrate)
G01 X66.591118 Y81.230635 Z-1.000000 F400.000000
G00 Z5.000000
M05 (turn off plasma)
(End cutting path id: path28659)


(Start cutting path id: path28657)
(Change tool to Plasma cutter)
 
G00 Z5.000000
G00 X70.936138 Y80.058236
G31 Z-100 F500 (find metal)
G92 Z0 (zero z)
G00 Z10 F500 (going up)
M03 (turn on plasma)
G04 P0.2 (pause)
G01 Z1 (going to cutting z)
G01 Z-1.000000 F100.0(Penetrate)
G01 X68.506918 Y80.717936 Z-1.000000 F400.000000
G00 Z5.000000
M05 (turn off plasma)
(End cutting path id: path28657)


(Start cutting path id: path28655)
(Change tool to Plasma cutter)
 
G00 Z5.000000
G00 X71.449308 Y80.202836
G31 Z-100 F500 (find metal)
G92 Z0 (zero z)
G00 Z10 F500 (going up)
M03 (turn on plasma)
G04 P0.2 (pause)
G01 Z1 (going to cutting z)
G01 Z-1.000000 F100.0(Penetrate)
G01 X70.936138 Y80.058236 Z-1.000000 F400.000000
G00 Z5.000000
M05 (turn off plasma)
(End cutting path id: path28655)


(Start cutting path id: path28653)
(Change tool to Plasma cutter)
 
G00 Z5.000000
G00 X71.735508 Y80.655836
G31 Z-100 F500 (find metal)
G92 Z0 (zero z)
G00 Z10 F500 (going up)
M03 (turn on plasma)
G04 P0.2 (pause)
G01 Z1 (going to cutting z)
G01 Z-1.000000 F100.0(Penetrate)
G01 X71.449308 Y80.202836 Z-1.000000 F400.000000
G00 Z5.000000
M05 (turn off plasma)
(End cutting path id: path28653)


(Start cutting path id: path28651)
(Change tool to Plasma cutter)
 
G00 Z5.000000
G00 X71.763708 Y81.931537
G31 Z-100 F500 (find metal)
G92 Z0 (zero z)
G00 Z10 F500 (going up)
M03 (turn on plasma)
G04 P0.2 (pause)
G01 Z1 (going to cutting z)
G01 Z-1.000000 F100.0(Penetrate)
G01 X71.735508 Y80.655836 Z-1.000000 F400.000000
G00 Z5.000000
M05 (turn off plasma)
(End cutting path id: path28651)


(Start cutting path id: path28649)
(Change tool to Plasma cutter)
 
G00 Z5.000000
G00 X71.215508 Y83.550736
G31 Z-100 F500 (find metal)
G92 Z0 (zero z)
G00 Z10 F500 (going up)
M03 (turn on plasma)
G04 P0.2 (pause)
G01 Z1 (going to cutting z)
G01 Z-1.000000 F100.0(Penetrate)
G01 X71.763708 Y81.931537 Z-1.000000 F400.000000
G00 Z5.000000
M05 (turn off plasma)
(End cutting path id: path28649)


(Start cutting path id: path28647)
(Change tool to Plasma cutter)
 
G00 Z5.000000
G00 X70.259938 Y85.134937
G31 Z-100 F500 (find metal)
G92 Z0 (zero z)
G00 Z10 F500 (going up)
M03 (turn on plasma)
G04 P0.2 (pause)
G01 Z1 (going to cutting z)
G01 Z-1.000000 F100.0(Penetrate)
G01 X71.215508 Y83.550736 Z-1.000000 F400.000000
G00 Z5.000000
M05 (turn off plasma)
(End cutting path id: path28647)


(Start cutting path id: path28645)
(Change tool to Plasma cutter)
 
G00 Z5.000000
G00 X69.065718 Y86.305937
G31 Z-100 F500 (find metal)
G92 Z0 (zero z)
G00 Z10 F500 (going up)
M03 (turn on plasma)
G04 P0.2 (pause)
G01 Z1 (going to cutting z)
G01 Z-1.000000 F100.0(Penetrate)
G01 X70.259938 Y85.134937 Z-1.000000 F400.000000
G00 Z5.000000
M05 (turn off plasma)
(End cutting path id: path28645)


(Start cutting path id: path28643)
(Change tool to Plasma cutter)
 
G00 Z5.000000
G00 X67.104088 Y87.219837
G31 Z-100 F500 (find metal)
G92 Z0 (zero z)
G00 Z10 F500 (going up)
M03 (turn on plasma)
G04 P0.2 (pause)
G01 Z1 (going to cutting z)
G01 Z-1.000000 F100.0(Penetrate)
G01 X69.065718 Y86.305937 Z-1.000000 F400.000000
G00 Z5.000000
M05 (turn off plasma)
(End cutting path id: path28643)


(Start cutting path id: path28641)
(Change tool to Plasma cutter)
 
G00 Z5.000000
G00 X64.362478 Y88.075436
G31 Z-100 F500 (find metal)
G92 Z0 (zero z)
G00 Z10 F500 (going up)
M03 (turn on plasma)
G04 P0.2 (pause)
G01 Z1 (going to cutting z)
G01 Z-1.000000 F100.0(Penetrate)
G01 X67.104088 Y87.219837 Z-1.000000 F400.000000
G00 Z5.000000
M05 (turn off plasma)
(End cutting path id: path28641)


(Start cutting path id: path28639)
(Change tool to Plasma cutter)
 
G00 Z5.000000
G00 X61.504465 Y88.698337
G31 Z-100 F500 (find metal)
G92 Z0 (zero z)
G00 Z10 F500 (going up)
M03 (turn on plasma)
G04 P0.2 (pause)
G01 Z1 (going to cutting z)
G01 Z-1.000000 F100.0(Penetrate)
G01 X64.362478 Y88.075436 Z-1.000000 F400.000000
G00 Z5.000000
M05 (turn off plasma)
(End cutting path id: path28639)


(Start cutting path id: path28637)
(Change tool to Plasma cutter)
 
G00 Z5.000000
G00 X59.193628 Y88.913735
G31 Z-100 F500 (find metal)
G92 Z0 (zero z)
G00 Z10 F500 (going up)
M03 (turn on plasma)
G04 P0.2 (pause)
G01 Z1 (going to cutting z)
G01 Z-1.000000 F100.0(Penetrate)
G01 X61.504465 Y88.698337 Z-1.000000 F400.000000
G00 Z5.000000
M05 (turn off plasma)
(End cutting path id: path28637)


(Start cutting path id: path28635)
(Change tool to Plasma cutter)
 
G00 Z5.000000
G00 X56.795468 Y88.587737
G31 Z-100 F500 (find metal)
G92 Z0 (zero z)
G00 Z10 F500 (going up)
M03 (turn on plasma)
G04 P0.2 (pause)
G01 Z1 (going to cutting z)
G01 Z-1.000000 F100.0(Penetrate)
G01 X59.193628 Y88.913735 Z-1.000000 F400.000000
G00 Z5.000000
M05 (turn off plasma)
(End cutting path id: path28635)


(Start cutting path id: path28633)
(Change tool to Plasma cutter)
 
G00 Z5.000000
G00 X53.605648 Y87.796036
G31 Z-100 F500 (find metal)
G92 Z0 (zero z)
G00 Z10 F500 (going up)
M03 (turn on plasma)
G04 P0.2 (pause)
G01 Z1 (going to cutting z)
G01 Z-1.000000 F100.0(Penetrate)
G01 X56.795468 Y88.587737 Z-1.000000 F400.000000
G00 Z5.000000
M05 (turn off plasma)
(End cutting path id: path28633)


(Start cutting path id: path28631)
(Change tool to Plasma cutter)
 
G00 Z5.000000
G00 X50.575908 Y86.771335
G31 Z-100 F500 (find metal)
G92 Z0 (zero z)
G00 Z10 F500 (going up)
M03 (turn on plasma)
G04 P0.2 (pause)
G01 Z1 (going to cutting z)
G01 Z-1.000000 F100.0(Penetrate)
G01 X53.605648 Y87.796036 Z-1.000000 F400.000000
G00 Z5.000000
M05 (turn off plasma)
(End cutting path id: path28631)


(Start cutting path id: path28629)
(Change tool to Plasma cutter)
 
G00 Z5.000000
G00 X47.773208 Y85.512336
G31 Z-100 F500 (find metal)
G92 Z0 (zero z)
G00 Z10 F500 (going up)
M03 (turn on plasma)
G04 P0.2 (pause)
G01 Z1 (going to cutting z)
G01 Z-1.000000 F100.0(Penetrate)
G01 X50.575908 Y86.771335 Z-1.000000 F400.000000
G00 Z5.000000
M05 (turn off plasma)
(End cutting path id: path28629)


(Start cutting path id: path28627)
(Change tool to Plasma cutter)
 
G00 Z5.000000
G00 X45.197408 Y84.017636
G31 Z-100 F500 (find metal)
G92 Z0 (zero z)
G00 Z10 F500 (going up)
M03 (turn on plasma)
G04 P0.2 (pause)
G01 Z1 (going to cutting z)
G01 Z-1.000000 F100.0(Penetrate)
G01 X47.773208 Y85.512336 Z-1.000000 F400.000000
G00 Z5.000000
M05 (turn off plasma)
(End cutting path id: path28627)


(Start cutting path id: path28625)
(Change tool to Plasma cutter)
 
G00 Z5.000000
G00 X42.848708 Y82.285735
G31 Z-100 F500 (find metal)
G92 Z0 (zero z)
G00 Z10 F500 (going up)
M03 (turn on plasma)
G04 P0.2 (pause)
G01 Z1 (going to cutting z)
G01 Z-1.000000 F100.0(Penetrate)
G01 X45.197408 Y84.017636 Z-1.000000 F400.000000
G00 Z5.000000
M05 (turn off plasma)
(End cutting path id: path28625)


(Start cutting path id: path28623)
(Change tool to Plasma cutter)
 
G00 Z5.000000
G00 X40.727008 Y80.315036
G31 Z-100 F500 (find metal)
G92 Z0 (zero z)
G00 Z10 F500 (going up)
M03 (turn on plasma)
G04 P0.2 (pause)
G01 Z1 (going to cutting z)
G01 Z-1.000000 F100.0(Penetrate)
G01 X42.848708 Y82.285735 Z-1.000000 F400.000000
G00 Z5.000000
M05 (turn off plasma)
(End cutting path id: path28623)


(Start cutting path id: path28621)
(Change tool to Plasma cutter)
 
G00 Z5.000000
G00 X38.832408 Y78.104435
G31 Z-100 F500 (find metal)
G92 Z0 (zero z)
G00 Z10 F500 (going up)
M03 (turn on plasma)
G04 P0.2 (pause)
G01 Z1 (going to cutting z)
G01 Z-1.000000 F100.0(Penetrate)
G01 X40.727008 Y80.315036 Z-1.000000 F400.000000
G00 Z5.000000
M05 (turn off plasma)
(End cutting path id: path28621)


(Start cutting path id: path28619)
(Change tool to Plasma cutter)
 
G00 Z5.000000
G00 X37.164708 Y75.652135
G31 Z-100 F500 (find metal)
G92 Z0 (zero z)
G00 Z10 F500 (going up)
M03 (turn on plasma)
G04 P0.2 (pause)
G01 Z1 (going to cutting z)
G01 Z-1.000000 F100.0(Penetrate)
G01 X38.832408 Y78.104435 Z-1.000000 F400.000000
G00 Z5.000000
M05 (turn off plasma)
(End cutting path id: path28619)


(Start cutting path id: path28617)
(Change tool to Plasma cutter)
 
G00 Z5.000000
G00 X35.724008 Y72.956831
G31 Z-100 F500 (find metal)
G92 Z0 (zero z)
G00 Z10 F500 (going up)
M03 (turn on plasma)
G04 P0.2 (pause)
G01 Z1 (going to cutting z)
G01 Z-1.000000 F100.0(Penetrate)
G01 X37.164708 Y75.652135 Z-1.000000 F400.000000
G00 Z5.000000
M05 (turn off plasma)
(End cutting path id: path28617)


(Start cutting path id: path28615)
(Change tool to Plasma cutter)
 
G00 Z5.000000
G00 X34.567408 Y69.918229
G31 Z-100 F500 (find metal)
G92 Z0 (zero z)
G00 Z10 F500 (going up)
M03 (turn on plasma)
G04 P0.2 (pause)
G01 Z1 (going to cutting z)
G01 Z-1.000000 F100.0(Penetrate)
G01 X35.724008 Y72.956831 Z-1.000000 F400.000000
G00 Z5.000000
M05 (turn off plasma)
(End cutting path id: path28615)


(Start cutting path id: path28613)
(Change tool to Plasma cutter)
 
G00 Z5.000000
G00 X33.886608 Y66.843982
G31 Z-100 F500 (find metal)
G92 Z0 (zero z)
G00 Z10 F500 (going up)
M03 (turn on plasma)
G04 P0.2 (pause)
G01 Z1 (going to cutting z)
G01 Z-1.000000 F100.0(Penetrate)
G01 X34.567408 Y69.918229 Z-1.000000 F400.000000
G00 Z5.000000
M05 (turn off plasma)
(End cutting path id: path28613)


(Start cutting path id: path28611)
(Change tool to Plasma cutter)
 
G00 Z5.000000
G00 X33.674408 Y63.785738
G31 Z-100 F500 (find metal)
G92 Z0 (zero z)
G00 Z10 F500 (going up)
M03 (turn on plasma)
G04 P0.2 (pause)
G01 Z1 (going to cutting z)
G01 Z-1.000000 F100.0(Penetrate)
G01 X33.886608 Y66.843982 Z-1.000000 F400.000000
G00 Z5.000000
M05 (turn off plasma)
(End cutting path id: path28611)


(Start cutting path id: path28609)
(Change tool to Plasma cutter)
 
G00 Z5.000000
G00 X33.923508 Y60.795170
G31 Z-100 F500 (find metal)
G92 Z0 (zero z)
G00 Z10 F500 (going up)
M03 (turn on plasma)
G04 P0.2 (pause)
G01 Z1 (going to cutting z)
G01 Z-1.000000 F100.0(Penetrate)
G01 X33.674408 Y63.785738 Z-1.000000 F400.000000
G00 Z5.000000
M05 (turn off plasma)
(End cutting path id: path28609)


(Start cutting path id: path28607)
(Change tool to Plasma cutter)
 
G00 Z5.000000
G00 X34.626608 Y57.923982
G31 Z-100 F500 (find metal)
G92 Z0 (zero z)
G00 Z10 F500 (going up)
M03 (turn on plasma)
G04 P0.2 (pause)
G01 Z1 (going to cutting z)
G01 Z-1.000000 F100.0(Penetrate)
G01 X33.923508 Y60.795170 Z-1.000000 F400.000000
G00 Z5.000000
M05 (turn off plasma)
(End cutting path id: path28607)


(Start cutting path id: path28605)
(Change tool to Plasma cutter)
 
G00 Z5.000000
G00 X35.776408 Y55.223708
G31 Z-100 F500 (find metal)
G92 Z0 (zero z)
G00 Z10 F500 (going up)
M03 (turn on plasma)
G04 P0.2 (pause)
G01 Z1 (going to cutting z)
G01 Z-1.000000 F100.0(Penetrate)
G01 X34.626608 Y57.923982 Z-1.000000 F400.000000
G00 Z5.000000
M05 (turn off plasma)
(End cutting path id: path28605)


(Start cutting path id: path28603)
(Change tool to Plasma cutter)
 
G00 Z5.000000
G00 X37.365808 Y52.746107
G31 Z-100 F500 (find metal)
G92 Z0 (zero z)
G00 Z10 F500 (going up)
M03 (turn on plasma)
G04 P0.2 (pause)
G01 Z1 (going to cutting z)
G01 Z-1.000000 F100.0(Penetrate)
G01 X35.776408 Y55.223708 Z-1.000000 F400.000000
G00 Z5.000000
M05 (turn off plasma)
(End cutting path id: path28603)


(Start cutting path id: path28601)
(Change tool to Plasma cutter)
 
G00 Z5.000000
G00 X39.387308 Y50.542798
G31 Z-100 F500 (find metal)
G92 Z0 (zero z)
G00 Z10 F500 (going up)
M03 (turn on plasma)
G04 P0.2 (pause)
G01 Z1 (going to cutting z)
G01 Z-1.000000 F100.0(Penetrate)
G01 X37.365808 Y52.746107 Z-1.000000 F400.000000
G00 Z5.000000
M05 (turn off plasma)
(End cutting path id: path28601)


(Start cutting path id: path28599)
(Change tool to Plasma cutter)
 
G00 Z5.000000
G00 X41.557508 Y48.757743
G31 Z-100 F500 (find metal)
G92 Z0 (zero z)
G00 Z10 F500 (going up)
M03 (turn on plasma)
G04 P0.2 (pause)
G01 Z1 (going to cutting z)
G01 Z-1.000000 F100.0(Penetrate)
G01 X39.387308 Y50.542798 Z-1.000000 F400.000000
G00 Z5.000000
M05 (turn off plasma)
(End cutting path id: path28599)


(Start cutting path id: path28597)
(Change tool to Plasma cutter)
 
G00 Z5.000000
G00 X43.617108 Y47.764349
G31 Z-100 F500 (find metal)
G92 Z0 (zero z)
G00 Z10 F500 (going up)
M03 (turn on plasma)
G04 P0.2 (pause)
G01 Z1 (going to cutting z)
G01 Z-1.000000 F100.0(Penetrate)
G01 X41.557508 Y48.757743 Z-1.000000 F400.000000
G00 Z5.000000
M05 (turn off plasma)
(End cutting path id: path28597)


(Start cutting path id: path28595)
(Change tool to Plasma cutter)
 
G00 Z5.000000
G00 X64.489988 Y4.778348
G31 Z-100 F500 (find metal)
G92 Z0 (zero z)
G00 Z10 F500 (going up)
M03 (turn on plasma)
G04 P0.2 (pause)
G01 Z1 (going to cutting z)
G01 Z-1.000000 F100.0(Penetrate)
G01 X71.342508 Y5.644037 Z-1.000000 F400.000000
G00 Z5.000000
M05 (turn off plasma)
(End cutting path id: path28595)


(Start cutting path id: path28593)
(Change tool to Plasma cutter)
 
G00 Z5.000000
G00 X57.583028 Y4.778348
G31 Z-100 F500 (find metal)
G92 Z0 (zero z)
G00 Z10 F500 (going up)
M03 (turn on plasma)
G04 P0.2 (pause)
G01 Z1 (going to cutting z)
G01 Z-1.000000 F100.0(Penetrate)
G01 X64.489988 Y4.778348 Z-1.000000 F400.000000
G00 Z5.000000
M05 (turn off plasma)
(End cutting path id: path28593)


(Start cutting path id: path28591)
(Change tool to Plasma cutter)
 
G00 Z5.000000
G00 X50.730508 Y5.644037
G31 Z-100 F500 (find metal)
G92 Z0 (zero z)
G00 Z10 F500 (going up)
M03 (turn on plasma)
G04 P0.2 (pause)
G01 Z1 (going to cutting z)
G01 Z-1.000000 F100.0(Penetrate)
G01 X57.583028 Y4.778348 Z-1.000000 F400.000000
G00 Z5.000000
M05 (turn off plasma)
(End cutting path id: path28591)


(Start cutting path id: path28589)
(Change tool to Plasma cutter)
 
G00 Z5.000000
G00 X44.040608 Y7.361726
G31 Z-100 F500 (find metal)
G92 Z0 (zero z)
G00 Z10 F500 (going up)
M03 (turn on plasma)
G04 P0.2 (pause)
G01 Z1 (going to cutting z)
G01 Z-1.000000 F100.0(Penetrate)
G01 X50.730508 Y5.644037 Z-1.000000 F400.000000
G00 Z5.000000
M05 (turn off plasma)
(End cutting path id: path28589)


(Start cutting path id: path28587)
(Change tool to Plasma cutter)
 
G00 Z5.000000
G00 X37.618708 Y9.904322
G31 Z-100 F500 (find metal)
G92 Z0 (zero z)
G00 Z10 F500 (going up)
M03 (turn on plasma)
G04 P0.2 (pause)
G01 Z1 (going to cutting z)
G01 Z-1.000000 F100.0(Penetrate)
G01 X44.040608 Y7.361726 Z-1.000000 F400.000000
G00 Z5.000000
M05 (turn off plasma)
(End cutting path id: path28587)


(Start cutting path id: path28585)
(Change tool to Plasma cutter)
 
G00 Z5.000000
G00 X31.566008 Y13.231835
G31 Z-100 F500 (find metal)
G92 Z0 (zero z)
G00 Z10 F500 (going up)
M03 (turn on plasma)
G04 P0.2 (pause)
G01 Z1 (going to cutting z)
G01 Z-1.000000 F100.0(Penetrate)
G01 X37.618708 Y9.904322 Z-1.000000 F400.000000
G00 Z5.000000
M05 (turn off plasma)
(End cutting path id: path28585)


(Start cutting path id: path28583)
(Change tool to Plasma cutter)
 
G00 Z5.000000
G00 X25.978209 Y17.291630
G31 Z-100 F500 (find metal)
G92 Z0 (zero z)
G00 Z10 F500 (going up)
M03 (turn on plasma)
G04 P0.2 (pause)
G01 Z1 (going to cutting z)
G01 Z-1.000000 F100.0(Penetrate)
G01 X31.566008 Y13.231835 Z-1.000000 F400.000000
G00 Z5.000000
M05 (turn off plasma)
(End cutting path id: path28583)


(Start cutting path id: path28581)
(Change tool to Plasma cutter)
 
G00 Z5.000000
G00 X20.943209 Y22.019727
G31 Z-100 F500 (find metal)
G92 Z0 (zero z)
G00 Z10 F500 (going up)
M03 (turn on plasma)
G04 P0.2 (pause)
G01 Z1 (going to cutting z)
G01 Z-1.000000 F100.0(Penetrate)
G01 X25.978209 Y17.291630 Z-1.000000 F400.000000
G00 Z5.000000
M05 (turn off plasma)
(End cutting path id: path28581)


(Start cutting path id: path28579)
(Change tool to Plasma cutter)
 
G00 Z5.000000
G00 X16.540607 Y27.341648
G31 Z-100 F500 (find metal)
G92 Z0 (zero z)
G00 Z10 F500 (going up)
M03 (turn on plasma)
G04 P0.2 (pause)
G01 Z1 (going to cutting z)
G01 Z-1.000000 F100.0(Penetrate)
G01 X20.943209 Y22.019727 Z-1.000000 F400.000000
G00 Z5.000000
M05 (turn off plasma)
(End cutting path id: path28579)


(Start cutting path id: path28577)
(Change tool to Plasma cutter)
 
G00 Z5.000000
G00 X12.839607 Y33.173432
G31 Z-100 F500 (find metal)
G92 Z0 (zero z)
G00 Z10 F500 (going up)
M03 (turn on plasma)
G04 P0.2 (pause)
G01 Z1 (going to cutting z)
G01 Z-1.000000 F100.0(Penetrate)
G01 X16.540607 Y27.341648 Z-1.000000 F400.000000
G00 Z5.000000
M05 (turn off plasma)
(End cutting path id: path28577)


(Start cutting path id: path28575)
(Change tool to Plasma cutter)
 
G00 Z5.000000
G00 X9.898809 Y39.423045
G31 Z-100 F500 (find metal)
G92 Z0 (zero z)
G00 Z10 F500 (going up)
M03 (turn on plasma)
G04 P0.2 (pause)
G01 Z1 (going to cutting z)
G01 Z-1.000000 F100.0(Penetrate)
G01 X12.839607 Y33.173432 Z-1.000000 F400.000000
G00 Z5.000000
M05 (turn off plasma)
(End cutting path id: path28575)


(Start cutting path id: path28573)
(Change tool to Plasma cutter)
 
G00 Z5.000000
G00 X7.764408 Y45.991937
G31 Z-100 F500 (find metal)
G92 Z0 (zero z)
G00 Z10 F500 (going up)
M03 (turn on plasma)
G04 P0.2 (pause)
G01 Z1 (going to cutting z)
G01 Z-1.000000 F100.0(Penetrate)
G01 X9.898809 Y39.423045 Z-1.000000 F400.000000
G00 Z5.000000
M05 (turn off plasma)
(End cutting path id: path28573)


(Start cutting path id: path28571)
(Change tool to Plasma cutter)
 
G00 Z5.000000
G00 X6.470207 Y52.776503
G31 Z-100 F500 (find metal)
G92 Z0 (zero z)
G00 Z10 F500 (going up)
M03 (turn on plasma)
G04 P0.2 (pause)
G01 Z1 (going to cutting z)
G01 Z-1.000000 F100.0(Penetrate)
G01 X7.764408 Y45.991937 Z-1.000000 F400.000000
G00 Z5.000000
M05 (turn off plasma)
(End cutting path id: path28571)


(Start cutting path id: path28569)
(Change tool to Plasma cutter)
 
G00 Z5.000000
G00 X6.036508 Y59.669837
G31 Z-100 F500 (find metal)
G92 Z0 (zero z)
G00 Z10 F500 (going up)
M03 (turn on plasma)
G04 P0.2 (pause)
G01 Z1 (going to cutting z)
G01 Z-1.000000 F100.0(Penetrate)
G01 X6.470207 Y52.776503 Z-1.000000 F400.000000
G00 Z5.000000
M05 (turn off plasma)
(End cutting path id: path28569)


(Start cutting path id: path28567)
(Change tool to Plasma cutter)
 
G00 Z5.000000
G00 X6.470207 Y66.563171
G31 Z-100 F500 (find metal)
G92 Z0 (zero z)
G00 Z10 F500 (going up)
M03 (turn on plasma)
G04 P0.2 (pause)
G01 Z1 (going to cutting z)
G01 Z-1.000000 F100.0(Penetrate)
G01 X6.036508 Y59.669837 Z-1.000000 F400.000000
G00 Z5.000000
M05 (turn off plasma)
(End cutting path id: path28567)


(Start cutting path id: path28565)
(Change tool to Plasma cutter)
 
G00 Z5.000000
G00 X7.764408 Y73.347737
G31 Z-100 F500 (find metal)
G92 Z0 (zero z)
G00 Z10 F500 (going up)
M03 (turn on plasma)
G04 P0.2 (pause)
G01 Z1 (going to cutting z)
G01 Z-1.000000 F100.0(Penetrate)
G01 X6.470207 Y66.563171 Z-1.000000 F400.000000
G00 Z5.000000
M05 (turn off plasma)
(End cutting path id: path28565)


(Start cutting path id: path28563)
(Change tool to Plasma cutter)
 
G00 Z5.000000
G00 X9.898809 Y79.916637
G31 Z-100 F500 (find metal)
G92 Z0 (zero z)
G00 Z10 F500 (going up)
M03 (turn on plasma)
G04 P0.2 (pause)
G01 Z1 (going to cutting z)
G01 Z-1.000000 F100.0(Penetrate)
G01 X7.764408 Y73.347737 Z-1.000000 F400.000000
G00 Z5.000000
M05 (turn off plasma)
(End cutting path id: path28563)


(Start cutting path id: path28561)
(Change tool to Plasma cutter)
 
G00 Z5.000000
G00 X12.839607 Y86.166237
G31 Z-100 F500 (find metal)
G92 Z0 (zero z)
G00 Z10 F500 (going up)
M03 (turn on plasma)
G04 P0.2 (pause)
G01 Z1 (going to cutting z)
G01 Z-1.000000 F100.0(Penetrate)
G01 X9.898809 Y79.916637 Z-1.000000 F400.000000
G00 Z5.000000
M05 (turn off plasma)
(End cutting path id: path28561)


(Start cutting path id: path28559)
(Change tool to Plasma cutter)
 
G00 Z5.000000
G00 X16.540607 Y91.998037
G31 Z-100 F500 (find metal)
G92 Z0 (zero z)
G00 Z10 F500 (going up)
M03 (turn on plasma)
G04 P0.2 (pause)
G01 Z1 (going to cutting z)
G01 Z-1.000000 F100.0(Penetrate)
G01 X12.839607 Y86.166237 Z-1.000000 F400.000000
G00 Z5.000000
M05 (turn off plasma)
(End cutting path id: path28559)


(Start cutting path id: path28557)
(Change tool to Plasma cutter)
 
G00 Z5.000000
G00 X20.943209 Y97.319935
G31 Z-100 F500 (find metal)
G92 Z0 (zero z)
G00 Z10 F500 (going up)
M03 (turn on plasma)
G04 P0.2 (pause)
G01 Z1 (going to cutting z)
G01 Z-1.000000 F100.0(Penetrate)
G01 X16.540607 Y91.998037 Z-1.000000 F400.000000
G00 Z5.000000
M05 (turn off plasma)
(End cutting path id: path28557)


(Start cutting path id: path28555)
(Change tool to Plasma cutter)
 
G00 Z5.000000
G00 X25.978209 Y102.048035
G31 Z-100 F500 (find metal)
G92 Z0 (zero z)
G00 Z10 F500 (going up)
M03 (turn on plasma)
G04 P0.2 (pause)
G01 Z1 (going to cutting z)
G01 Z-1.000000 F100.0(Penetrate)
G01 X20.943209 Y97.319935 Z-1.000000 F400.000000
G00 Z5.000000
M05 (turn off plasma)
(End cutting path id: path28555)


(Start cutting path id: path28553)
(Change tool to Plasma cutter)
 
G00 Z5.000000
G00 X31.566008 Y106.107836
G31 Z-100 F500 (find metal)
G92 Z0 (zero z)
G00 Z10 F500 (going up)
M03 (turn on plasma)
G04 P0.2 (pause)
G01 Z1 (going to cutting z)
G01 Z-1.000000 F100.0(Penetrate)
G01 X25.978209 Y102.048035 Z-1.000000 F400.000000
G00 Z5.000000
M05 (turn off plasma)
(End cutting path id: path28553)


(Start cutting path id: path28551)
(Change tool to Plasma cutter)
 
G00 Z5.000000
G00 X37.618708 Y109.435335
G31 Z-100 F500 (find metal)
G92 Z0 (zero z)
G00 Z10 F500 (going up)
M03 (turn on plasma)
G04 P0.2 (pause)
G01 Z1 (going to cutting z)
G01 Z-1.000000 F100.0(Penetrate)
G01 X31.566008 Y106.107836 Z-1.000000 F400.000000
G00 Z5.000000
M05 (turn off plasma)
(End cutting path id: path28551)


(Start cutting path id: path28549)
(Change tool to Plasma cutter)
 
G00 Z5.000000
G00 X44.040608 Y111.977937
G31 Z-100 F500 (find metal)
G92 Z0 (zero z)
G00 Z10 F500 (going up)
M03 (turn on plasma)
G04 P0.2 (pause)
G01 Z1 (going to cutting z)
G01 Z-1.000000 F100.0(Penetrate)
G01 X37.618708 Y109.435335 Z-1.000000 F400.000000
G00 Z5.000000
M05 (turn off plasma)
(End cutting path id: path28549)


(Start cutting path id: path28547)
(Change tool to Plasma cutter)
 
G00 Z5.000000
G00 X50.730508 Y113.695637
G31 Z-100 F500 (find metal)
G92 Z0 (zero z)
G00 Z10 F500 (going up)
M03 (turn on plasma)
G04 P0.2 (pause)
G01 Z1 (going to cutting z)
G01 Z-1.000000 F100.0(Penetrate)
G01 X44.040608 Y111.977937 Z-1.000000 F400.000000
G00 Z5.000000
M05 (turn off plasma)
(End cutting path id: path28547)


(Start cutting path id: path28545)
(Change tool to Plasma cutter)
 
G00 Z5.000000
G00 X57.583028 Y114.561337
G31 Z-100 F500 (find metal)
G92 Z0 (zero z)
G00 Z10 F500 (going up)
M03 (turn on plasma)
G04 P0.2 (pause)
G01 Z1 (going to cutting z)
G01 Z-1.000000 F100.0(Penetrate)
G01 X50.730508 Y113.695637 Z-1.000000 F400.000000
G00 Z5.000000
M05 (turn off plasma)
(End cutting path id: path28545)


(Start cutting path id: path28543)
(Change tool to Plasma cutter)
 
G00 Z5.000000
G00 X64.489988 Y114.561337
G31 Z-100 F500 (find metal)
G92 Z0 (zero z)
G00 Z10 F500 (going up)
M03 (turn on plasma)
G04 P0.2 (pause)
G01 Z1 (going to cutting z)
G01 Z-1.000000 F100.0(Penetrate)
G01 X57.583028 Y114.561337 Z-1.000000 F400.000000
G00 Z5.000000
M05 (turn off plasma)
(End cutting path id: path28543)


(Start cutting path id: path28541)
(Change tool to Plasma cutter)
 
G00 Z5.000000
G00 X71.342508 Y113.695637
G31 Z-100 F500 (find metal)
G92 Z0 (zero z)
G00 Z10 F500 (going up)
M03 (turn on plasma)
G04 P0.2 (pause)
G01 Z1 (going to cutting z)
G01 Z-1.000000 F100.0(Penetrate)
G01 X64.489988 Y114.561337 Z-1.000000 F400.000000
G00 Z5.000000
M05 (turn off plasma)
(End cutting path id: path28541)


(Start cutting path id: path28539)
(Change tool to Plasma cutter)
 
G00 Z5.000000
G00 X78.032408 Y111.977937
G31 Z-100 F500 (find metal)
G92 Z0 (zero z)
G00 Z10 F500 (going up)
M03 (turn on plasma)
G04 P0.2 (pause)
G01 Z1 (going to cutting z)
G01 Z-1.000000 F100.0(Penetrate)
G01 X71.342508 Y113.695637 Z-1.000000 F400.000000
G00 Z5.000000
M05 (turn off plasma)
(End cutting path id: path28539)


(Start cutting path id: path28537)
(Change tool to Plasma cutter)
 
G00 Z5.000000
G00 X84.454308 Y109.435335
G31 Z-100 F500 (find metal)
G92 Z0 (zero z)
G00 Z10 F500 (going up)
M03 (turn on plasma)
G04 P0.2 (pause)
G01 Z1 (going to cutting z)
G01 Z-1.000000 F100.0(Penetrate)
G01 X78.032408 Y111.977937 Z-1.000000 F400.000000
G00 Z5.000000
M05 (turn off plasma)
(End cutting path id: path28537)


(Start cutting path id: path28535)
(Change tool to Plasma cutter)
 
G00 Z5.000000
G00 X90.507008 Y106.107836
G31 Z-100 F500 (find metal)
G92 Z0 (zero z)
G00 Z10 F500 (going up)
M03 (turn on plasma)
G04 P0.2 (pause)
G01 Z1 (going to cutting z)
G01 Z-1.000000 F100.0(Penetrate)
G01 X84.454308 Y109.435335 Z-1.000000 F400.000000
G00 Z5.000000
M05 (turn off plasma)
(End cutting path id: path28535)


(Start cutting path id: path28533)
(Change tool to Plasma cutter)
 
G00 Z5.000000
G00 X96.094807 Y102.048035
G31 Z-100 F500 (find metal)
G92 Z0 (zero z)
G00 Z10 F500 (going up)
M03 (turn on plasma)
G04 P0.2 (pause)
G01 Z1 (going to cutting z)
G01 Z-1.000000 F100.0(Penetrate)
G01 X90.507008 Y106.107836 Z-1.000000 F400.000000
G00 Z5.000000
M05 (turn off plasma)
(End cutting path id: path28533)


(Start cutting path id: path28531)
(Change tool to Plasma cutter)
 
G00 Z5.000000
G00 X101.129807 Y97.319935
G31 Z-100 F500 (find metal)
G92 Z0 (zero z)
G00 Z10 F500 (going up)
M03 (turn on plasma)
G04 P0.2 (pause)
G01 Z1 (going to cutting z)
G01 Z-1.000000 F100.0(Penetrate)
G01 X96.094807 Y102.048035 Z-1.000000 F400.000000
G00 Z5.000000
M05 (turn off plasma)
(End cutting path id: path28531)


(Start cutting path id: path28529)
(Change tool to Plasma cutter)
 
G00 Z5.000000
G00 X105.532409 Y91.998037
G31 Z-100 F500 (find metal)
G92 Z0 (zero z)
G00 Z10 F500 (going up)
M03 (turn on plasma)
G04 P0.2 (pause)
G01 Z1 (going to cutting z)
G01 Z-1.000000 F100.0(Penetrate)
G01 X101.129807 Y97.319935 Z-1.000000 F400.000000
G00 Z5.000000
M05 (turn off plasma)
(End cutting path id: path28529)


(Start cutting path id: path28527)
(Change tool to Plasma cutter)
 
G00 Z5.000000
G00 X109.233409 Y86.166237
G31 Z-100 F500 (find metal)
G92 Z0 (zero z)
G00 Z10 F500 (going up)
M03 (turn on plasma)
G04 P0.2 (pause)
G01 Z1 (going to cutting z)
G01 Z-1.000000 F100.0(Penetrate)
G01 X105.532409 Y91.998037 Z-1.000000 F400.000000
G00 Z5.000000
M05 (turn off plasma)
(End cutting path id: path28527)


(Start cutting path id: path28525)
(Change tool to Plasma cutter)
 
G00 Z5.000000
G00 X112.174207 Y79.916637
G31 Z-100 F500 (find metal)
G92 Z0 (zero z)
G00 Z10 F500 (going up)
M03 (turn on plasma)
G04 P0.2 (pause)
G01 Z1 (going to cutting z)
G01 Z-1.000000 F100.0(Penetrate)
G01 X109.233409 Y86.166237 Z-1.000000 F400.000000
G00 Z5.000000
M05 (turn off plasma)
(End cutting path id: path28525)


(Start cutting path id: path28523)
(Change tool to Plasma cutter)
 
G00 Z5.000000
G00 X112.267208 Y79.630337
G31 Z-100 F500 (find metal)
G92 Z0 (zero z)
G00 Z10 F500 (going up)
M03 (turn on plasma)
G04 P0.2 (pause)
G01 Z1 (going to cutting z)
G01 Z-1.000000 F100.0(Penetrate)
G01 X112.174207 Y79.916637 Z-1.000000 F400.000000
G00 Z5.000000
M05 (turn off plasma)
(End cutting path id: path28523)


(Start cutting path id: path28521)
(Change tool to Plasma cutter)
 
G00 Z5.000000
G00 X162.292508 Y79.630337
G31 Z-100 F500 (find metal)
G92 Z0 (zero z)
G00 Z10 F500 (going up)
M03 (turn on plasma)
G04 P0.2 (pause)
G01 Z1 (going to cutting z)
G01 Z-1.000000 F100.0(Penetrate)
G01 X112.267208 Y79.630337 Z-1.000000 F400.000000
G00 Z5.000000
M05 (turn off plasma)
(End cutting path id: path28521)


(Start cutting path id: path28519)
(Change tool to Plasma cutter)
 
G00 Z5.000000
G00 X164.784508 Y79.315535
G31 Z-100 F500 (find metal)
G92 Z0 (zero z)
G00 Z10 F500 (going up)
M03 (turn on plasma)
G04 P0.2 (pause)
G01 Z1 (going to cutting z)
G01 Z-1.000000 F100.0(Penetrate)
G01 X162.292508 Y79.630337 Z-1.000000 F400.000000
G00 Z5.000000
M05 (turn off plasma)
(End cutting path id: path28519)


(Start cutting path id: path28517)
(Change tool to Plasma cutter)
 
G00 Z5.000000
G00 X167.216510 Y78.690935
G31 Z-100 F500 (find metal)
G92 Z0 (zero z)
G00 Z10 F500 (going up)
M03 (turn on plasma)
G04 P0.2 (pause)
G01 Z1 (going to cutting z)
G01 Z-1.000000 F100.0(Penetrate)
G01 X164.784508 Y79.315535 Z-1.000000 F400.000000
G00 Z5.000000
M05 (turn off plasma)
(End cutting path id: path28517)


(Start cutting path id: path28515)
(Change tool to Plasma cutter)
 
G00 Z5.000000
G00 X169.552508 Y77.766335
G31 Z-100 F500 (find metal)
G92 Z0 (zero z)
G00 Z10 F500 (going up)
M03 (turn on plasma)
G04 P0.2 (pause)
G01 Z1 (going to cutting z)
G01 Z-1.000000 F100.0(Penetrate)
G01 X167.216510 Y78.690935 Z-1.000000 F400.000000
G00 Z5.000000
M05 (turn off plasma)
(End cutting path id: path28515)


(Start cutting path id: path28513)
(Change tool to Plasma cutter)
 
G00 Z5.000000
G00 X171.753508 Y76.556437
G31 Z-100 F500 (find metal)
G92 Z0 (zero z)
G00 Z10 F500 (going up)
M03 (turn on plasma)
G04 P0.2 (pause)
G01 Z1 (going to cutting z)
G01 Z-1.000000 F100.0(Penetrate)
G01 X169.552508 Y77.766335 Z-1.000000 F400.000000
G00 Z5.000000
M05 (turn off plasma)
(End cutting path id: path28513)


(Start cutting path id: path28511)
(Change tool to Plasma cutter)
 
G00 Z5.000000
G00 X173.784509 Y75.080136
G31 Z-100 F500 (find metal)
G92 Z0 (zero z)
G00 Z10 F500 (going up)
M03 (turn on plasma)
G04 P0.2 (pause)
G01 Z1 (going to cutting z)
G01 Z-1.000000 F100.0(Penetrate)
G01 X171.753508 Y76.556437 Z-1.000000 F400.000000
G00 Z5.000000
M05 (turn off plasma)
(End cutting path id: path28511)


(Start cutting path id: path28509)
(Change tool to Plasma cutter)
 
G00 Z5.000000
G00 X175.615508 Y73.360747
G31 Z-100 F500 (find metal)
G92 Z0 (zero z)
G00 Z10 F500 (going up)
M03 (turn on plasma)
G04 P0.2 (pause)
G01 Z1 (going to cutting z)
G01 Z-1.000000 F100.0(Penetrate)
G01 X173.784509 Y75.080136 Z-1.000000 F400.000000
G00 Z5.000000
M05 (turn off plasma)
(End cutting path id: path28509)


(Start cutting path id: path28507)
(Change tool to Plasma cutter)
 
G00 Z5.000000
G00 X177.216509 Y71.425521
G31 Z-100 F500 (find metal)
G92 Z0 (zero z)
G00 Z10 F500 (going up)
M03 (turn on plasma)
G04 P0.2 (pause)
G01 Z1 (going to cutting z)
G01 Z-1.000000 F100.0(Penetrate)
G01 X175.615508 Y73.360747 Z-1.000000 F400.000000
G00 Z5.000000
M05 (turn off plasma)
(End cutting path id: path28507)


(Start cutting path id: path28505)
(Change tool to Plasma cutter)
 
G00 Z5.000000
G00 X178.562509 Y69.304904
G31 Z-100 F500 (find metal)
G92 Z0 (zero z)
G00 Z10 F500 (going up)
M03 (turn on plasma)
G04 P0.2 (pause)
G01 Z1 (going to cutting z)
G01 Z-1.000000 F100.0(Penetrate)
G01 X177.216509 Y71.425521 Z-1.000000 F400.000000
G00 Z5.000000
M05 (turn off plasma)
(End cutting path id: path28505)


(Start cutting path id: path28503)
(Change tool to Plasma cutter)
 
G00 Z5.000000
G00 X179.632509 Y67.032337
G31 Z-100 F500 (find metal)
G92 Z0 (zero z)
G00 Z10 F500 (going up)
M03 (turn on plasma)
G04 P0.2 (pause)
G01 Z1 (going to cutting z)
G01 Z-1.000000 F100.0(Penetrate)
G01 X178.562509 Y69.304904 Z-1.000000 F400.000000
G00 Z5.000000
M05 (turn off plasma)
(End cutting path id: path28503)


(Start cutting path id: path28501)
(Change tool to Plasma cutter)
 
G00 Z5.000000
G00 X180.408508 Y64.643637
G31 Z-100 F500 (find metal)
G92 Z0 (zero z)
G00 Z10 F500 (going up)
M03 (turn on plasma)
G04 P0.2 (pause)
G01 Z1 (going to cutting z)
G01 Z-1.000000 F100.0(Penetrate)
G01 X179.632509 Y67.032337 Z-1.000000 F400.000000
G00 Z5.000000
M05 (turn off plasma)
(End cutting path id: path28501)


(Start cutting path id: path28499)
(Change tool to Plasma cutter)
 
G00 Z5.000000
G00 X180.878509 Y62.176478
G31 Z-100 F500 (find metal)
G92 Z0 (zero z)
G00 Z10 F500 (going up)
M03 (turn on plasma)
G04 P0.2 (pause)
G01 Z1 (going to cutting z)
G01 Z-1.000000 F100.0(Penetrate)
G01 X180.408508 Y64.643637 Z-1.000000 F400.000000
G00 Z5.000000
M05 (turn off plasma)
(End cutting path id: path28499)


(Start cutting path id: path28497)
(Change tool to Plasma cutter)
 
G00 Z5.000000
G00 X181.036509 Y59.669837
G31 Z-100 F500 (find metal)
G92 Z0 (zero z)
G00 Z10 F500 (going up)
M03 (turn on plasma)
G04 P0.2 (pause)
G01 Z1 (going to cutting z)
G01 Z-1.000000 F100.0(Penetrate)
G01 X180.878509 Y62.176478 Z-1.000000 F400.000000
G00 Z5.000000
M05 (turn off plasma)
(End cutting path id: path28497)


(Start cutting path id: path28495)
(Change tool to Plasma cutter)
 
G00 Z5.000000
G00 X180.878509 Y57.163196
G31 Z-100 F500 (find metal)
G92 Z0 (zero z)
G00 Z10 F500 (going up)
M03 (turn on plasma)
G04 P0.2 (pause)
G01 Z1 (going to cutting z)
G01 Z-1.000000 F100.0(Penetrate)
G01 X181.036509 Y59.669837 Z-1.000000 F400.000000
G00 Z5.000000
M05 (turn off plasma)
(End cutting path id: path28495)


(Start cutting path id: path28493)
(Change tool to Plasma cutter)
 
G00 Z5.000000
G00 X180.408508 Y54.696037
G31 Z-100 F500 (find metal)
G92 Z0 (zero z)
G00 Z10 F500 (going up)
M03 (turn on plasma)
G04 P0.2 (pause)
G01 Z1 (going to cutting z)
G01 Z-1.000000 F100.0(Penetrate)
G01 X180.878509 Y57.163196 Z-1.000000 F400.000000
G00 Z5.000000
M05 (turn off plasma)
(End cutting path id: path28493)


(Start cutting path id: path28491)
(Change tool to Plasma cutter)
 
G00 Z5.000000
G00 X179.632509 Y52.307336
G31 Z-100 F500 (find metal)
G92 Z0 (zero z)
G00 Z10 F500 (going up)
M03 (turn on plasma)
G04 P0.2 (pause)
G01 Z1 (going to cutting z)
G01 Z-1.000000 F100.0(Penetrate)
G01 X180.408508 Y54.696037 Z-1.000000 F400.000000
G00 Z5.000000
M05 (turn off plasma)
(End cutting path id: path28491)


(Start cutting path id: path28489)
(Change tool to Plasma cutter)
 
G00 Z5.000000
G00 X178.562509 Y50.034770
G31 Z-100 F500 (find metal)
G92 Z0 (zero z)
G00 Z10 F500 (going up)
M03 (turn on plasma)
G04 P0.2 (pause)
G01 Z1 (going to cutting z)
G01 Z-1.000000 F100.0(Penetrate)
G01 X179.632509 Y52.307336 Z-1.000000 F400.000000
G00 Z5.000000
M05 (turn off plasma)
(End cutting path id: path28489)


(Start cutting path id: path28487)
(Change tool to Plasma cutter)
 
G00 Z5.000000
G00 X177.216509 Y47.914124
G31 Z-100 F500 (find metal)
G92 Z0 (zero z)
G00 Z10 F500 (going up)
M03 (turn on plasma)
G04 P0.2 (pause)
G01 Z1 (going to cutting z)
G01 Z-1.000000 F100.0(Penetrate)
G01 X178.562509 Y50.034770 Z-1.000000 F400.000000
G00 Z5.000000
M05 (turn off plasma)
(End cutting path id: path28487)


(Start cutting path id: path28485)
(Change tool to Plasma cutter)
 
G00 Z5.000000
G00 X175.615508 Y45.978926
G31 Z-100 F500 (find metal)
G92 Z0 (zero z)
G00 Z10 F500 (going up)
M03 (turn on plasma)
G04 P0.2 (pause)
G01 Z1 (going to cutting z)
G01 Z-1.000000 F100.0(Penetrate)
G01 X177.216509 Y47.914124 Z-1.000000 F400.000000
G00 Z5.000000
M05 (turn off plasma)
(End cutting path id: path28485)


(Start cutting path id: path28483)
(Change tool to Plasma cutter)
 
G00 Z5.000000
G00 X173.784509 Y44.259544
G31 Z-100 F500 (find metal)
G92 Z0 (zero z)
G00 Z10 F500 (going up)
M03 (turn on plasma)
G04 P0.2 (pause)
G01 Z1 (going to cutting z)
G01 Z-1.000000 F100.0(Penetrate)
G01 X175.615508 Y45.978926 Z-1.000000 F400.000000
G00 Z5.000000
M05 (turn off plasma)
(End cutting path id: path28483)


(Start cutting path id: path28481)
(Change tool to Plasma cutter)
 
G00 Z5.000000
G00 X171.753508 Y42.783239
G31 Z-100 F500 (find metal)
G92 Z0 (zero z)
G00 Z10 F500 (going up)
M03 (turn on plasma)
G04 P0.2 (pause)
G01 Z1 (going to cutting z)
G01 Z-1.000000 F100.0(Penetrate)
G01 X173.784509 Y44.259544 Z-1.000000 F400.000000
G00 Z5.000000
M05 (turn off plasma)
(End cutting path id: path28481)


(Start cutting path id: path28479)
(Change tool to Plasma cutter)
 
G00 Z5.000000
G00 X169.552508 Y41.573325
G31 Z-100 F500 (find metal)
G92 Z0 (zero z)
G00 Z10 F500 (going up)
M03 (turn on plasma)
G04 P0.2 (pause)
G01 Z1 (going to cutting z)
G01 Z-1.000000 F100.0(Penetrate)
G01 X171.753508 Y42.783239 Z-1.000000 F400.000000
G00 Z5.000000
M05 (turn off plasma)
(End cutting path id: path28479)


(Start cutting path id: path28477)
(Change tool to Plasma cutter)
 
G00 Z5.000000
G00 X167.216510 Y40.648736
G31 Z-100 F500 (find metal)
G92 Z0 (zero z)
G00 Z10 F500 (going up)
M03 (turn on plasma)
G04 P0.2 (pause)
G01 Z1 (going to cutting z)
G01 Z-1.000000 F100.0(Penetrate)
G01 X169.552508 Y41.573325 Z-1.000000 F400.000000
G00 Z5.000000
M05 (turn off plasma)
(End cutting path id: path28477)


(Start cutting path id: path28475)
(Change tool to Plasma cutter)
 
G00 Z5.000000
G00 X164.784508 Y40.024122
G31 Z-100 F500 (find metal)
G92 Z0 (zero z)
G00 Z10 F500 (going up)
M03 (turn on plasma)
G04 P0.2 (pause)
G01 Z1 (going to cutting z)
G01 Z-1.000000 F100.0(Penetrate)
G01 X167.216510 Y40.648736 Z-1.000000 F400.000000
G00 Z5.000000
M05 (turn off plasma)
(End cutting path id: path28475)


(Start cutting path id: path28473)
(Change tool to Plasma cutter)
 
G00 Z5.000000
G00 X162.292508 Y39.709331
G31 Z-100 F500 (find metal)
G92 Z0 (zero z)
G00 Z10 F500 (going up)
M03 (turn on plasma)
G04 P0.2 (pause)
G01 Z1 (going to cutting z)
G01 Z-1.000000 F100.0(Penetrate)
G01 X164.784508 Y40.024122 Z-1.000000 F400.000000
G00 Z5.000000
M05 (turn off plasma)
(End cutting path id: path28473)


(Start cutting path id: path28471)
(Change tool to Plasma cutter)
 
G00 Z5.000000
G00 X112.267208 Y39.709331
G31 Z-100 F500 (find metal)
G92 Z0 (zero z)
G00 Z10 F500 (going up)
M03 (turn on plasma)
G04 P0.2 (pause)
G01 Z1 (going to cutting z)
G01 Z-1.000000 F100.0(Penetrate)
G01 X162.292508 Y39.709331 Z-1.000000 F400.000000
G00 Z5.000000
M05 (turn off plasma)
(End cutting path id: path28471)


(Start cutting path id: path28469)
(Change tool to Plasma cutter)
 
G00 Z5.000000
G00 X112.174207 Y39.423045
G31 Z-100 F500 (find metal)
G92 Z0 (zero z)
G00 Z10 F500 (going up)
M03 (turn on plasma)
G04 P0.2 (pause)
G01 Z1 (going to cutting z)
G01 Z-1.000000 F100.0(Penetrate)
G01 X112.267208 Y39.709331 Z-1.000000 F400.000000
G00 Z5.000000
M05 (turn off plasma)
(End cutting path id: path28469)


(Start cutting path id: path28467)
(Change tool to Plasma cutter)
 
G00 Z5.000000
G00 X109.233409 Y33.173432
G31 Z-100 F500 (find metal)
G92 Z0 (zero z)
G00 Z10 F500 (going up)
M03 (turn on plasma)
G04 P0.2 (pause)
G01 Z1 (going to cutting z)
G01 Z-1.000000 F100.0(Penetrate)
G01 X112.174207 Y39.423045 Z-1.000000 F400.000000
G00 Z5.000000
M05 (turn off plasma)
(End cutting path id: path28467)


(Start cutting path id: path28465)
(Change tool to Plasma cutter)
 
G00 Z5.000000
G00 X105.532409 Y27.341648
G31 Z-100 F500 (find metal)
G92 Z0 (zero z)
G00 Z10 F500 (going up)
M03 (turn on plasma)
G04 P0.2 (pause)
G01 Z1 (going to cutting z)
G01 Z-1.000000 F100.0(Penetrate)
G01 X109.233409 Y33.173432 Z-1.000000 F400.000000
G00 Z5.000000
M05 (turn off plasma)
(End cutting path id: path28465)


(Start cutting path id: path28463)
(Change tool to Plasma cutter)
 
G00 Z5.000000
G00 X101.129807 Y22.019727
G31 Z-100 F500 (find metal)
G92 Z0 (zero z)
G00 Z10 F500 (going up)
M03 (turn on plasma)
G04 P0.2 (pause)
G01 Z1 (going to cutting z)
G01 Z-1.000000 F100.0(Penetrate)
G01 X105.532409 Y27.341648 Z-1.000000 F400.000000
G00 Z5.000000
M05 (turn off plasma)
(End cutting path id: path28463)


(Start cutting path id: path28461)
(Change tool to Plasma cutter)
 
G00 Z5.000000
G00 X96.094807 Y17.291630
G31 Z-100 F500 (find metal)
G92 Z0 (zero z)
G00 Z10 F500 (going up)
M03 (turn on plasma)
G04 P0.2 (pause)
G01 Z1 (going to cutting z)
G01 Z-1.000000 F100.0(Penetrate)
G01 X101.129807 Y22.019727 Z-1.000000 F400.000000
G00 Z5.000000
M05 (turn off plasma)
(End cutting path id: path28461)


(Start cutting path id: path28459)
(Change tool to Plasma cutter)
 
G00 Z5.000000
G00 X90.507008 Y13.231835
G31 Z-100 F500 (find metal)
G92 Z0 (zero z)
G00 Z10 F500 (going up)
M03 (turn on plasma)
G04 P0.2 (pause)
G01 Z1 (going to cutting z)
G01 Z-1.000000 F100.0(Penetrate)
G01 X96.094807 Y17.291630 Z-1.000000 F400.000000
G00 Z5.000000
M05 (turn off plasma)
(End cutting path id: path28459)


(Start cutting path id: path28457)
(Change tool to Plasma cutter)
 
G00 Z5.000000
G00 X84.454308 Y9.904322
G31 Z-100 F500 (find metal)
G92 Z0 (zero z)
G00 Z10 F500 (going up)
M03 (turn on plasma)
G04 P0.2 (pause)
G01 Z1 (going to cutting z)
G01 Z-1.000000 F100.0(Penetrate)
G01 X90.507008 Y13.231835 Z-1.000000 F400.000000
G00 Z5.000000
M05 (turn off plasma)
(End cutting path id: path28457)


(Start cutting path id: path28455)
(Change tool to Plasma cutter)
 
G00 Z5.000000
G00 X78.032408 Y7.361726
G31 Z-100 F500 (find metal)
G92 Z0 (zero z)
G00 Z10 F500 (going up)
M03 (turn on plasma)
G04 P0.2 (pause)
G01 Z1 (going to cutting z)
G01 Z-1.000000 F100.0(Penetrate)
G01 X84.454308 Y9.904322 Z-1.000000 F400.000000
G00 Z5.000000
M05 (turn off plasma)
(End cutting path id: path28455)


(Start cutting path id: path28453)
(Change tool to Plasma cutter)
 
G00 Z5.000000
G00 X71.342508 Y5.644037
G31 Z-100 F500 (find metal)
G92 Z0 (zero z)
G00 Z10 F500 (going up)
M03 (turn on plasma)
G04 P0.2 (pause)
G01 Z1 (going to cutting z)
G01 Z-1.000000 F100.0(Penetrate)
G01 X78.032408 Y7.361726 Z-1.000000 F400.000000
G00 Z5.000000
M05 (turn off plasma)
(End cutting path id: path28453)


(Footer)
M5
G00 X0.0000 Y0.0000
M2
(Using default footer. To add your own footer create file "footer" in the output dir.)
(end)
%